;FLAVOR:Marlin
;TIME:6773
;Filament used: 6.96896m
;Layer height: 0.25
;MINX:77.489
;MINY:77.284
;MINZ:0.2
;MAXX:157.515
;MAXY:158.107
;MAXZ:4.95
;Generated with Cura_SteamEngine 4.12.1
M140 S70
M105
M190 S70
M104 S200
M105
M109 S200
M82 ;absolute extrusion mode
; Ender 3 Custom Start G-code
G92 E0 ; Reset Extruder
G28 ; Home all axes
G1 Z2.0 F3000 ; Move Z Axis up little to prevent scratching of Heat Bed
G1 X0.1 Y20 Z0.3 F5000.0 ; Move to start position
G1 X0.1 Y200.0 Z0.3 F1500.0 E15 ; Draw the first line
G1 X0.4 Y200.0 Z0.3 F5000.0 ; Move to side a little
G1 X0.4 Y20 Z0.3 F1500.0 E30 ; Draw the second line
G92 E0 ; Reset Extruder
G1 Z2.0 F3000 ; Move Z Axis up little to prevent scratching of Heat Bed
G1 X5 Y20 Z0.3 F5000.0 ; Move over to prevent blob squish
G92 E0
G92 E0
G1 F2700 E-5
;LAYER_COUNT:20
;LAYER:0
M107
G0 F6000 X105.914 Y81.345 Z0.2
;TYPE:SKIRT
G1 F2700 E0
G1 F1200 X151.758 Y81.345 E1.52478
G1 X153.45 Y81.351 E1.58105
G1 X153.45 Y81.379 E1.58199
G1 X105.922 Y81.379 E3.16277
G1 X105.914 Y81.345 E3.16393
G0 F6000 X105.491 Y81.309
G1 F1200 X105.334 Y80.945 E3.17712
G1 X151.76 Y80.945 E4.72125
G1 X153.85 Y80.952 E4.79077
G1 X153.85 Y81.779 E4.81827
G1 X105.609 Y81.779 E6.42278
G1 X105.491 Y81.309 E6.43889
G0 F6000 X105.092 Y81.378
G1 F1200 X104.898 Y80.966 E6.45404
G1 X104.574 Y80.545 E6.47171
G1 X151.761 Y80.545 E8.04116
G1 X154.25 Y80.554 E8.12394
G1 X154.25 Y82.179 E8.17799
G1 X105.242 Y82.179 E9.808
G1 X105.21 Y81.818 E9.82006
G1 X105.092 Y81.378 E9.83521
G0 F6000 X104.81 Y81.855
G1 F1200 X104.692 Y81.453 E9.84914
G1 X104.499 Y81.081 E9.86308
G1 X104.206 Y80.716 E9.87865
G1 X104.05 Y80.56 E9.88599
G1 X104.05 Y80.145 E9.89979
G1 X151.762 Y80.145 E11.4867
G1 X154.65 Y80.155 E11.58275
G1 X154.65 Y82.579 E11.66337
G1 X104.85 Y82.579 E13.31973
G1 X104.85 Y82.272 E13.32994
G1 X104.81 Y81.855 E13.34387
G0 F6000 X104.41 Y81.895
G1 F1200 X104.292 Y81.535 E13.35647
G1 X104.102 Y81.208 E13.36905
G1 X103.923 Y80.999 E13.37821
G1 X103.65 Y80.726 E13.39105
G1 X103.65 Y79.745 E13.42367
G1 X151.764 Y79.745 E15.02395
G1 X155.05 Y79.756 E15.13325
G1 X155.05 Y82.979 E15.24044
G1 X104.45 Y82.979 E16.92341
G1 X104.45 Y82.272 E16.94692
G1 X104.41 Y81.895 E16.95953
G0 F6000 X104.01 Y81.94
G1 F1200 X103.893 Y81.628 E16.97061
G1 X103.64 Y81.282 E16.98487
G1 X103.25 Y80.892 E17.00321
G1 X103.25 Y79.345 E17.05467
G1 X151.765 Y79.345 E18.66828
G1 X155.45 Y79.358 E18.79085
G1 X155.45 Y83.379 E18.92459
G1 X104.05 Y83.379 E20.63416
G1 X104.05 Y82.272 E20.67098
G1 X104.01 Y81.94 E20.6821
G0 F6000 X103.61 Y81.993
G1 F1200 X103.494 Y81.736 E20.69148
G1 X103.357 Y81.565 E20.69876
G1 X102.85 Y81.058 E20.72261
G1 X102.85 Y78.945 E20.79289
G1 X151.767 Y78.945 E22.41988
G1 X155.85 Y78.959 E22.55568
G1 X155.85 Y83.779 E22.71599
G1 X103.65 Y83.779 E24.45217
G1 X103.65 Y82.272 E24.50229
G1 X103.61 Y81.993 E24.51167
G0 F6000 X103.21 Y82.057
G1 F1200 X103.074 Y81.848 E24.51996
G1 X102.488 Y81.262 E24.54753
G1 X102.45 Y81.236 E24.54906
G1 X102.45 Y78.545 E24.63856
G1 X151.768 Y78.545 E26.27888
G1 X156.25 Y78.56 E26.42796
G1 X156.25 Y84.179 E26.61485
G1 X103.25 Y84.179 E28.37763
G1 X103.25 Y82.272 E28.44106
G1 X103.21 Y82.057 E28.44833
G0 F6000 X102.85 Y82.272
G1 F1200 X102.791 Y82.131 E28.45342
G1 X102.205 Y81.545 E28.48098
G1 X102.05 Y81.486 E28.4865
G1 X102.05 Y78.145 E28.59762
G1 X151.77 Y78.145 E30.25131
G1 X156.65 Y78.162 E30.41362
G1 X156.65 Y84.579 E30.62705
G1 X102.85 Y84.579 E32.41645
G1 X102.85 Y82.272 E32.49318
G1 F2700 E27.49318
G0 F6000 X102.007 Y81.825
G0 X77.993 Y81.825
G0 X77.489 Y82.329
G0 X77.489 Y152.643
G0 X77.993 Y153.147
G0 X101.864 Y156.207
G0 X102.209 Y156.086
G0 X102.05 Y155.65
G1 F2700 E32.49318
G1 F1200 X156.65 Y135.793 E34.42555
G1 X156.65 Y137.288 E34.47527
G1 X102.05 Y157.144 E36.40763
G1 X102.05 Y155.65 E36.45733
G1 F2700 E31.45733
G0 F6000 X102.209 Y156.086
G0 X156.272 Y136.425
G0 X156.25 Y136.365
G1 F2700 E36.45733
G1 F1200 X156.25 Y137.007 E36.47868
G1 X102.45 Y156.573 E38.38274
G1 X102.45 Y155.93 E38.40412
G1 X156.25 Y136.365 E40.30817
G0 F6000 X156.65 Y135.368
;TYPE:SUPPORT-INTERFACE
G1 F1200 X102.05 Y155.224 E42.24053
G1 X102.05 Y153.486 E42.29833
G1 X102.147 Y153.486 E42.30156
G1 X102.85 Y152.783 E42.33463
G1 X102.85 Y147.081 E42.52428
G1 X156.65 Y127.516 E44.42832
G1 X156.65 Y135.368 E44.68948
G1 F2700 E39.68948
G0 F6000 X157.515 Y135.368
G0 X157.511 Y100.847
G0 X156.459 Y96.597
G0 X156.65 Y95.736
G1 F2700 E44.68948
G1 F1200 X102.85 Y95.736 E46.47888
G1 X102.85 Y84.979 E46.83666
G1 X156.65 Y84.979 E48.62605
G1 X156.65 Y95.736 E48.98383
G0 F6000 X156.449 Y95.355
G1 F1200 X146.273 Y85.179 E49.46248
G0 F6000 X145.62 Y85.178
G1 F1200 X135.263 Y95.536 E49.94966
G0 F6000 X136.265 Y95.535
G1 F1200 X125.908 Y85.179 E50.4368
G0 F6000 X125.256 Y85.178
G1 F1200 X114.898 Y95.536 E50.92401
G0 F6000 X115.9 Y95.535
G1 F1200 X105.544 Y85.179 E51.41112
G0 F6000 X104.891 Y85.178
G1 F1200 X103.049 Y87.02 E51.49777
G0 F6000 X103.049 Y86.078
G1 F1200 X112.506 Y95.535 E51.94259
G0 F6000 X111.504 Y95.536
G1 F1200 X121.862 Y85.178 E52.4298
G0 F6000 X122.514 Y85.179
G1 F1200 X132.871 Y95.535 E52.91694
G0 F6000 X131.869 Y95.536
G1 F1200 X142.226 Y85.178 E53.40413
G0 F6000 X142.879 Y85.179
G1 F1200 X153.235 Y95.535 E53.89124
G0 F6000 X152.233 Y95.536
G1 F1200 X156.449 Y91.32 E54.08955
G0 F6000 X156.449 Y91.961
G1 F1200 X149.667 Y85.179 E54.40855
G0 F6000 X149.014 Y85.178
G1 F1200 X138.657 Y95.536 E54.89574
G0 F6000 X139.659 Y95.535
G1 F1200 X129.302 Y85.179 E55.38288
G0 F6000 X128.65 Y85.178
G1 F1200 X118.292 Y95.536 E55.87008
G0 F6000 X119.294 Y95.535
G1 F1200 X108.938 Y85.179 E56.3572
G0 F6000 X108.285 Y85.178
G1 F1200 X103.049 Y90.414 E56.60348
G0 F6000 X103.049 Y89.473
G1 F1200 X109.112 Y95.535 E56.88865
G0 F6000 X108.11 Y95.536
G1 F1200 X118.467 Y85.178 E57.37583
G0 F6000 X119.12 Y85.179
G1 F1200 X129.476 Y95.535 E57.86294
G0 F6000 X128.474 Y95.536
G1 F1200 X138.832 Y85.178 E58.35015
G0 F6000 X139.485 Y85.179
G1 F1200 X149.841 Y95.535 E58.83727
G0 F6000 X148.839 Y95.536
G1 F1200 X156.449 Y87.926 E59.19522
G0 F6000 X156.449 Y88.567
G1 F1200 X153.061 Y85.179 E59.35458
G0 F6000 X152.409 Y85.178
G1 F1200 X142.051 Y95.536 E59.84179
G0 F6000 X143.053 Y95.535
G1 F1200 X132.697 Y85.179 E60.3289
G0 F6000 X132.044 Y85.178
G1 F1200 X121.686 Y95.536 E60.81611
G0 F6000 X122.688 Y95.535
G1 F1200 X112.332 Y85.179 E61.30323
G0 F6000 X111.679 Y85.178
G1 F1200 X103.049 Y93.809 E61.70918
G0 F6000 X103.049 Y92.867
G1 F1200 X105.718 Y95.535 E61.8347
G0 F6000 X104.716 Y95.536
G1 F1200 X115.073 Y85.178 E62.32188
G0 F6000 X115.726 Y85.179
G1 F1200 X126.082 Y95.535 E62.809
G0 F6000 X125.08 Y95.536
G1 F1200 X135.438 Y85.178 E63.2962
G0 F6000 X136.091 Y85.179
G1 F1200 X146.447 Y95.535 E63.78332
G0 F6000 X145.445 Y95.536
G1 F1200 X155.803 Y85.178 E64.27053
G1 F2700 E59.27053
G0 F6000 X155.803 Y84.114
G0 X157.503 Y84.126
G0 X157.515 Y94.714
G0 X156.449 Y94.714
G1 F2700 E64.27053
G1 F1200 X155.627 Y95.536 E64.30919
G1 F2700 E59.30919
G0 F6000 X155.627 Y96.601
G0 X157.511 Y100.847
G0 X157.513 Y123.167
G0 X154.989 Y127.201
G0 X155.352 Y128.199
G1 F2700 E64.30919
G1 F1200 X156.449 Y129.296 E64.36079
G0 F6000 X156.448 Y128.656
G1 F1200 X146.121 Y138.983 E64.84654
G0 F6000 X145.864 Y139.076
G1 F1200 X140.419 Y133.631 E65.10266
G0 F6000 X141.791 Y133.131
G1 F1200 X130.119 Y144.803 E65.65167
G0 F6000 X130.931 Y144.507
G1 F1200 X125.485 Y139.061 E65.90784
G0 F6000 X125.79 Y138.95
G1 F1200 X114.117 Y150.622 E66.45687
G0 F6000 X113.508 Y150.843
G1 F1200 X108.062 Y145.398 E66.71301
G0 F6000 X109.788 Y144.769
G1 F1200 X103.05 Y151.508 E67.02997
G0 F6000 X103.049 Y150.567
G1 F1200 X106.041 Y153.558 E67.17068
G0 F6000 X108.53 Y152.653
G1 F1200 X103.084 Y147.208 E67.42682
G0 F6000 X103.05 Y148.114
G1 F1200 X104.455 Y146.709 E67.49291
G0 F6000 X105.573 Y146.303
G1 F1200 X111.019 Y151.748 E67.74905
G0 F6000 X108.784 Y152.562
G1 F1200 X120.457 Y140.889 E68.29811
G0 F6000 X120.507 Y140.871
G1 F1200 X125.953 Y146.318 E68.5543
G0 F6000 X124.785 Y146.743
G1 F1200 X136.458 Y135.07 E69.10336
G0 F6000 X135.441 Y135.441
G1 F1200 X140.886 Y140.886 E69.35948
G0 F6000 X140.787 Y140.923
G1 F1200 X152.46 Y129.251 E69.90852
G0 F6000 X152.863 Y129.104
G1 F1200 X156.449 Y132.69 E70.07719
G0 F6000 X156.448 Y132.05
G1 F1200 X151.455 Y137.044 E70.31207
G0 F6000 X150.842 Y137.266
G1 F1200 X145.397 Y131.82 E70.56821
G0 F6000 X147.126 Y131.19
G1 F1200 X135.453 Y142.863 E71.11727
G0 F6000 X135.908 Y142.696
G1 F1200 X130.463 Y137.251 E71.37339
G0 F6000 X131.124 Y137.01
G1 F1200 X119.452 Y148.682 E71.9224
G0 F6000 X118.486 Y149.033
G1 F1200 X113.04 Y143.587 E72.17856
G0 F6000 X115.122 Y142.829
G1 F1200 X103.45 Y154.502 E72.7276
G0 F6000 X103.552 Y154.464
G1 F1200 X102.501 Y153.413 E72.77704
G1 F2700 E67.77704
G0 F6000 X101.197 Y153.139
G0 X101.19 Y155.732
G0 X101.864 Y156.207
G0 X157.507 Y135.968
G0 X157.507 Y126.673
G0 X156.588 Y126.383
G0 X110.187 Y143.493
G0 X110.551 Y144.493
G1 F2700 E72.77704
G1 F1200 X115.997 Y149.938 E73.03318
G1 F2700 E68.03318
G0 F6000 X116.361 Y150.939
G0 X121.339 Y149.129
G0 X120.975 Y148.128
G1 F2700 E73.03318
G1 F1200 X115.529 Y142.682 E73.28934
G0 F6000 X118.018 Y141.777
G1 F1200 X123.464 Y147.223 E73.54551
G1 F2700 E68.54551
G0 F6000 X123.828 Y148.224
G0 X128.806 Y146.413
G0 X128.442 Y145.412
G1 F2700 E73.54551
G1 F1200 X122.996 Y139.966 E73.80167
G1 F2700 E68.80167
G0 F6000 X122.633 Y138.967
G0 X127.611 Y137.157
G0 X127.974 Y138.156
G1 F2700 E73.80167
G1 F1200 X133.42 Y143.602 E74.05783
G1 F2700 E69.05783
G0 F6000 X133.784 Y144.603
G0 X138.762 Y142.793
G0 X138.397 Y141.791
G1 F2700 E74.05783
G1 F1200 X132.952 Y136.346 E74.31395
G1 F2700 E69.31395
G0 F6000 X132.588 Y135.347
G0 X137.566 Y133.537
G0 X137.93 Y134.536
G1 F2700 E74.31395
G1 F1200 X143.375 Y139.981 E74.57006
G1 F2700 E69.57006
G0 F6000 X143.739 Y140.983
G0 X148.717 Y139.172
G0 X148.353 Y138.171
G1 F2700 E74.57006
G1 F1200 X142.908 Y132.726 E74.82618
G1 F2700 E69.82618
G0 F6000 X142.544 Y131.727
G0 X147.523 Y129.916
G0 X147.886 Y130.915
G1 F2700 E74.82618
G1 F1200 X153.331 Y136.361 E75.08232
G0 F6000 X155.82 Y135.456
G1 F1200 X150.374 Y130.01 E75.33848
G1 F2700 E70.33848
;MESH:fin_airfoiled.STL
G0 F6000 X150.011 Y129.011
G0 X102.507 Y143.496
G0 X101.434 Y142.745
G0 X101.25 Y151.886
;TYPE:WALL-INNER
G1 F2700 E75.33848
G1 F1200 X78.75 Y151.886 E76.08684
G1 X78.75 Y83.086 E78.37513
G1 X101.25 Y83.086 E79.12349
G1 X101.25 Y101.604 E79.7394
G1 X156.25 Y101.604 E81.5687
G1 X156.25 Y122.615 E82.26753
G1 X101.25 Y142.616 E84.21404
G1 X101.25 Y151.886 E84.52237
G0 F6000 X101.65 Y152.286
;TYPE:WALL-OUTER
G1 F1200 X78.35 Y152.286 E85.29733
G1 X78.35 Y82.686 E87.61223
G1 X101.65 Y82.686 E88.38719
G1 X101.65 Y101.204 E89.0031
G1 X156.65 Y101.204 E90.83241
G1 X156.65 Y122.895 E91.55386
G1 X101.65 Y142.896 E93.50037
G1 X101.65 Y152.286 E93.81268
G0 F6000 X101.38 Y152.016
G0 X101.14 Y151.496
G0 X100.86 Y151.496
;TYPE:SKIN
G1 F1200 X79.14 Y151.496 E94.53509
G1 X79.14 Y83.476 E96.79745
G1 X100.86 Y83.476 E97.51986
G1 X100.86 Y101.994 E98.13577
G1 X155.86 Y101.994 E99.96507
G1 X155.86 Y122.341 E100.64182
G1 X100.86 Y142.343 E102.58834
G1 X100.86 Y151.496 E102.89277
G0 F6000 X101.14 Y151.496
G0 X79.493 Y151.776
G0 X79.493 Y151.335
G1 F1200 X79.299 Y151.141 E102.9019
G0 F6000 X79.299 Y150.576
G1 F1200 X80.059 Y151.335 E102.93762
G0 F6000 X80.625 Y151.335
G1 F1200 X79.299 Y150.01 E102.99997
G0 F6000 X79.299 Y149.444
G1 F1200 X81.19 Y151.335 E103.08891
G0 F6000 X81.756 Y151.335
G1 F1200 X79.299 Y148.879 E103.20446
G0 F6000 X79.299 Y148.313
G1 F1200 X82.322 Y151.335 E103.34663
G0 F6000 X82.887 Y151.335
G1 F1200 X79.299 Y147.747 E103.5154
G0 F6000 X79.299 Y147.182
G1 F1200 X83.453 Y151.335 E103.71077
G0 F6000 X84.019 Y151.335
G1 F1200 X79.299 Y146.616 E103.93276
G0 F6000 X79.299 Y146.05
G1 F1200 X84.584 Y151.335 E104.18135
G0 F6000 X85.15 Y151.335
G1 F1200 X79.299 Y145.485 E104.45654
G0 F6000 X79.299 Y144.919
G1 F1200 X85.716 Y151.335 E104.75835
G0 F6000 X86.281 Y151.335
G1 F1200 X79.299 Y144.353 E105.08676
G0 F6000 X79.299 Y143.788
G1 F1200 X86.847 Y151.335 E105.44177
G0 F6000 X87.413 Y151.335
G1 F1200 X79.299 Y143.222 E105.82341
G0 F6000 X79.299 Y142.656
G1 F1200 X87.978 Y151.335 E106.23164
G0 F6000 X88.544 Y151.335
G1 F1200 X79.299 Y142.09 E106.6665
G0 F6000 X79.299 Y141.525
G1 F1200 X89.11 Y151.335 E107.12795
G0 F6000 X89.675 Y151.335
G1 F1200 X79.299 Y140.959 E107.61601
G0 F6000 X79.299 Y140.393
G1 F1200 X90.241 Y151.335 E108.13069
G0 F6000 X90.807 Y151.335
G1 F1200 X79.299 Y139.828 E108.67196
G0 F6000 X79.299 Y139.262
G1 F1200 X91.373 Y151.335 E109.23986
G0 F6000 X91.938 Y151.335
G1 F1200 X79.299 Y138.696 E109.83436
G0 F6000 X79.299 Y138.131
G1 F1200 X92.504 Y151.335 E110.45546
G0 F6000 X93.07 Y151.335
G1 F1200 X79.299 Y137.565 E111.10318
G0 F6000 X79.299 Y136.999
G1 F1200 X93.635 Y151.335 E111.77751
G0 F6000 X94.201 Y151.335
G1 F1200 X79.299 Y136.434 E112.47843
G0 F6000 X79.299 Y135.868
G1 F1200 X94.767 Y151.335 E113.20597
G0 F6000 X95.332 Y151.335
G1 F1200 X79.299 Y135.302 E113.96011
G0 F6000 X79.299 Y134.737
G1 F1200 X95.898 Y151.335 E114.74086
G0 F6000 X96.464 Y151.335
G1 F1200 X79.299 Y134.171 E115.54822
G0 F6000 X79.299 Y133.605
G1 F1200 X97.029 Y151.335 E116.38219
G0 F6000 X97.595 Y151.335
G1 F1200 X79.299 Y133.04 E117.24275
G0 F6000 X79.299 Y132.474
G1 F1200 X98.161 Y151.335 E118.12994
G0 F6000 X98.726 Y151.335
G1 F1200 X79.299 Y131.908 E119.04373
G0 F6000 X79.299 Y131.342
G1 F1200 X99.292 Y151.335 E119.98413
G0 F6000 X99.858 Y151.335
G1 F1200 X79.299 Y130.777 E120.95114
G0 F6000 X79.299 Y130.211
G1 F1200 X100.424 Y151.335 E121.94477
G0 F6000 X100.699 Y151.045
G1 F1200 X79.299 Y129.645 E122.95137
G0 F6000 X79.299 Y129.08
G1 F1200 X100.699 Y150.48 E123.95796
G0 F6000 X100.699 Y149.914
G1 F1200 X79.299 Y128.514 E124.96455
G0 F6000 X79.299 Y127.948
G1 F1200 X100.699 Y149.348 E125.97114
G0 F6000 X100.699 Y148.783
G1 F1200 X79.299 Y127.383 E126.97773
G0 F6000 X79.299 Y126.817
G1 F1200 X100.699 Y148.217 E127.98432
G0 F6000 X100.699 Y147.651
G1 F1200 X79.299 Y126.251 E128.99091
G0 F6000 X79.299 Y125.686
G1 F1200 X100.699 Y147.085 E129.99747
G0 F6000 X100.699 Y146.52
G1 F1200 X79.299 Y125.12 E131.00406
G0 F6000 X79.299 Y124.554
G1 F1200 X100.699 Y145.954 E132.01066
G0 F6000 X100.699 Y145.388
G1 F1200 X79.299 Y123.989 E133.01722
G0 F6000 X79.299 Y123.423
G1 F1200 X100.699 Y144.823 E134.02381
G0 F6000 X100.699 Y144.257
G1 F1200 X79.299 Y122.857 E135.0304
G0 F6000 X79.299 Y122.291
G1 F1200 X100.699 Y143.691 E136.03699
G0 F6000 X100.699 Y143.126
G1 F1200 X79.299 Y121.726 E137.04358
G0 F6000 X79.299 Y121.16
G1 F1200 X100.699 Y142.56 E138.05017
G0 F6000 X100.872 Y142.167
G1 F1200 X79.299 Y120.594 E139.0649
G0 F6000 X79.299 Y120.029
G1 F1200 X101.287 Y142.016 E140.09913
G0 F6000 X101.702 Y141.866
G1 F1200 X79.299 Y119.463 E141.15289
G0 F6000 X79.299 Y118.897
G1 F1200 X102.116 Y141.714 E142.22614
G0 F6000 X102.531 Y141.564
G1 F1200 X79.299 Y118.332 E143.3189
G0 F6000 X79.299 Y117.766
G1 F1200 X102.946 Y141.413 E144.43118
G0 F6000 X103.361 Y141.262
G1 F1200 X79.299 Y117.2 E145.56298
G0 F6000 X79.299 Y116.635
G1 F1200 X103.776 Y141.111 E146.71428
G0 F6000 X104.191 Y140.961
G1 F1200 X79.299 Y116.069 E147.88513
G0 F6000 X79.299 Y115.503
G1 F1200 X104.605 Y140.809 E149.07544
G0 F6000 X105.02 Y140.659
G1 F1200 X79.299 Y114.938 E150.28528
G0 F6000 X79.299 Y114.372
G1 F1200 X105.435 Y140.508 E151.51464
G0 F6000 X105.85 Y140.357
G1 F1200 X79.299 Y113.806 E152.76352
G0 F6000 X79.299 Y113.241
G1 F1200 X106.265 Y140.206 E154.03189
G0 F6000 X106.68 Y140.055
G1 F1200 X79.299 Y112.675 E155.31978
G0 F6000 X79.299 Y112.109
G1 F1200 X107.094 Y139.904 E156.62718
G0 F6000 X107.509 Y139.753
G1 F1200 X79.299 Y111.543 E157.95409
G0 F6000 X79.299 Y110.978
G1 F1200 X107.924 Y139.602 E159.3005
G0 F6000 X108.339 Y139.452
G1 F1200 X79.299 Y110.412 E160.66645
G0 F6000 X79.299 Y109.846
G1 F1200 X108.754 Y139.301 E162.05192
G0 F6000 X109.168 Y139.15
G1 F1200 X79.299 Y109.281 E163.45687
G0 F6000 X79.299 Y108.715
G1 F1200 X109.583 Y138.999 E164.88133
G0 F6000 X109.998 Y138.848
G1 F1200 X79.299 Y108.149 E166.32532
G0 F6000 X79.299 Y107.584
