;FLAVOR:Marlin
;TIME:10692
;Filament used: 8.68199m
;Layer height: 0.2
;MINX:7.46
;MINY:14.003
;MINZ:0.2
;MAXX:165.932
;MAXY:179.339
;MAXZ:5
;Generated with Cura_SteamEngine 4.12.1
M140 S50
M105
M190 S50
M104 S200
M105
M109 S200
M82 ;absolute extrusion mode
; Ender 3 Custom Start G-code
G92 E0 ; Reset Extruder
G28 ; Home all axes
G1 Z2.0 F3000 ; Move Z Axis up little to prevent scratching of Heat Bed
G1 X0.1 Y20 Z0.3 F5000.0 ; Move to start position
G1 X0.1 Y200.0 Z0.3 F1500.0 E15 ; Draw the first line
G1 X0.4 Y200.0 Z0.3 F5000.0 ; Move to side a little
G1 X0.4 Y20 Z0.3 F1500.0 E30 ; Draw the second line
G92 E0 ; Reset Extruder
G1 Z2.0 F3000 ; Move Z Axis up little to prevent scratching of Heat Bed
G1 X5 Y20 Z0.3 F5000.0 ; Move over to prevent blob squish
G92 E0
G92 E0
G1 F2700 E-5
;LAYER_COUNT:25
;LAYER:0
M107
G0 F6000 X25.452 Y25.867 Z0.2
;TYPE:SKIRT
G1 F2700 E0
G1 F1200 X25.734 Y25.604 E0.01283
G1 X26.592 Y24.831 E0.05124
G1 X26.888 Y24.573 E0.0643
G1 X27.748 Y23.852 E0.10162
G1 X28.04 Y23.616 E0.11411
G1 X28.874 Y22.964 E0.14932
G1 X29.188 Y22.728 E0.16238
G1 X30.191 Y22 E0.2036
G1 X30.5 Y21.783 E0.21616
G1 X31.33 Y21.223 E0.24946
G1 X31.648 Y21.017 E0.26207
G1 X32.679 Y20.372 E0.30252
G1 X33.015 Y20.17 E0.31556
G1 X33.949 Y19.631 E0.35142
G1 X34.282 Y19.446 E0.36409
G1 X35.258 Y18.927 E0.40086
G1 X35.601 Y18.752 E0.41367
G1 X36.655 Y18.238 E0.45267
G1 X36.999 Y18.078 E0.46529
G1 X38.011 Y17.627 E0.50214
G1 X38.364 Y17.477 E0.51489
G1 X39.39 Y17.062 E0.5517
G1 X39.76 Y16.92 E0.56489
G1 X40.856 Y16.522 E0.60367
G1 X41.213 Y16.399 E0.61623
G1 X42.229 Y16.069 E0.65176
G1 X42.595 Y15.957 E0.66449
G1 X43.697 Y15.641 E0.70262
G1 X44.063 Y15.543 E0.71522
G1 X45.132 Y15.276 E0.75187
G1 X45.512 Y15.188 E0.76484
G1 X46.651 Y14.946 E0.80357
G1 X47.024 Y14.874 E0.8162
G1 X48.117 Y14.681 E0.85312
G1 X48.502 Y14.62 E0.86608
G1 X49.593 Y14.467 E0.90273
G1 X49.968 Y14.421 E0.91529
G1 X51.116 Y14.3 E0.95369
G1 X51.506 Y14.265 E0.96671
G1 X52.614 Y14.188 E1.00365
G1 X52.993 Y14.169 E1.01627
G1 X54.137 Y14.129 E1.05435
G1 X54.521 Y14.122 E1.06712
G1 X55.6 Y14.122 E1.10301
G1 X55.984 Y14.129 E1.11578
G1 X57.13 Y14.169 E1.15392
G1 X57.516 Y14.189 E1.16678
G1 X58.628 Y14.267 E1.20385
G1 X59.006 Y14.3 E1.21647
G1 X60.13 Y14.418 E1.25406
G1 X60.513 Y14.465 E1.2669
G1 X61.644 Y14.624 E1.30488
G1 X62.023 Y14.684 E1.31765
G1 X63.106 Y14.875 E1.35422
G1 X63.476 Y14.947 E1.36676
G1 X64.59 Y15.183 E1.40463
G1 X64.974 Y15.272 E1.41774
G1 X67.033 Y15.786 E1.48833
G1 X69.597 Y16.388 E1.57593
G1 X72.079 Y16.898 E1.6602
G1 X74.502 Y17.321 E1.74201
G1 X77.026 Y17.691 E1.82686
G1 X79.534 Y17.986 E1.91085
G1 X82.017 Y18.208 E1.99376
G1 X84.555 Y18.361 E2.07833
G1 X87.044 Y18.442 E2.16116
G1 X89.569 Y18.452 E2.24514
G1 X92.098 Y18.391 E2.32928
G1 X94.614 Y18.259 E2.41308
G1 X97.093 Y18.058 E2.4958
G1 X99.647 Y17.779 E2.58125
G1 X102.097 Y17.44 E2.66352
G1 X104.582 Y17.024 E2.74732
G1 X107.065 Y16.537 E2.83148
G1 X109.518 Y15.983 E2.91512
G1 X110.622 Y15.703 E2.953
G1 X112.842 Y15.15 E3.02909
G1 X113.21 Y15.065 E3.04166
G1 X114.309 Y14.831 E3.07903
G1 X114.691 Y14.757 E3.09197
G1 X115.837 Y14.555 E3.13067
G1 X116.219 Y14.495 E3.14353
G1 X117.289 Y14.345 E3.17947
G1 X117.661 Y14.299 E3.19194
G1 X118.76 Y14.183 E3.22869
G1 X119.15 Y14.149 E3.24171
G1 X120.312 Y14.068 E3.28046
G1 X120.694 Y14.048 E3.29318
G1 X121.784 Y14.01 E3.32945
G1 X122.167 Y14.003 E3.3422
G1 X123.326 Y14.003 E3.38074
G1 X123.708 Y14.01 E3.39345
G1 X124.803 Y14.048 E3.42989
G1 X125.189 Y14.068 E3.44275
G1 X126.347 Y14.149 E3.48136
G1 X126.733 Y14.183 E3.49425
G1 X127.833 Y14.299 E3.53104
G1 X128.206 Y14.345 E3.54354
G1 X129.276 Y14.495 E3.57947
G1 X129.66 Y14.555 E3.5924
G1 X130.805 Y14.757 E3.63107
G1 X131.181 Y14.83 E3.64381
G1 X132.282 Y15.064 E3.68125
G1 X132.665 Y15.153 E3.69432
G1 X133.748 Y15.424 E3.73146
G1 X134.104 Y15.519 E3.74371
G1 X135.163 Y15.822 E3.78035
G1 X135.53 Y15.934 E3.79311
G1 X136.628 Y16.29 E3.8315
G1 X137 Y16.418 E3.84458
G1 X138.057 Y16.803 E3.882
G1 X138.41 Y16.939 E3.89458
G1 X139.428 Y17.35 E3.9311
G1 X139.79 Y17.504 E3.94418
G1 X140.853 Y17.978 E3.98289
G1 X141.19 Y18.135 E3.99526
G1 X142.163 Y18.609 E4.03125
G1 X142.506 Y18.783 E4.04405
G1 X143.517 Y19.32 E4.08212
G1 X143.863 Y19.512 E4.09528
G1 X144.842 Y20.078 E4.1329
G1 X145.165 Y20.272 E4.14543
G1 X146.098 Y20.855 E4.18202
G1 X146.421 Y21.065 E4.19483
G1 X147.383 Y21.714 E4.23343
G1 X147.7 Y21.936 E4.2463
G1 X148.561 Y22.562 E4.28171
G1 X148.859 Y22.786 E4.29411
G1 X149.81 Y23.528 E4.33423
G1 X150.116 Y23.776 E4.34733
G1 X150.901 Y24.435 E4.38142
G1 X151.188 Y24.685 E4.39408
G1 X152.071 Y25.48 E4.43359
G1 X152.354 Y25.744 E4.44647
G1 X153.152 Y26.515 E4.48337
G1 X153.42 Y26.783 E4.49598
G1 X154.191 Y27.581 E4.53288
G1 X154.455 Y27.864 E4.54576
G1 X155.25 Y28.747 E4.58527
G1 X155.5 Y29.034 E4.59793
G1 X156.159 Y29.819 E4.63202
G1 X156.407 Y30.125 E4.64512
G1 X157.149 Y31.076 E4.68524
G1 X157.373 Y31.374 E4.69764
G1 X157.999 Y32.235 E4.73305
G1 X158.221 Y32.552 E4.74592
G1 X158.868 Y33.511 E4.7844
G1 X159.077 Y33.833 E4.79716
G1 X159.662 Y34.769 E4.83388
G1 X159.859 Y35.096 E4.84657
G1 X160.424 Y36.074 E4.88414
G1 X160.612 Y36.413 E4.89703
G1 X161.15 Y37.425 E4.93515
G1 X161.322 Y37.764 E4.9478
G1 X161.796 Y38.735 E4.98373
G1 X161.961 Y39.087 E4.99666
G1 X162.435 Y40.152 E5.03544
G1 X162.584 Y40.503 E5.04812
G1 X162.995 Y41.52 E5.0846
G1 X163.133 Y41.88 E5.09743
G1 X163.518 Y42.938 E5.13487
G1 X163.641 Y43.296 E5.14746
G1 X163.997 Y44.39 E5.18573
G1 X164.116 Y44.779 E5.19926
G1 X164.415 Y45.828 E5.23554
G1 X164.509 Y46.18 E5.24765
G1 X164.788 Y47.298 E5.28598
G1 X164.875 Y47.678 E5.29895
G1 X165.105 Y48.762 E5.3358
G1 X165.178 Y49.136 E5.34848
G1 X165.372 Y50.237 E5.38566
G1 X165.431 Y50.609 E5.39819
G1 X165.589 Y51.729 E5.43581
G1 X165.637 Y52.12 E5.44891
G1 X165.753 Y53.227 E5.48593
G1 X165.786 Y53.597 E5.49829
G1 X165.867 Y54.742 E5.53646
G1 X165.887 Y55.134 E5.54952
G1 X165.925 Y56.223 E5.58576
G1 X165.932 Y56.607 E5.59854
G1 X165.932 Y57.773 E5.63732
G1 X165.925 Y58.156 E5.65006
G1 X165.887 Y59.247 E5.68637
G1 X165.867 Y59.632 E5.69919
G1 X165.789 Y60.747 E5.73636
G1 X165.755 Y61.133 E5.74925
G1 X165.634 Y62.28 E5.78761
G1 X165.589 Y62.652 E5.80008
G1 X165.436 Y63.744 E5.83675
G1 X165.374 Y64.134 E5.84989
G1 X165.181 Y65.225 E5.88674
G1 X165.11 Y65.591 E5.89914
G1 X164.868 Y66.732 E5.93793
G1 X164.779 Y67.116 E5.95104
G1 X164.512 Y68.185 E5.98769
G1 X164.416 Y68.545 E6.00008
G1 X164.113 Y69.604 E6.03672
G1 X163.998 Y69.98 E6.04979
G1 X163.636 Y71.093 E6.08872
G1 X163.514 Y71.448 E6.10121
G1 X163.139 Y72.48 E6.13773
G1 X163 Y72.842 E6.15062
G1 X162.582 Y73.877 E6.18775
G1 X162.431 Y74.233 E6.20061
G1 X161.963 Y75.284 E6.23888
G1 X161.802 Y75.628 E6.25151
G1 X161.319 Y76.619 E6.28818
G1 X161.141 Y76.968 E6.30121
G1 X160.612 Y77.962 E6.33866
G1 X160.427 Y78.297 E6.35139
G1 X159.881 Y79.242 E6.38769
G1 X159.687 Y79.565 E6.40022
G1 X159.062 Y80.566 E6.43947
G1 X158.854 Y80.886 E6.45216
G1 X158.241 Y81.796 E6.48865
G1 X158.018 Y82.115 E6.5016
G1 X157.378 Y82.996 E6.53782
G1 X157.146 Y83.303 E6.55062
G1 X156.421 Y84.231 E6.58978
G1 X156.172 Y84.539 E6.60296
G1 X155.474 Y85.369 E6.63903
G1 X155.23 Y85.649 E6.65138
G1 X154.444 Y86.522 E6.69045
G1 X154.18 Y86.805 E6.70332
G1 X153.441 Y87.57 E6.7387
G1 X153.173 Y87.838 E6.75131
G1 X152.346 Y88.637 E6.78955
G1 X152.07 Y88.895 E6.80212
G1 X151.215 Y89.666 E6.84041
G1 X150.911 Y89.93 E6.8538
G1 X150.061 Y90.642 E6.89068
G1 X149.771 Y90.877 E6.9031
G1 X148.911 Y91.549 E6.9394
G1 X148.602 Y91.781 E6.95225
G1 X147.674 Y92.455 E6.9904
G1 X147.366 Y92.671 E7.00291
G1 X146.43 Y93.303 E7.04047
G1 X146.104 Y93.515 E7.05341
G1 X145.176 Y94.095 E7.0898
G1 X144.853 Y94.289 E7.10234
G1 X143.864 Y94.861 E7.14034
G1 X143.517 Y95.054 E7.15354
G1 X142.506 Y95.591 E7.19162
G1 X142.163 Y95.765 E7.20441
G1 X141.153 Y96.257 E7.24178
G1 X140.818 Y96.413 E7.25407
G1 X139.862 Y96.84 E7.28889
G1 X137.459 Y97.952 E7.37696
G1 X135.199 Y99.076 E7.46091
G1 X133.001 Y100.248 E7.54376
G1 X130.777 Y101.517 E7.62892
G1 X128.657 Y102.807 E7.71146
G1 X126.554 Y104.168 E7.79478
G1 X124.445 Y105.622 E7.87998
G1 X122.436 Y107.09 E7.96274
G1 X120.456 Y108.626 E8.04608
G1 X118.477 Y110.252 E8.13127
G1 X116.599 Y111.887 E8.21409
G1 X114.75 Y113.59 E8.2977
G1 X112.949 Y115.346 E8.38136
G1 X111.209 Y117.142 E8.46453
G1 X109.495 Y119.013 E8.54893
G1 X107.832 Y120.937 E8.63351
G1 X106.261 Y122.859 E8.71607
G1 X104.723 Y124.856 E8.79991
G1 X103.232 Y126.908 E8.88427
G1 X101.818 Y128.974 E8.96754
G1 X100.447 Y131.105 E9.05182
G1 X99.153 Y133.248 E9.13508
G1 X97.925 Y135.415 E9.21793
G1 X96.727 Y137.68 E9.30315
G1 X95.617 Y139.928 E9.38654
G1 X94.574 Y142.2 E9.46969
G1 X93.593 Y144.51 E9.55316
G1 X92.669 Y146.865 E9.6373
G1 X91.796 Y149.292 E9.72308
G1 X91.579 Y149.938 E9.74575
G1 X91.491 Y150.19 E9.75463
G1 X91.053 Y151.396 E9.7973
G1 X90.914 Y151.759 E9.81023
G1 X90.457 Y152.891 E9.85084
G1 X90.302 Y153.257 E9.86405
G1 X89.865 Y154.236 E9.89971
G1 X89.713 Y154.562 E9.91168
G1 X89.22 Y155.576 E9.94918
G1 X89.039 Y155.93 E9.9624
G1 X88.511 Y156.923 E9.99981
G1 X88.324 Y157.261 E10.01265
G1 X87.777 Y158.208 E10.04903
G1 X87.579 Y158.538 E10.06183
G1 X86.955 Y159.536 E10.10098
G1 X86.751 Y159.85 E10.11343
G1 X86.175 Y160.705 E10.14772
G1 X85.955 Y161.019 E10.16047
G1 X85.225 Y162.025 E10.20181
G1 X84.989 Y162.338 E10.21485
G1 X84.338 Y163.171 E10.25001
G1 X84.1 Y163.466 E10.26262
G1 X83.378 Y164.327 E10.29999
G1 X83.122 Y164.621 E10.31296
G1 X82.35 Y165.478 E10.35132
G1 X82.093 Y165.754 E10.36387
G1 X81.322 Y166.553 E10.4008
G1 X81.044 Y166.831 E10.41387
G1 X80.245 Y167.602 E10.4508
G1 X79.969 Y167.859 E10.46335
G1 X79.112 Y168.631 E10.50171
G1 X78.818 Y168.887 E10.51468
G1 X77.957 Y169.609 E10.55205
G1 X77.662 Y169.847 E10.56466
G1 X76.829 Y170.498 E10.59982
G1 X76.519 Y170.732 E10.61274
G1 X75.515 Y171.461 E10.654
G1 X75.202 Y171.68 E10.66671
G1 X74.373 Y172.239 E10.69996
G1 X74.057 Y172.444 E10.71249
G1 X73.026 Y173.089 E10.75294
G1 X72.687 Y173.293 E10.7661
G1 X71.754 Y173.831 E10.80192
G1 X71.427 Y174.012 E10.81435
G1 X70.45 Y174.532 E10.85116
G1 X70.104 Y174.709 E10.86409
G1 X69.05 Y175.223 E10.90309
G1 X68.705 Y175.384 E10.91576
G1 X67.695 Y175.834 E10.95253
G1 X67.338 Y175.985 E10.96542
G1 X66.286 Y176.41 E11.00316
G1 X65.924 Y176.549 E11.01606
G1 X64.895 Y176.923 E11.05247
G1 X64.534 Y177.047 E11.06517
G1 X63.453 Y177.398 E11.10297
G1 X63.091 Y177.509 E11.11557
G1 X62.011 Y177.819 E11.15294
G1 X61.634 Y177.92 E11.16592
G1 X60.566 Y178.186 E11.20252
G1 X60.199 Y178.271 E11.21505
G1 X59.058 Y178.514 E11.25386
G1 X58.68 Y178.587 E11.26666
G1 X57.587 Y178.78 E11.30358
G1 X57.203 Y178.841 E11.31651
G1 X56.113 Y178.994 E11.35312
G1 X55.736 Y179.041 E11.36575
G1 X54.587 Y179.162 E11.40418
G1 X54.199 Y179.195 E11.41713
G1 X53.093 Y179.272 E11.45401
G1 X52.713 Y179.292 E11.46666
G1 X51.568 Y179.332 E11.50477
G1 X51.184 Y179.339 E11.51754
G1 X50.111 Y179.339 E11.55323
G1 X49.726 Y179.332 E11.56604
G1 X48.583 Y179.292 E11.60408
G1 X48.196 Y179.272 E11.61697
G1 X47.059 Y179.192 E11.65488
G1 X46.685 Y179.159 E11.66736
G1 X45.578 Y179.043 E11.70439
G1 X45.189 Y178.995 E11.71742
G1 X44.068 Y178.837 E11.75507
G1 X43.692 Y178.778 E11.76773
G1 X42.592 Y178.584 E11.80488
G1 X42.229 Y178.513 E11.81719
G1 X41.145 Y178.284 E11.85404
G1 X40.744 Y178.192 E11.86772
G1 X39.623 Y177.911 E11.90616
G1 X39.276 Y177.818 E11.91811
G1 X38.205 Y177.512 E11.95515
G1 X37.818 Y177.394 E11.96861
G1 X36.741 Y177.043 E12.00629
G1 X36.396 Y176.924 E12.01842
G1 X35.388 Y176.558 E12.05409
G1 X35.019 Y176.416 E12.06724
G1 X33.948 Y175.983 E12.10567
G1 X33.606 Y175.838 E12.11802
G1 X32.568 Y175.377 E12.1558
G1 X32.203 Y175.207 E12.16919
G1 X31.178 Y174.706 E12.20713
G1 X30.846 Y174.537 E12.21952
G1 X29.875 Y174.021 E12.2561
G1 X29.531 Y173.83 E12.26918
G1 X28.585 Y173.283 E12.30553
G1 X28.259 Y173.087 E12.31818
G1 X27.245 Y172.453 E12.35796
G1 X26.932 Y172.25 E12.37036
G1 X26.056 Y171.66 E12.40549
G1 X25.729 Y171.431 E12.41877
G1 X24.782 Y170.742 E12.45772
G1 X24.483 Y170.516 E12.47019
G1 X23.624 Y169.845 E12.50644
G1 X23.331 Y169.608 E12.51898
G1 X22.48 Y168.895 E12.5559
G1 X22.178 Y168.633 E12.5692
G1 X21.324 Y167.863 E12.60744
G1 X21.047 Y167.604 E12.62006
G1 X20.219 Y166.804 E12.65835
G1 X19.95 Y166.535 E12.671
G1 X19.212 Y165.771 E12.70633
G1 X18.95 Y165.49 E12.71911
G1 X18.163 Y164.616 E12.75823
G1 X17.917 Y164.334 E12.77068
G1 X17.22 Y163.505 E12.8067
G1 X16.973 Y163.199 E12.81978
G1 X16.247 Y162.27 E12.85899
G1 X16.013 Y161.96 E12.87191
G1 X15.374 Y161.08 E12.90808
G1 X15.153 Y160.765 E12.92088
G1 X14.539 Y159.854 E12.95742
G1 X14.333 Y159.536 E12.97002
G1 X13.708 Y158.536 E13.00925
G1 X13.509 Y158.205 E13.02209
G1 X12.963 Y157.259 E13.05842
G1 X12.78 Y156.928 E13.071
G1 X12.251 Y155.934 E13.10845
G1 X12.073 Y155.585 E13.12148
G1 X11.59 Y154.594 E13.15815
G1 X11.428 Y154.246 E13.17092
G1 X10.96 Y153.194 E13.20921
G1 X10.812 Y152.846 E13.22179
G1 X10.394 Y151.812 E13.25888
G1 X10.255 Y151.449 E13.27181
G1 X9.88 Y150.418 E13.3083
G1 X9.755 Y150.055 E13.32107
G1 X9.393 Y148.94 E13.36006
G1 X9.279 Y148.569 E13.37297
G1 X8.976 Y147.51 E13.40961
G1 X8.879 Y147.147 E13.4221
G1 X8.604 Y146.045 E13.45988
G1 X8.518 Y145.671 E13.47264
G1 X8.288 Y144.59 E13.5094
G1 X8.213 Y144.205 E13.52245
G1 X8.01 Y143.05 E13.56145
G1 X7.951 Y142.676 E13.57405
G1 X7.802 Y141.615 E13.60968
G1 X7.756 Y141.24 E13.62225
G1 X7.64 Y140.141 E13.659
G1 X7.606 Y139.751 E13.67202
G1 X7.525 Y138.589 E13.71077
G1 X7.505 Y138.207 E13.72349
G1 X7.467 Y137.117 E13.75976
G1 X7.46 Y136.734 E13.77251
G1 X7.46 Y135.575 E13.81105
G1 X7.467 Y135.193 E13.82376
G1 X7.505 Y134.098 E13.8602
G1 X7.525 Y133.712 E13.87306
G1 X7.606 Y132.554 E13.91167
G1 X7.64 Y132.168 E13.92456
G1 X7.756 Y131.068 E13.96135
G1 X7.802 Y130.695 E13.97385
G1 X7.952 Y129.625 E14.00978
G1 X8.012 Y129.241 E14.02271
G1 X8.214 Y128.096 E14.06138
G1 X8.287 Y127.72 E14.07412
G1 X8.521 Y126.619 E14.11156
G1 X8.61 Y126.236 E14.12463
G1 X8.881 Y125.153 E14.16177
G1 X8.976 Y124.797 E14.17402
G1 X9.279 Y123.738 E14.21066
G1 X9.391 Y123.371 E14.22342
G1 X9.748 Y122.27 E14.26191
G1 X9.876 Y121.898 E14.275
G1 X10.528 Y120.108 E14.33836
G1 X11.348 Y117.752 E14.42133
G1 X12.114 Y115.332 E14.50576
G1 X12.804 Y112.916 E14.58933
G1 X13.428 Y110.476 E14.67309
G1 X13.996 Y107.967 E14.75866
G1 X14.467 Y105.551 E14.84053
G1 X14.879 Y103.08 E14.92385
G1 X15.225 Y100.57 E15.00812
G1 X15.496 Y98.086 E15.09123
G1 X15.701 Y95.542 E15.17611
G1 X15.832 Y93.047 E15.25921
G1 X15.891 Y90.529 E15.34298
G1 X15.881 Y88.007 E15.42687
G1 X15.799 Y85.511 E15.50993
G1 X15.643 Y82.961 E15.5949
G1 X15.422 Y80.487 E15.67751
G1 X15.123 Y77.962 E15.76208
G1 X14.761 Y75.499 E15.84488
G1 X14.321 Y72.997 E15.92938
G1 X13.819 Y70.55 E16.01246
G1 X13.224 Y68.017 E16.099
G1 X13.03 Y67.24 E16.12564
G1 X12.942 Y66.859 E16.13864
G1 X12.699 Y65.714 E16.17757
G1 X12.627 Y65.343 E16.19014
G1 X12.434 Y64.25 E16.22706
G1 X12.372 Y63.863 E16.24009
G1 X12.212 Y62.721 E16.27845
G1 X12.165 Y62.337 E16.29132
G1 X12.053 Y61.264 E16.3272
G1 X12.021 Y60.886 E16.33982
G1 X11.942 Y59.752 E16.37762
G1 X11.922 Y59.368 E16.39041
G1 X11.882 Y58.21 E16.42895
G1 X11.875 Y57.83 E16.44159
G1 X11.875 Y56.773 E16.47675
G1 X11.882 Y56.389 E16.48952
G1 X11.922 Y55.244 E16.52763
G1 X11.942 Y54.86 E16.54042
G1 X12.024 Y53.689 E16.57946
G1 X12.058 Y53.3 E16.59245
G1 X12.17 Y52.241 E16.62787
G1 X12.215 Y51.872 E16.64023
G1 X12.372 Y50.751 E16.67788
G1 X12.434 Y50.361 E16.69101
G1 X12.627 Y49.27 E16.72786
G1 X12.698 Y48.904 E16.74026
G1 X12.94 Y47.763 E16.77906
G1 X13.029 Y47.377 E16.79223
G1 X13.296 Y46.309 E16.82885
G1 X13.393 Y45.947 E16.84131
G1 X13.703 Y44.865 E16.87875
G1 X13.818 Y44.492 E16.89173
G1 X14.17 Y43.41 E16.92957
G1 X14.291 Y43.056 E16.94202
G1 X14.65 Y42.068 E16.97698
G1 X14.789 Y41.708 E16.98982
G1 X15.256 Y40.551 E17.03131
G1 X15.413 Y40.18 E17.04471
G1 X15.842 Y39.22 E17.07969
G1 X15.994 Y38.894 E17.09165
G1 X16.487 Y37.881 E17.12912
G1 X16.668 Y37.527 E17.14234
G1 X17.197 Y36.533 E17.1798
G1 X17.383 Y36.196 E17.1926
G1 X17.935 Y35.241 E17.22929
