;FLAVOR:Marlin
;TIME:7417
;Filament used: 5.38897m
;Layer height: 0.2
;MINX:4.961
;MINY:14.258
;MINZ:0.2
;MAXX:166.202
;MAXY:175.096
;MAXZ:2
;Generated with Cura_SteamEngine 4.12.1
M140 S50
M105
M190 S50
M104 S200
M105
M109 S200
M82 ;absolute extrusion mode
; Ender 3 Custom Start G-code
G92 E0 ; Reset Extruder
G28 ; Home all axes
G1 Z2.0 F3000 ; Move Z Axis up little to prevent scratching of Heat Bed
G1 X0.1 Y20 Z0.3 F5000.0 ; Move to start position
G1 X0.1 Y200.0 Z0.3 F1500.0 E15 ; Draw the first line
G1 X0.4 Y200.0 Z0.3 F5000.0 ; Move to side a little
G1 X0.4 Y20 Z0.3 F1500.0 E30 ; Draw the second line
G92 E0 ; Reset Extruder
G1 Z2.0 F3000 ; Move Z Axis up little to prevent scratching of Heat Bed
G1 X5 Y20 Z0.3 F5000.0 ; Move over to prevent blob squish
G92 E0
G92 E0
G1 F2700 E-5
;LAYER_COUNT:10
;LAYER:0
M107
G0 F6000 X20.835 Y24.838 Z0.2
;TYPE:SKIRT
G1 F2700 E0
G1 F1200 X21.133 Y24.597 E0.01275
G1 X22.016 Y23.908 E0.05
G1 X22.317 Y23.681 E0.06254
G1 X23.195 Y23.043 E0.09864
G1 X23.507 Y22.825 E0.1113
G1 X24.47 Y22.175 E0.14994
G1 X24.795 Y21.963 E0.16284
G1 X25.728 Y21.38 E0.19944
G1 X26.051 Y21.186 E0.21197
G1 X27.03 Y20.62 E0.24958
G1 X27.376 Y20.428 E0.26274
G1 X28.387 Y19.891 E0.30082
G1 X28.726 Y19.719 E0.31346
G1 X29.698 Y19.245 E0.34943
G1 X30.047 Y19.082 E0.36224
G1 X31.11 Y18.609 E0.40094
G1 X31.459 Y18.461 E0.41354
G1 X32.478 Y18.049 E0.4501
G1 X32.84 Y17.91 E0.463
G1 X33.92 Y17.517 E0.50122
G1 X34.284 Y17.392 E0.51403
G1 X35.325 Y17.054 E0.55043
G1 X35.686 Y16.943 E0.56299
G1 X36.811 Y16.62 E0.60192
G1 X37.184 Y16.52 E0.61476
G1 X38.218 Y16.262 E0.65021
G1 X38.597 Y16.175 E0.66314
G1 X39.704 Y15.94 E0.70078
G1 X40.075 Y15.868 E0.71335
G1 X41.202 Y15.669 E0.75142
G1 X41.58 Y15.609 E0.76415
G1 X42.673 Y15.455 E0.80086
G1 X43.059 Y15.407 E0.8138
G1 X44.221 Y15.285 E0.85266
G1 X44.616 Y15.251 E0.86584
G1 X45.708 Y15.176 E0.90225
G1 X46.071 Y15.157 E0.91434
G1 X47.168 Y15.118 E0.95085
G1 X47.559 Y15.111 E0.96385
G1 X48.73 Y15.111 E1.0028
G1 X49.12 Y15.118 E1.01578
G1 X50.219 Y15.157 E1.05235
G1 X50.589 Y15.176 E1.06467
G1 X51.672 Y15.251 E1.10078
G1 X52.053 Y15.284 E1.1135
G1 X53.242 Y15.408 E1.15326
G1 X53.635 Y15.457 E1.16643
G1 X54.7 Y15.607 E1.2022
G1 X55.077 Y15.666 E1.2149
G1 X56.205 Y15.865 E1.25299
G1 X56.582 Y15.939 E1.26577
G1 X57.706 Y16.178 E1.30399
G1 X58.081 Y16.264 E1.31679
G1 X59.115 Y16.522 E1.35223
G1 X62.054 Y17.319 E1.45352
G1 X64.534 Y17.917 E1.53836
G1 X66.992 Y18.437 E1.62193
G1 X69.43 Y18.878 E1.70433
G1 X71.928 Y19.259 E1.78838
G1 X74.444 Y19.571 E1.8727
G1 X76.923 Y19.807 E1.95552
G1 X79.455 Y19.976 E2.03993
G1 X81.988 Y20.074 E2.12424
G1 X84.474 Y20.098 E2.20693
G1 X86.992 Y20.053 E2.29069
G1 X89.523 Y19.935 E2.37496
G1 X92.002 Y19.749 E2.45765
G1 X94.555 Y19.485 E2.54301
G1 X97.004 Y19.162 E2.62517
G1 X99.501 Y18.76 E2.70929
G1 X101.979 Y18.289 E2.79318
G1 X104.437 Y17.749 E2.87689
G1 X106.856 Y17.146 E2.95981
G1 X111.674 Y15.772 E3.12644
G1 X112.036 Y15.675 E3.13891
G1 X113.096 Y15.411 E3.17524
G1 X113.46 Y15.327 E3.18766
G1 X114.609 Y15.082 E3.22674
G1 X114.999 Y15.006 E3.23996
G1 X116.069 Y14.818 E3.27609
G1 X116.435 Y14.76 E3.28841
G1 X117.554 Y14.602 E3.326
G1 X117.949 Y14.554 E3.33924
G1 X119.078 Y14.436 E3.37699
G1 X119.451 Y14.403 E3.38945
G1 X120.563 Y14.325 E3.42652
G1 X120.949 Y14.305 E3.43938
G1 X122.094 Y14.265 E3.47748
G1 X122.478 Y14.258 E3.49026
G1 X123.558 Y14.258 E3.52618
G1 X123.942 Y14.265 E3.53895
G1 X125.087 Y14.305 E3.57706
G1 X125.473 Y14.325 E3.58991
G1 X126.585 Y14.403 E3.62699
G1 X126.963 Y14.436 E3.63961
G1 X128.087 Y14.554 E3.6772
G1 X128.47 Y14.601 E3.69003
G1 X129.601 Y14.76 E3.72802
G1 X129.98 Y14.82 E3.74078
G1 X131.063 Y15.011 E3.77736
G1 X131.436 Y15.083 E3.79
G1 X132.525 Y15.314 E3.82702
G1 X132.908 Y15.403 E3.8401
G1 X134.029 Y15.683 E3.87853
G1 X134.393 Y15.78 E3.89106
G1 X135.489 Y16.094 E3.92898
G1 X135.858 Y16.207 E3.94181
G1 X136.849 Y16.529 E3.97647
G1 X137.207 Y16.652 E3.98906
G1 X138.327 Y17.059 E4.0287
G1 X138.69 Y17.199 E4.04164
G1 X139.7 Y17.607 E4.07787
G1 X140.057 Y17.758 E4.09076
G1 X141.105 Y18.225 E4.12892
G1 X141.455 Y18.388 E4.14176
G1 X142.481 Y18.889 E4.17974
G1 X142.816 Y19.06 E4.19225
G1 X143.787 Y19.576 E4.22882
G1 X144.125 Y19.764 E4.24168
G1 X145.062 Y20.305 E4.27767
G1 X145.396 Y20.506 E4.29064
G1 X146.419 Y21.146 E4.33077
G1 X146.733 Y21.349 E4.34321
G1 X147.598 Y21.932 E4.3779
G1 X147.914 Y22.154 E4.39075
G1 X148.882 Y22.857 E4.43054
G1 X149.191 Y23.09 E4.44341
G1 X150.033 Y23.748 E4.47895
G1 X150.329 Y23.987 E4.4916
G1 X151.197 Y24.715 E4.52928
G1 X151.488 Y24.968 E4.54211
G1 X152.341 Y25.736 E4.58028
G1 X152.626 Y26.002 E4.59325
G1 X153.434 Y26.783 E4.63063
G1 X153.697 Y27.046 E4.643
G1 X154.485 Y27.861 E4.6807
G1 X154.754 Y28.149 E4.69381
G1 X155.464 Y28.938 E4.72911
G1 X155.714 Y29.226 E4.7418
G1 X156.454 Y30.108 E4.78009
G1 X156.696 Y30.406 E4.79286
G1 X157.417 Y31.329 E4.83181
G1 X157.645 Y31.633 E4.84445
G1 X158.284 Y32.512 E4.8806
G1 X158.509 Y32.832 E4.89361
G1 X159.123 Y33.743 E4.93015
G1 X159.331 Y34.064 E4.94287
G1 X159.95 Y35.055 E4.98173
G1 X160.145 Y35.38 E4.99434
G1 X160.696 Y36.334 E5.03098
G1 X160.88 Y36.665 E5.04358
G1 X161.41 Y37.66 E5.08107
G1 X161.587 Y38.008 E5.09406
G1 X162.07 Y38.998 E5.13069
G1 X162.235 Y39.352 E5.14369
G1 X162.701 Y40.4 E5.18183
G1 X162.851 Y40.753 E5.19459
G1 X163.265 Y41.779 E5.23139
G1 X163.399 Y42.128 E5.24382
G1 X163.793 Y43.209 E5.28209
G1 X163.919 Y43.576 E5.295
G1 X164.259 Y44.622 E5.33158
G1 X164.372 Y44.99 E5.34438
G1 X164.694 Y46.113 E5.38324
G1 X164.795 Y46.492 E5.39628
G1 X165.05 Y47.518 E5.43145
G1 X165.133 Y47.875 E5.44364
G1 X165.372 Y48.995 E5.48173
G1 X165.447 Y49.379 E5.49474
G1 X165.641 Y50.478 E5.53186
G1 X165.701 Y50.858 E5.54465
G1 X165.866 Y52.031 E5.58405
G1 X165.913 Y52.415 E5.59692
G1 X166.023 Y53.463 E5.63197
G1 X166.057 Y53.849 E5.64485
G1 X166.137 Y55.001 E5.68326
G1 X166.156 Y55.373 E5.69565
G1 X166.195 Y56.472 E5.73223
G1 X166.202 Y56.862 E5.7452
G1 X166.202 Y58.023 E5.78382
G1 X166.195 Y58.405 E5.79652
G1 X166.157 Y59.499 E5.83293
G1 X166.137 Y59.885 E5.84579
G1 X166.056 Y61.043 E5.8844
G1 X166.023 Y61.423 E5.89708
G1 X165.913 Y62.471 E5.93213
G1 X165.866 Y62.857 E5.94506
G1 X165.701 Y64.029 E5.98443
G1 X165.641 Y64.403 E5.99703
G1 X165.448 Y65.499 E6.03404
G1 X165.374 Y65.879 E6.04692
G1 X165.135 Y67.003 E6.08514
G1 X165.048 Y67.38 E6.09801
G1 X164.794 Y68.397 E6.13287
G1 X164.698 Y68.756 E6.14523
G1 X164.374 Y69.889 E6.18443
G1 X164.258 Y70.268 E6.19761
G1 X163.919 Y71.31 E6.23405
G1 X163.795 Y71.67 E6.24672
G1 X163.4 Y72.755 E6.28512
G1 X163.266 Y73.105 E6.29759
G1 X162.852 Y74.132 E6.33442
G1 X162.697 Y74.497 E6.34761
G1 X162.241 Y75.52 E6.38486
G1 X162.081 Y75.863 E6.39745
G1 X161.588 Y76.874 E6.43486
G1 X161.415 Y77.214 E6.44755
G1 X160.889 Y78.204 E6.48483
G1 X160.7 Y78.546 E6.49783
G1 X160.135 Y79.524 E6.53539
G1 X159.942 Y79.845 E6.54785
G1 X159.351 Y80.792 E6.58498
G1 X159.139 Y81.118 E6.59791
G1 X158.493 Y82.076 E6.63634
G1 X158.269 Y82.397 E6.64936
G1 X157.642 Y83.259 E6.68482
G1 X157.419 Y83.554 E6.69712
G1 X156.695 Y84.482 E6.73626
G1 X156.448 Y84.788 E6.74934
G1 X155.722 Y85.653 E6.7869
G1 X155.474 Y85.938 E6.79947
G1 X154.775 Y86.715 E6.83423
G1 X154.505 Y87.004 E6.84739
G1 X153.661 Y87.877 E6.88777
G1 X153.394 Y88.144 E6.90033
G1 X152.639 Y88.873 E6.93524
G1 X152.362 Y89.132 E6.94785
G1 X151.492 Y89.916 E6.9868
G1 X151.196 Y90.173 E6.99984
G1 X150.329 Y90.9 E7.03747
G1 X150.036 Y91.137 E7.05001
G1 X149.179 Y91.807 E7.08619
G1 X148.87 Y92.04 E7.09906
G1 X147.948 Y92.71 E7.13697
G1 X147.638 Y92.927 E7.14955
G1 X146.702 Y93.559 E7.18712
G1 X146.373 Y93.773 E7.20017
G1 X145.454 Y94.347 E7.23621
G1 X145.129 Y94.542 E7.24882
G1 X144.085 Y95.145 E7.28891
G1 X143.743 Y95.335 E7.30193
G1 X142.813 Y95.829 E7.33695
G1 X142.479 Y95.999 E7.34942
G1 X141.455 Y96.499 E7.38732
G1 X141.096 Y96.666 E7.40049
G1 X140.045 Y97.133 E7.43874
G1 X139.699 Y97.28 E7.45124
G1 X137.886 Y98.013 E7.51629
G1 X135.535 Y99.001 E7.6011
G1 X133.233 Y100.048 E7.68522
G1 X130.97 Y101.152 E7.76896
G1 X128.716 Y102.333 E7.8536
G1 X126.565 Y103.54 E7.93564
G1 X124.363 Y104.859 E8.02101
G1 X122.265 Y106.196 E8.10375
G1 X120.191 Y107.603 E8.18711
G1 X118.136 Y109.083 E8.27134
G1 X116.124 Y110.621 E8.35557
G1 X114.174 Y112.2 E8.43903
G1 X112.285 Y113.819 E8.52177
G1 X110.397 Y115.535 E8.60663
G1 X108.599 Y117.264 E8.6896
G1 X106.821 Y119.072 E8.77394
G1 X105.112 Y120.91 E8.85741
G1 X103.461 Y122.794 E8.94073
G1 X101.844 Y124.744 E9.02498
G1 X100.297 Y126.723 E9.10853
G1 X98.795 Y128.759 E9.19268
G1 X97.36 Y130.824 E9.27632
G1 X95.989 Y132.923 E9.3597
G1 X94.669 Y135.074 E9.44364
G1 X93.422 Y137.239 E9.52674
G1 X92.216 Y139.479 E9.61136
G1 X91.088 Y141.724 E9.69492
G1 X90.042 Y143.959 E9.777
G1 X88.612 Y147.31 E9.89818
G1 X88.085 Y148.612 E9.94489
G1 X87.938 Y148.958 E9.9574
G1 X87.473 Y150.003 E9.99544
G1 X87.313 Y150.346 E10.00803
G1 X86.83 Y151.338 E10.04472
G1 X86.652 Y151.687 E10.05775
G1 X86.124 Y152.68 E10.09516
G1 X85.937 Y153.018 E10.10801
G1 X85.39 Y153.965 E10.14438
G1 X85.193 Y154.293 E10.15711
G1 X84.568 Y155.293 E10.19633
G1 X84.36 Y155.614 E10.20905
G1 X83.751 Y156.517 E10.24528
G1 X83.529 Y156.833 E10.25812
G1 X82.872 Y157.737 E10.29529
G1 X82.642 Y158.042 E10.308
G1 X81.935 Y158.947 E10.34619
G1 X81.695 Y159.244 E10.35889
G1 X80.993 Y160.081 E10.39523
G1 X80.735 Y160.378 E10.40831
G1 X79.947 Y161.252 E10.44745
G1 X79.69 Y161.527 E10.45997
G1 X78.957 Y162.286 E10.49507
G1 X78.69 Y162.554 E10.50765
G1 X77.818 Y163.397 E10.54799
G1 X77.529 Y163.665 E10.5611
G1 X76.751 Y164.365 E10.59591
G1 X76.465 Y164.614 E10.60852
G1 X75.576 Y165.36 E10.64712
G1 X75.275 Y165.604 E10.66001
G1 X74.417 Y166.274 E10.69621
G1 X74.113 Y166.503 E10.70887
G1 X73.184 Y167.178 E10.74707
G1 X72.871 Y167.397 E10.75977
G1 X71.936 Y168.028 E10.79729
G1 X71.613 Y168.238 E10.8101
G1 X70.685 Y168.818 E10.8465
G1 X70.359 Y169.014 E10.85915
G1 X69.371 Y169.585 E10.89711
G1 X69.031 Y169.774 E10.91005
G1 X68.019 Y170.312 E10.94817
G1 X67.678 Y170.485 E10.96088
G1 X66.692 Y170.966 E10.99737
G1 X66.348 Y171.127 E11.01
G1 X65.332 Y171.58 E11.047
G1 X64.972 Y171.733 E11.06001
G1 X63.875 Y172.176 E11.09936
G1 X63.514 Y172.314 E11.11222
G1 X62.51 Y172.679 E11.14775
G1 X62.155 Y172.801 E11.16023
G1 X61.076 Y173.152 E11.19797
G1 X60.704 Y173.266 E11.21091
G1 X59.633 Y173.573 E11.24797
G1 X59.263 Y173.672 E11.26071
G1 X58.144 Y173.951 E11.29907
G1 X57.766 Y174.038 E11.31197
G1 X56.682 Y174.268 E11.34882
G1 X56.316 Y174.34 E11.36123
G1 X55.203 Y174.537 E11.39882
G1 X54.814 Y174.598 E11.41192
G1 X53.695 Y174.755 E11.4495
G1 X53.323 Y174.801 E11.46197
G1 X52.244 Y174.915 E11.49806
G1 X51.851 Y174.95 E11.51118
G1 X50.7 Y175.03 E11.54955
G1 X50.32 Y175.049 E11.56221
G1 X49.173 Y175.089 E11.60038
G1 X48.79 Y175.096 E11.61312
G1 X47.717 Y175.096 E11.64881
G1 X47.333 Y175.089 E11.66159
G1 X46.188 Y175.049 E11.69969
G1 X45.809 Y175.029 E11.71231
G1 X44.702 Y174.952 E11.74922
G1 X44.311 Y174.918 E11.76228
G1 X43.164 Y174.797 E11.80064
G1 X42.792 Y174.752 E11.8131
G1 X41.7 Y174.599 E11.84977
G1 X41.31 Y174.537 E11.86291
G1 X40.219 Y174.344 E11.89976
G1 X39.853 Y174.273 E11.91216
G1 X38.712 Y174.031 E11.95095
G1 X38.321 Y173.94 E11.96431
G1 X37.251 Y173.672 E12.00099
G1 X36.898 Y173.578 E12.01314
G1 X35.818 Y173.269 E12.05051
G1 X35.441 Y173.153 E12.06362
G1 X34.362 Y172.802 E12.10136
G1 X34.01 Y172.681 E12.11374
G1 X33.005 Y172.316 E12.14931
G1 X32.637 Y172.175 E12.16241
G1 X31.514 Y171.721 E12.2027
G1 X31.157 Y171.569 E12.21561
G1 X30.177 Y171.132 E12.2513
G1 X29.843 Y170.977 E12.26354
G1 X28.83 Y170.484 E12.30101
G1 X28.476 Y170.303 E12.31424
G1 X27.482 Y169.774 E12.35169
G1 X27.142 Y169.586 E12.36461
G1 X26.186 Y169.033 E12.40134
G1 X25.867 Y168.841 E12.41373
G1 X24.879 Y168.224 E12.45247
G1 X24.556 Y168.014 E12.46528
G1 X23.687 Y167.428 E12.50014
G1 X23.376 Y167.21 E12.51278
G1 X22.384 Y166.49 E12.55354
G1 X22.071 Y166.255 E12.56656
G1 X21.242 Y165.607 E12.60156
G1 X20.946 Y165.367 E12.61423
G1 X20.039 Y164.606 E12.65361
G1 X19.751 Y164.356 E12.6663
G1 X18.962 Y163.646 E12.7016
G1 X18.674 Y163.377 E12.71471
G1 X17.859 Y162.589 E12.75241
G1 X17.596 Y162.326 E12.76478
G1 X16.815 Y161.518 E12.80216
G1 X16.549 Y161.233 E12.81513
G1 X15.781 Y160.38 E12.8533
G1 X15.528 Y160.089 E12.86613
G1 X14.8 Y159.221 E12.90381
G1 X14.56 Y158.924 E12.91651
G1 X13.892 Y158.069 E12.9526
G1 X13.658 Y157.759 E12.96551
G1 X12.964 Y156.803 E13.0048
G1 X12.744 Y156.488 E13.01758
G1 X12.151 Y155.608 E13.05288
G1 X11.946 Y155.293 E13.06538
G1 X11.322 Y154.295 E13.10453
G1 X11.122 Y153.962 E13.11745
G1 X10.576 Y153.016 E13.15377
G1 X10.393 Y152.685 E13.16635
G1 X9.864 Y151.691 E13.20381
G1 X9.683 Y151.337 E13.21703
G1 X9.19 Y150.324 E13.2545
G1 X9.033 Y149.986 E13.2669
G1 X8.596 Y149.005 E13.30261
G1 X8.445 Y148.65 E13.31545
G1 X7.988 Y147.519 E13.35602
G1 X7.85 Y147.159 E13.36884
G1 X7.488 Y146.164 E13.40406
G1 X7.364 Y145.803 E13.41675
G1 X7.011 Y144.717 E13.45473
G1 X6.897 Y144.347 E13.46761
G1 X6.589 Y143.272 E13.5048
G1 X6.492 Y142.908 E13.51733
G1 X6.225 Y141.839 E13.55398
G1 X6.137 Y141.459 E13.56695
G1 X5.895 Y140.32 E13.60568
G1 X5.823 Y139.947 E13.61832
G1 X5.63 Y138.854 E13.65523
G1 X5.569 Y138.469 E13.6682
G1 X5.416 Y137.378 E13.70484
G1 X5.37 Y137.003 E13.71741
G1 X5.249 Y135.855 E13.7558
G1 X5.214 Y135.465 E13.76882
G1 X5.137 Y134.357 E13.80576
G1 X5.118 Y133.978 E13.81839
G1 X5.078 Y132.834 E13.85646
G1 X5.071 Y132.45 E13.86923
G1 X5.071 Y131.371 E13.90512
G1 X5.078 Y130.989 E13.91783
G1 X5.118 Y129.838 E13.95613
G1 X5.138 Y129.447 E13.96916
G1 X5.216 Y128.34 E14.00607
G1 X5.249 Y127.965 E14.01859
G1 X5.367 Y126.841 E14.05618
G1 X5.414 Y126.458 E14.06901
G1 X5.573 Y125.327 E14.107
G1 X5.633 Y124.948 E14.11976
G1 X5.824 Y123.865 E14.15634
G1 X5.896 Y123.492 E14.16897
G1 X6.127 Y122.403 E14.206
G1 X6.215 Y122.025 E14.21891
G1 X6.491 Y120.918 E14.25685
G1 X6.592 Y120.539 E14.2699
G1 X6.773 Y119.909 E14.2917
G1 X7.454 Y117.401 E14.37814
G1 X8.044 Y114.954 E14.46186
G1 X8.568 Y112.496 E14.54545
G1 X9.015 Y110.03 E14.6288
G1 X9.399 Y107.522 E14.71319
G1 X9.707 Y105.048 E14.79611
G1 X9.948 Y102.534 E14.88011
G1 X10.117 Y100.034 E14.96345
G1 X10.216 Y97.489 E15.04816
G1 X10.242 Y94.996 E15.13108
G1 X10.199 Y92.476 E15.21491
G1 X10.084 Y89.981 E15.29798
G1 X9.895 Y87.435 E15.3829
G1 X9.641 Y84.964 E15.46552
G1 X9.313 Y82.464 E15.54938
G1 X8.914 Y79.974 E15.63325
G1 X8.439 Y77.471 E15.71799
G1 X7.905 Y75.031 E15.80107
G1 X7.306 Y72.622 E15.88363
G1 X6.766 Y70.659 E15.95134
G1 X6.478 Y69.656 E15.98605
G1 X6.378 Y69.28 E15.99899
G1 X6.109 Y68.199 E16.03604
G1 X6.025 Y67.84 E16.04831
G1 X5.794 Y66.758 E16.0851
G1 X5.719 Y66.371 E16.09822
G1 X5.514 Y65.208 E16.13749
G1 X5.454 Y64.825 E16.15039
G1 X5.304 Y63.755 E16.18632
G1 X5.257 Y63.371 E16.19919
G1 X5.137 Y62.222 E16.23761
G1 X5.104 Y61.852 E16.24997
G1 X5.026 Y60.745 E16.28688
G1 X5.006 Y60.355 E16.29987
G1 X4.968 Y59.265 E16.33614
G1 X4.961 Y58.882 E16.34888
G1 X4.961 Y57.709 E16.3879
G1 X4.968 Y57.326 E16.40064
G1 X5.006 Y56.235 E16.43695
G1 X5.026 Y55.845 E16.44994
G1 X5.105 Y54.724 E16.48731
G1 X5.138 Y54.345 E16.49997
G1 X5.258 Y53.205 E16.53809
G1 X5.305 Y52.828 E16.55073
G1 X5.456 Y51.752 E16.58687
G1 X5.515 Y51.376 E16.59953
G1 X5.716 Y50.233 E16.63813
G1 X5.791 Y49.847 E16.65121
G1 X6.018 Y48.781 E16.68746
G1 X6.104 Y48.411 E16.70009
G1 X6.384 Y47.288 E16.73858
G1 X6.482 Y46.922 E16.75119
G1 X6.782 Y45.874 E16.78744
G1 X6.896 Y45.5 E16.80045
G1 X7.251 Y44.408 E16.83864
G1 X7.375 Y44.047 E16.85133
G1 X7.76 Y42.989 E16.88878
G1 X7.896 Y42.636 E16.90136
G1 X8.307 Y41.617 E16.93791
G1 X8.462 Y41.252 E16.9511
G1 X8.936 Y40.189 E16.98981
G1 X9.095 Y39.848 E17.00232
G1 X9.569 Y38.876 E17.03829
G1 X9.741 Y38.537 E17.05093
G1 X10.278 Y37.526 E17.08901
G1 X10.472 Y37.176 E17.10232
G1 X11.038 Y36.198 E17.1399
G1 X11.226 Y35.886 E17.15202
G1 X11.813 Y34.945 E17.18891
G1 X12.025 Y34.619 E17.20184
G1 X12.662 Y33.674 E17.23974
G1 X12.886 Y33.353 E17.25276
G1 X13.531 Y32.466 E17.28924
G1 X13.759 Y32.164 E17.30183
G1 X14.465 Y31.26 E17.33998
