;FLAVOR:Marlin
;TIME:7078
;Filament used: 7.56683m
;Layer height: 0.25
;MINX:64
;MINY:61.7
;MINZ:0.2
;MAXX:171
;MAXY:173.232
;MAXZ:4.95
;Generated with Cura_SteamEngine 4.12.1
M140 S70
M105
M190 S70
M104 S200
M105
M109 S200
M82 ;absolute extrusion mode
; Ender 3 Custom Start G-code
G92 E0 ; Reset Extruder
G28 ; Home all axes
G1 Z2.0 F3000 ; Move Z Axis up little to prevent scratching of Heat Bed
G1 X0.1 Y20 Z0.3 F5000.0 ; Move to start position
G1 X0.1 Y200.0 Z0.3 F1500.0 E15 ; Draw the first line
G1 X0.4 Y200.0 Z0.3 F5000.0 ; Move to side a little
G1 X0.4 Y20 Z0.3 F1500.0 E30 ; Draw the second line
G92 E0 ; Reset Extruder
G1 Z2.0 F3000 ; Move Z Axis up little to prevent scratching of Heat Bed
G1 X5 Y20 Z0.3 F5000.0 ; Move over to prevent blob squish
G92 E0
G92 E0
G1 F2700 E-5
;LAYER_COUNT:20
;LAYER:0
M107
G0 F6000 X68.745 Y71.328 Z0.2
;TYPE:SKIRT
G1 F2700 E0
G1 F1200 X69.567 Y70.562 E0.03737
G1 X70.442 Y69.856 E0.07477
G1 X71.365 Y69.214 E0.11216
G1 X72.332 Y68.64 E0.14956
G1 X73.336 Y68.136 E0.18693
G1 X74.374 Y67.704 E0.22432
G1 X75.44 Y67.347 E0.26171
G1 X76.529 Y67.068 E0.2991
G1 X77.635 Y66.866 E0.3365
G1 X78.752 Y66.743 E0.37387
G1 X79.917 Y66.7 E0.41265
G1 X92.091 Y66.7 E0.81756
G1 X92.328 Y66.445 E0.82913
G1 X92.445 Y66.328 E0.83464
G1 X93.267 Y65.562 E0.87201
G1 X94.142 Y64.856 E0.9094
G1 X95.065 Y64.214 E0.9468
G1 X96.032 Y63.64 E0.9842
G1 X97.036 Y63.136 E1.02156
G1 X98.074 Y62.704 E1.05896
G1 X99.14 Y62.347 E1.09635
G1 X100.229 Y62.068 E1.13374
G1 X101.335 Y61.866 E1.17113
G1 X102.452 Y61.743 E1.20851
G1 X103.617 Y61.7 E1.24728
G1 X155.083 Y61.7 E2.95905
G1 X156.206 Y61.74 E2.99643
G1 X157.324 Y61.86 E3.03382
G1 X158.43 Y62.059 E3.0712
G1 X159.52 Y62.336 E3.10861
G1 X160.587 Y62.69 E3.146
G1 X161.626 Y63.118 E3.18337
G1 X162.632 Y63.62 E3.22077
G1 X163.6 Y64.192 E3.25816
G1 X164.524 Y64.831 E3.29553
G1 X165.401 Y65.534 E3.33291
G1 X166.255 Y66.328 E3.3717
G1 X166.372 Y66.445 E3.3772
G1 X167.138 Y67.267 E3.41457
G1 X167.844 Y68.142 E3.45196
G1 X168.486 Y69.065 E3.48936
G1 X169.06 Y70.032 E3.52676
G1 X169.564 Y71.036 E3.56413
G1 X169.996 Y72.074 E3.60152
G1 X170.353 Y73.14 E3.63891
G1 X170.632 Y74.229 E3.6763
G1 X170.834 Y75.335 E3.7137
G1 X170.957 Y76.452 E3.75107
G1 X171 Y77.617 E3.78985
G1 X171 Y137.426 E5.7791
G1 X170.96 Y138.549 E5.81648
G1 X170.84 Y139.667 E5.85387
G1 X170.641 Y140.773 E5.89125
G1 X170.364 Y141.863 E5.92866
G1 X170.01 Y142.93 E5.96605
G1 X169.582 Y143.969 E6.00342
G1 X169.08 Y144.975 E6.04082
G1 X168.205 Y146.399 E6.09641
G1 X168.136 Y146.499 E6.10045
G1 X167.465 Y147.401 E6.13784
G1 X166.731 Y148.253 E6.17524
G1 X165.939 Y149.051 E6.21264
G1 X165.093 Y149.79 E6.25
G1 X164.195 Y150.467 E6.2874
G1 X163.252 Y151.079 E6.32479
G1 X162.268 Y151.622 E6.36217
G1 X160.832 Y152.262 E6.41446
G1 X109.374 Y172.169 E8.24957
G1 X108.312 Y172.537 E8.28695
G1 X107.226 Y172.828 E8.32435
G1 X106.122 Y173.042 E8.36175
G1 X105.006 Y173.177 E8.39914
G1 X103.884 Y173.232 E8.4365
G1 X102.76 Y173.207 E8.4739
G1 X101.64 Y173.102 E8.51131
G1 X100.532 Y172.918 E8.54867
G1 X99.439 Y172.655 E8.58606
G1 X98.367 Y172.315 E8.62346
G1 X97.322 Y171.9 E8.66086
G1 X96.31 Y171.412 E8.69823
G1 X95.334 Y170.853 E8.73564
G1 X94.719 Y170.451 E8.76008
G1 X94.546 Y170.332 E8.76706
G1 X93.643 Y169.662 E8.80446
G1 X92.79 Y168.93 E8.84184
G1 X92.154 Y168.3 E8.87162
G1 X79.917 Y168.3 E9.27862
G1 X78.794 Y168.26 E9.316
G1 X77.676 Y168.14 E9.3534
G1 X76.57 Y167.941 E9.39077
G1 X75.48 Y167.664 E9.42818
G1 X74.413 Y167.31 E9.46557
G1 X73.374 Y166.882 E9.50294
G1 X72.368 Y166.38 E9.54034
G1 X71.4 Y165.808 E9.57773
G1 X70.476 Y165.169 E9.6151
G1 X69.599 Y164.466 E9.65248
G1 X68.745 Y163.672 E9.69127
G1 X68.628 Y163.555 E9.69677
G1 X67.862 Y162.733 E9.73414
G1 X67.156 Y161.858 E9.77154
G1 X66.514 Y160.935 E9.80893
G1 X65.94 Y159.968 E9.84633
G1 X65.436 Y158.964 E9.8837
G1 X65.004 Y157.926 E9.92109
G1 X64.647 Y156.86 E9.95848
G1 X64.368 Y155.771 E9.99587
G1 X64.166 Y154.665 E10.03327
G1 X64.043 Y153.548 E10.07064
G1 X64 Y152.383 E10.10942
G1 X64 Y82.617 E12.42984
G1 X64.04 Y81.494 E12.46722
G1 X64.16 Y80.376 E12.50462
G1 X64.359 Y79.27 E12.54199
G1 X64.636 Y78.18 E12.5794
G1 X64.99 Y77.113 E12.61679
G1 X65.418 Y76.074 E12.65417
G1 X65.92 Y75.068 E12.69156
G1 X66.492 Y74.1 E12.72896
G1 X67.131 Y73.176 E12.76632
G1 X67.834 Y72.299 E12.80371
G1 X68.628 Y71.445 E12.84249
G1 X68.745 Y71.328 E12.84799
G0 F6000 X69.028 Y71.611
G1 F1200 X69.84 Y70.855 E12.88489
G1 X70.705 Y70.159 E12.92182
G1 X71.618 Y69.528 E12.95873
G1 X72.573 Y68.964 E12.99562
G1 X73.567 Y68.47 E13.03254
G1 X74.594 Y68.049 E13.06946
G1 X75.649 Y67.703 E13.10639
G1 X76.725 Y67.434 E13.14328
G1 X77.819 Y67.244 E13.18021
G1 X78.923 Y67.132 E13.21711
G1 X79.917 Y67.1 E13.25019
G1 X92.262 Y67.1 E13.66079
G1 X92.611 Y66.728 E13.67775
G1 X92.728 Y66.611 E13.68326
G1 X93.54 Y65.855 E13.72016
G1 X94.405 Y65.159 E13.75708
G1 X95.318 Y64.528 E13.794
G1 X96.273 Y63.964 E13.83089
G1 X97.267 Y63.47 E13.86781
G1 X98.294 Y63.049 E13.90472
G1 X99.349 Y62.703 E13.94165
G1 X100.425 Y62.434 E13.97854
G1 X101.519 Y62.244 E14.01547
G1 X102.623 Y62.132 E14.05238
G1 X103.617 Y62.1 E14.08546
G1 X155.083 Y62.1 E15.79722
G1 X156.192 Y62.14 E15.83413
G1 X157.295 Y62.26 E15.87103
G1 X158.387 Y62.459 E15.90795
G1 X159.462 Y62.736 E15.94487
G1 X160.514 Y63.089 E15.98178
G1 X161.537 Y63.518 E16.01868
G1 X162.528 Y64.019 E16.05561
G1 X163.479 Y64.59 E16.09251
G1 X164.387 Y65.228 E16.12941
G1 X165.247 Y65.93 E16.16634
G1 X165.972 Y66.611 E16.19942
G1 X166.089 Y66.728 E16.20492
G1 X166.845 Y67.54 E16.24183
G1 X167.541 Y68.405 E16.27875
G1 X168.172 Y69.318 E16.31567
G1 X168.736 Y70.273 E16.35255
G1 X169.23 Y71.267 E16.38947
G1 X169.651 Y72.294 E16.42639
G1 X169.997 Y73.349 E16.46332
G1 X170.266 Y74.425 E16.50021
G1 X170.456 Y75.519 E16.53714
G1 X170.568 Y76.623 E16.57405
G1 X170.6 Y77.617 E16.60712
G1 X170.6 Y137.426 E18.59638
G1 X170.56 Y138.535 E18.63329
G1 X170.44 Y139.638 E18.67019
G1 X170.241 Y140.73 E18.70711
G1 X169.964 Y141.805 E18.74403
G1 X169.611 Y142.857 E18.78094
G1 X169.182 Y143.88 E18.81783
G1 X168.681 Y144.871 E18.85477
G1 X167.875 Y146.172 E18.90567
G1 X167.806 Y146.272 E18.90971
G1 X167.144 Y147.162 E18.9466
G1 X166.419 Y148.002 E18.98351
G1 X165.635 Y148.788 E19.02043
G1 X164.796 Y149.515 E19.05736
G1 X163.908 Y150.18 E19.09426
G1 X162.974 Y150.779 E19.13116
G1 X161.999 Y151.31 E19.16809
G1 X160.687 Y151.889 E19.21578
G1 X109.229 Y171.796 E21.05089
G1 X108.181 Y172.159 E21.08778
G1 X107.108 Y172.445 E21.12472
G1 X106.018 Y172.653 E21.16162
G1 X104.916 Y172.783 E21.19853
G1 X103.807 Y172.832 E21.23545
G1 X102.698 Y172.802 E21.27235
G1 X101.594 Y172.692 E21.30925
G1 X100.5 Y172.503 E21.34618
G1 X99.423 Y172.235 E21.38309
G1 X98.368 Y171.891 E21.42
G1 X97.341 Y171.471 E21.4569
G1 X96.346 Y170.979 E21.49382
G1 X94.945 Y170.121 E21.54846
G1 X94.772 Y170.002 E21.55545
G1 X93.881 Y169.341 E21.59235
G1 X93.04 Y168.617 E21.62925
G1 X92.319 Y167.9 E21.66307
G1 X79.917 Y167.9 E22.07557
G1 X78.808 Y167.86 E22.11248
G1 X77.705 Y167.74 E22.14938
G1 X76.613 Y167.541 E22.1863
G1 X75.538 Y167.264 E22.22322
G1 X74.486 Y166.911 E22.26013
G1 X73.463 Y166.482 E22.29702
G1 X72.472 Y165.981 E22.33396
G1 X71.521 Y165.41 E22.37085
G1 X70.613 Y164.772 E22.40776
G1 X69.753 Y164.07 E22.44468
G1 X69.028 Y163.389 E22.47777
G1 X68.911 Y163.272 E22.48327
G1 X68.155 Y162.46 E22.52017
G1 X67.459 Y161.595 E22.5571
G1 X66.828 Y160.682 E22.59401
G1 X66.264 Y159.727 E22.6309
G1 X65.77 Y158.733 E22.66782
G1 X65.349 Y157.706 E22.70473
G1 X65.003 Y156.651 E22.74166
G1 X64.734 Y155.575 E22.77855
G1 X64.544 Y154.481 E22.81548
G1 X64.432 Y153.377 E22.85239
G1 X64.4 Y152.383 E22.88547
G1 X64.4 Y82.617 E25.20589
G1 X64.44 Y81.508 E25.2428
G1 X64.56 Y80.405 E25.27971
G1 X64.759 Y79.313 E25.31662
G1 X65.036 Y78.238 E25.35355
G1 X65.389 Y77.186 E25.39045
G1 X65.818 Y76.163 E25.42735
G1 X66.319 Y75.172 E25.46428
G1 X66.89 Y74.221 E25.50118
G1 X67.528 Y73.313 E25.53809
G1 X68.23 Y72.453 E25.57501
G1 X68.911 Y71.728 E25.60809
G1 X69.028 Y71.611 E25.6136
G0 F6000 X69.31 Y71.893
G1 F1200 X70.113 Y71.148 E25.65003
G1 X70.967 Y70.463 E25.68644
G1 X71.869 Y69.842 E25.72286
G1 X72.814 Y69.288 E25.7593
G1 X73.797 Y68.805 E25.79573
G1 X74.813 Y68.395 E25.83217
G1 X75.856 Y68.06 E25.8686
G1 X76.92 Y67.802 E25.90502
G1 X78.001 Y67.623 E25.94146
G1 X79.092 Y67.523 E25.9779
G1 X79.917 Y67.5 E26.00535
G1 X92.43 Y67.5 E26.42153
G1 X92.893 Y67.01 E26.44396
G1 X93.01 Y66.893 E26.44946
G1 X93.813 Y66.148 E26.48589
G1 X94.667 Y65.463 E26.5223
G1 X95.569 Y64.842 E26.55873
G1 X96.514 Y64.288 E26.59516
G1 X97.497 Y63.805 E26.63159
G1 X98.513 Y63.395 E26.66803
G1 X99.556 Y63.06 E26.70447
G1 X100.62 Y62.802 E26.74088
G1 X101.701 Y62.623 E26.77732
G1 X102.792 Y62.523 E26.81376
G1 X103.617 Y62.5 E26.84121
G1 X155.083 Y62.5 E28.55298
G1 X156.178 Y62.54 E28.58942
G1 X157.266 Y62.66 E28.62583
G1 X158.343 Y62.859 E28.66226
G1 X159.403 Y63.136 E28.6987
G1 X160.44 Y63.489 E28.73513
G1 X161.448 Y63.917 E28.77155
G1 X162.422 Y64.418 E28.80798
G1 X163.357 Y64.988 E28.8444
G1 X164.248 Y65.625 E28.88083
G1 X165.09 Y66.326 E28.91727
G1 X165.69 Y66.893 E28.94473
G1 X165.807 Y67.01 E28.95023
G1 X166.552 Y67.813 E28.98667
G1 X167.237 Y68.667 E29.02308
G1 X167.858 Y69.569 E29.0595
G1 X168.412 Y70.514 E29.09594
G1 X168.895 Y71.497 E29.13236
G1 X169.305 Y72.513 E29.1688
G1 X169.64 Y73.556 E29.20524
G1 X169.898 Y74.62 E29.24165
G1 X170.077 Y75.701 E29.2781
G1 X170.177 Y76.792 E29.31454
G1 X170.2 Y77.617 E29.34199
G1 X170.2 Y137.426 E31.33124
G1 X170.16 Y138.521 E31.36769
G1 X170.04 Y139.609 E31.40409
G1 X169.841 Y140.686 E31.44052
G1 X169.564 Y141.746 E31.47696
G1 X169.211 Y142.783 E31.5134
G1 X168.783 Y143.791 E31.54982
G1 X168.282 Y144.765 E31.58625
G1 X167.546 Y145.945 E31.6325
G1 X167.477 Y146.045 E31.63654
G1 X166.823 Y146.923 E31.67296
G1 X166.106 Y147.751 E31.70939
G1 X165.33 Y148.525 E31.74584
G1 X164.501 Y149.24 E31.78225
G1 X163.621 Y149.892 E31.81868
G1 X162.696 Y150.479 E31.85512
G1 X161.731 Y150.996 E31.89153
G1 X160.543 Y151.516 E31.93466
G1 X109.085 Y171.423 E33.76977
G1 X108.05 Y171.78 E33.80618
G1 X106.991 Y172.061 E33.84263
G1 X105.915 Y172.265 E33.87905
G1 X104.827 Y172.389 E33.91547
G1 X103.732 Y172.433 E33.95192
G1 X102.638 Y172.397 E33.98833
G1 X101.549 Y172.282 E34.02475
G1 X100.471 Y172.087 E34.06119
G1 X99.41 Y171.814 E34.09762
G1 X98.372 Y171.465 E34.13405
G1 X97.362 Y171.041 E34.17048
G1 X96.386 Y170.544 E34.20691
G1 X95.172 Y169.792 E34.25441
G1 X94.999 Y169.673 E34.26139
G1 X94.12 Y169.019 E34.29783
G1 X93.291 Y168.304 E34.33424
G1 X92.516 Y167.529 E34.37069
G1 X92.491 Y167.5 E34.37197
G1 X79.917 Y167.5 E34.79018
G1 X78.822 Y167.46 E34.82663
G1 X77.734 Y167.34 E34.86303
G1 X76.657 Y167.141 E34.89946
G1 X75.597 Y166.864 E34.9359
G1 X74.56 Y166.511 E34.97233
G1 X73.552 Y166.083 E35.00876
G1 X72.578 Y165.582 E35.04519
G1 X71.643 Y165.012 E35.08161
G1 X70.752 Y164.375 E35.11804
G1 X69.91 Y163.674 E35.15448
G1 X69.31 Y163.107 E35.18193
G1 X69.193 Y162.99 E35.18744
G1 X68.448 Y162.187 E35.22387
G1 X67.763 Y161.333 E35.26028
G1 X67.142 Y160.431 E35.29671
G1 X66.588 Y159.486 E35.33314
G1 X66.105 Y158.503 E35.36957
G1 X65.695 Y157.487 E35.40601
G1 X65.36 Y156.444 E35.44244
G1 X65.102 Y155.38 E35.47886
G1 X64.923 Y154.299 E35.5153
G1 X64.823 Y153.208 E35.55174
G1 X64.8 Y152.383 E35.57919
G1 X64.8 Y82.617 E37.89962
G1 X64.84 Y81.522 E37.93606
G1 X64.96 Y80.434 E37.97247
G1 X65.159 Y79.357 E38.00889
G1 X65.436 Y78.297 E38.04533
G1 X65.789 Y77.26 E38.08177
G1 X66.217 Y76.252 E38.11819
G1 X66.718 Y75.278 E38.15462
G1 X67.288 Y74.343 E38.19104
G1 X67.925 Y73.452 E38.22747
G1 X68.626 Y72.61 E38.26391
G1 X69.193 Y72.01 E38.29137
G1 X69.31 Y71.893 E38.29687
G0 F6000 X69.593 Y72.176
G1 F1200 X70.385 Y71.441 E38.33281
G1 X71.229 Y70.766 E38.36876
G1 X72.121 Y70.156 E38.4047
G1 X73.055 Y69.613 E38.44063
G1 X74.027 Y69.141 E38.47657
G1 X75.031 Y68.742 E38.5125
G1 X76.062 Y68.418 E38.54845
G1 X77.114 Y68.172 E38.58438
G1 X78.182 Y68.004 E38.62034
G1 X79.258 Y67.915 E38.65625
G1 X79.917 Y67.9 E38.67817
G1 X92.61 Y67.9 E39.10035
G1 X92.721 Y67.769 E39.10606
G1 X93.176 Y67.293 E39.12796
G1 X93.293 Y67.176 E39.13346
G1 X94.085 Y66.441 E39.1694
G1 X94.929 Y65.766 E39.20534
G1 X95.821 Y65.156 E39.24129
G1 X96.755 Y64.613 E39.27722
G1 X97.727 Y64.141 E39.31316
G1 X98.731 Y63.742 E39.34909
G1 X99.762 Y63.418 E39.38504
G1 X100.814 Y63.172 E39.42097
G1 X101.882 Y63.004 E39.45693
G1 X102.958 Y62.915 E39.49284
G1 X103.617 Y62.9 E39.51476
G1 X155.083 Y62.9 E41.22653
G1 X156.163 Y62.94 E41.26247
G1 X157.237 Y63.06 E41.29842
G1 X158.299 Y63.259 E41.33435
G1 X159.343 Y63.535 E41.37027
G1 X160.364 Y63.889 E41.40621
G1 X161.357 Y64.317 E41.44218
G1 X162.315 Y64.817 E41.47812
G1 X163.233 Y65.386 E41.51404
G1 X164.106 Y66.022 E41.54997
G1 X164.931 Y66.721 E41.58593
G1 X165.407 Y67.176 E41.60783
G1 X165.524 Y67.293 E41.61334
G1 X166.259 Y68.085 E41.64927
G1 X166.934 Y68.929 E41.68522
G1 X167.544 Y69.821 E41.72116
G1 X168.087 Y70.755 E41.75709
G1 X168.559 Y71.727 E41.79303
G1 X168.958 Y72.731 E41.82897
G1 X169.282 Y73.762 E41.86491
G1 X169.528 Y74.814 E41.90084
G1 X169.696 Y75.882 E41.9368
G1 X169.785 Y76.958 E41.97271
G1 X169.8 Y77.617 E41.99464
G1 X169.8 Y137.426 E43.98389
G1 X169.76 Y138.506 E44.01984
G1 X169.64 Y139.58 E44.05578
G1 X169.441 Y140.642 E44.09172
G1 X169.165 Y141.686 E44.12763
G1 X168.811 Y142.707 E44.16358
G1 X168.383 Y143.7 E44.19954
G1 X167.883 Y144.658 E44.23548
G1 X167.217 Y145.718 E44.27712
G1 X167.148 Y145.818 E44.28116
G1 X166.502 Y146.684 E44.3171
G1 X165.793 Y147.5 E44.35305
G1 X165.026 Y148.261 E44.38899
G1 X164.205 Y148.963 E44.42491
G1 X163.335 Y149.603 E44.46084
G1 X162.419 Y150.177 E44.49679
G1 X161.463 Y150.681 E44.53273
G1 X160.399 Y151.143 E44.57132
G1 X108.941 Y171.05 E46.40642
G1 X107.919 Y171.402 E46.44238
G1 X106.874 Y171.678 E46.47832
G1 X105.812 Y171.875 E46.51425
G1 X104.738 Y171.994 E46.55019
G1 X103.658 Y172.033 E46.58613
G1 X102.578 Y171.992 E46.62208
G1 X101.505 Y171.871 E46.65799
G1 X100.443 Y171.671 E46.69394
G1 X99.399 Y171.393 E46.72987
G1 X98.378 Y171.039 E46.76581
G1 X97.386 Y170.61 E46.80176
G1 X96.429 Y170.109 E46.83769
G1 X95.399 Y169.462 E46.87814
G1 X95.226 Y169.343 E46.88513
G1 X94.359 Y168.698 E46.92107
G1 X93.542 Y167.991 E46.957
G1 X92.779 Y167.225 E46.99296
G1 X92.672 Y167.1 E46.99844
G1 X79.917 Y167.1 E47.42267
G1 X78.837 Y167.06 E47.45862
G1 X77.763 Y166.94 E47.49456
G1 X76.701 Y166.741 E47.5305
G1 X75.657 Y166.465 E47.56641
G1 X74.636 Y166.111 E47.60235
G1 X73.643 Y165.683 E47.63832
G1 X72.685 Y165.183 E47.67426
G1 X71.767 Y164.614 E47.71018
G1 X70.894 Y163.978 E47.74611
G1 X70.069 Y163.279 E47.78207
G1 X69.593 Y162.824 E47.80397
G1 X69.476 Y162.707 E47.80948
G1 X68.741 Y161.915 E47.84541
G1 X68.066 Y161.071 E47.88136
G1 X67.456 Y160.179 E47.9173
G1 X66.913 Y159.245 E47.95323
G1 X66.441 Y158.273 E47.98917
G1 X66.042 Y157.269 E48.02511
G1 X65.718 Y156.238 E48.06105
G1 X65.472 Y155.186 E48.09699
G1 X65.304 Y154.118 E48.13294
G1 X65.215 Y153.042 E48.16885
G1 X65.2 Y152.383 E48.19078
G1 X65.2 Y82.617 E50.5112
G1 X65.24 Y81.537 E50.54715
G1 X65.36 Y80.463 E50.58309
G1 X65.559 Y79.401 E50.61903
G1 X65.835 Y78.357 E50.65495
G1 X66.189 Y77.336 E50.69089
G1 X66.617 Y76.343 E50.72685
G1 X67.117 Y75.385 E50.7628
G1 X67.686 Y74.467 E50.79872
G1 X68.322 Y73.594 E50.83464
G1 X69.021 Y72.769 E50.87061
G1 X69.476 Y72.293 E50.89251
G1 X69.593 Y72.176 E50.89801
G0 F6000 X69.876 Y72.459
G1 F1200 X70.657 Y71.734 E50.93345
G1 X71.491 Y71.07 E50.96891
G1 X72.372 Y70.471 E51.00435
G1 X73.295 Y69.939 E51.03978
G1 X74.256 Y69.477 E51.07524
G1 X75.248 Y69.089 E51.11067
G1 X76.267 Y68.777 E51.14612
G1 X77.306 Y68.542 E51.18155
G1 X78.361 Y68.386 E51.21702
G1 X79.917 Y68.3 E51.26885
G1 X92.81 Y68.3 E51.69767
G1 X93.459 Y67.576 E51.73001
G1 X93.576 Y67.459 E51.73551
G1 X94.357 Y66.734 E51.77096
G1 X95.191 Y66.07 E51.80641
G1 X96.072 Y65.471 E51.84185
G1 X96.995 Y64.939 E51.87728
G1 X97.956 Y64.477 E51.91275
G1 X98.948 Y64.089 E51.94817
G1 X99.967 Y63.777 E51.98362
G1 X101.006 Y63.542 E52.01905
G1 X102.061 Y63.386 E52.05452
