;FLAVOR:Marlin
;TIME:1217
;Filament used: 0.958155m
;Layer height: 0.25
;MINX:103.335
;MINY:157.381
;MINZ:0.2
;MAXX:131.661
;MAXY:183.981
;MAXZ:9.95
;Generated with Cura_SteamEngine 4.12.1
M140 S70
M105
M190 S70
M104 S200
M105
M109 S200
M82 ;absolute extrusion mode
; Ender 3 Custom Start G-code
G92 E0 ; Reset Extruder
G28 ; Home all axes
G1 Z2.0 F3000 ; Move Z Axis up little to prevent scratching of Heat Bed
G1 X0.1 Y20 Z0.3 F5000.0 ; Move to start position
G1 X0.1 Y200.0 Z0.3 F1500.0 E15 ; Draw the first line
G1 X0.4 Y200.0 Z0.3 F5000.0 ; Move to side a little
G1 X0.4 Y20 Z0.3 F1500.0 E30 ; Draw the second line
G92 E0 ; Reset Extruder
G1 Z2.0 F3000 ; Move Z Axis up little to prevent scratching of Heat Bed
G1 X5 Y20 Z0.3 F5000.0 ; Move over to prevent blob squish
G92 E0
G92 E0
G1 F2700 E-5
;LAYER_COUNT:40
;LAYER:0
M107
;MESH:GPS shelf.STL
G0 F6000 X130.4 Y183.581 Z0.2
;TYPE:WALL-INNER
G1 F2700 E0
G1 F1200 X104.6 Y183.581 E0.85811
G1 X104.6 Y157.781 E1.71622
G1 X130.4 Y157.781 E2.57433
G1 X130.4 Y183.581 E3.43245
G0 F6000 X130.8 Y183.981
;TYPE:WALL-OUTER
G1 F1200 X104.2 Y183.981 E4.31717
G1 X104.2 Y157.381 E5.20189
G1 X130.8 Y157.381 E6.0866
G1 X130.8 Y183.981 E6.97132
G0 F6000 X130.53 Y183.711
G0 X130.29 Y183.191
G0 X130.01 Y183.191
;TYPE:SKIN
G1 F1200 X104.99 Y183.191 E7.80349
G1 X104.99 Y158.171 E8.63566
G1 X130.01 Y158.171 E9.46783
G1 X130.01 Y183.191 E10.3
G0 F6000 X130.29 Y183.191
G0 X130.29 Y158.7
G0 X129.85 Y158.7
G1 F1200 X129.48 Y158.33 E10.3174
G0 F6000 X128.914 Y158.33
G1 F1200 X129.85 Y159.265 E10.36141
G0 F6000 X129.85 Y159.831
G1 F1200 X128.349 Y158.33 E10.43201
G0 F6000 X127.783 Y158.33
G1 F1200 X129.85 Y160.397 E10.52923
G0 F6000 X129.85 Y160.962
G1 F1200 X127.217 Y158.33 E10.65306
G0 F6000 X126.652 Y158.33
G1 F1200 X129.85 Y161.528 E10.80348
G0 F6000 X129.85 Y162.094
G1 F1200 X126.086 Y158.33 E10.98053
G0 F6000 X125.52 Y158.33
G1 F1200 X129.85 Y162.66 E11.1842
G0 F6000 X129.85 Y163.225
G1 F1200 X124.954 Y158.33 E11.41447
G0 F6000 X124.389 Y158.33
G1 F1200 X129.85 Y163.791 E11.67134
G0 F6000 X129.85 Y164.357
G1 F1200 X123.823 Y158.33 E11.95483
G0 F6000 X123.257 Y158.33
G1 F1200 X129.85 Y164.922 E12.26492
G0 F6000 X129.85 Y165.488
G1 F1200 X122.692 Y158.33 E12.60161
G0 F6000 X122.126 Y158.33
G1 F1200 X129.85 Y166.054 E12.96492
G0 F6000 X129.85 Y166.619
G1 F1200 X121.56 Y158.33 E13.35484
G0 F6000 X120.995 Y158.33
G1 F1200 X129.85 Y167.185 E13.77135
G0 F6000 X129.85 Y167.751
G1 F1200 X120.429 Y158.33 E14.21448
G0 F6000 X119.863 Y158.33
G1 F1200 X129.85 Y168.316 E14.68422
G0 F6000 X129.85 Y168.882
G1 F1200 X119.298 Y158.33 E15.18055
G0 F6000 X118.732 Y158.33
G1 F1200 X129.85 Y169.448 E15.70351
G0 F6000 X129.85 Y170.013
G1 F1200 X118.166 Y158.33 E16.25306
G0 F6000 X117.601 Y158.33
G1 F1200 X129.85 Y170.579 E16.82922
G0 F6000 X129.85 Y171.145
G1 F1200 X117.035 Y158.33 E17.432
G0 F6000 X116.469 Y158.33
G1 F1200 X129.85 Y171.71 E18.06137
G0 F6000 X129.85 Y172.276
G1 F1200 X115.903 Y158.33 E18.71738
G0 F6000 X115.338 Y158.33
G1 F1200 X129.85 Y172.842 E19.39998
G0 F6000 X129.85 Y173.408
G1 F1200 X114.772 Y158.33 E20.1092
G0 F6000 X114.206 Y158.33
G1 F1200 X129.85 Y173.973 E20.84502
G0 F6000 X129.85 Y174.539
G1 F1200 X113.641 Y158.33 E21.60744
G0 F6000 X113.075 Y158.33
G1 F1200 X129.85 Y175.105 E22.39649
G0 F6000 X129.85 Y175.67
G1 F1200 X112.509 Y158.33 E23.21213
G0 F6000 X111.944 Y158.33
G1 F1200 X129.85 Y176.236 E24.05437
G0 F6000 X129.85 Y176.802
G1 F1200 X111.378 Y158.33 E24.92324
G0 F6000 X110.812 Y158.33
G1 F1200 X129.85 Y177.367 E25.81871
G0 F6000 X129.85 Y177.933
G1 F1200 X110.247 Y158.33 E26.74077
G0 F6000 X109.681 Y158.33
G1 F1200 X129.85 Y178.499 E27.68946
G0 F6000 X129.85 Y179.064
G1 F1200 X109.115 Y158.33 E28.66475
G0 F6000 X108.55 Y158.33
G1 F1200 X129.85 Y179.63 E29.66663
G0 F6000 X129.85 Y180.196
G1 F1200 X107.984 Y158.33 E30.69514
G0 F6000 X107.418 Y158.33
G1 F1200 X129.85 Y180.761 E31.75025
G0 F6000 X129.85 Y181.327
G1 F1200 X106.853 Y158.33 E32.83196
G0 F6000 X106.287 Y158.33
G1 F1200 X129.85 Y181.893 E33.94029
G0 F6000 X129.85 Y182.459
G1 F1200 X105.721 Y158.33 E35.07525
G0 F6000 X105.155 Y158.33
G1 F1200 X129.85 Y183.024 E36.2368
G0 F6000 X129.29 Y183.03
G1 F1200 X105.149 Y158.889 E37.37232
G0 F6000 X105.149 Y159.455
G1 F1200 X128.724 Y183.03 E38.48121
G0 F6000 X128.158 Y183.03
G1 F1200 X105.149 Y160.021 E39.56349
G0 F6000 X105.149 Y160.586
G1 F1200 X127.593 Y183.03 E40.61918
G0 F6000 X127.027 Y183.03
G1 F1200 X105.149 Y161.152 E41.64826
G0 F6000 X105.149 Y161.718
G1 F1200 X126.461 Y183.03 E42.65071
G0 F6000 X125.896 Y183.03
G1 F1200 X105.149 Y162.283 E43.62658
G0 F6000 X105.149 Y162.849
G1 F1200 X125.33 Y183.03 E44.57584
G0 F6000 X124.764 Y183.03
G1 F1200 X105.149 Y163.415 E45.49847
G0 F6000 X105.149 Y163.98
G1 F1200 X124.199 Y183.03 E46.39452
G0 F6000 X123.633 Y183.03
G1 F1200 X105.149 Y164.546 E47.26395
G0 F6000 X105.149 Y165.112
G1 F1200 X123.067 Y183.03 E48.10676
G0 F6000 X122.502 Y183.03
G1 F1200 X105.149 Y165.677 E48.92299
G0 F6000 X105.149 Y166.243
G1 F1200 X121.936 Y183.03 E49.7126
G0 F6000 X121.37 Y183.03
G1 F1200 X105.149 Y166.809 E50.47558
G0 F6000 X105.149 Y167.375
G1 F1200 X120.804 Y183.03 E51.21195
G0 F6000 X120.239 Y183.03
G1 F1200 X105.149 Y167.94 E51.92174
G0 F6000 X105.149 Y168.506
G1 F1200 X119.673 Y183.03 E52.6049
G0 F6000 X119.107 Y183.03
G1 F1200 X105.149 Y169.072 E53.26144
G0 F6000 X105.149 Y169.637
G1 F1200 X118.542 Y183.03 E53.89141
G0 F6000 X117.976 Y183.03
G1 F1200 X105.149 Y170.203 E54.49475
G0 F6000 X105.149 Y170.769
G1 F1200 X117.41 Y183.03 E55.07147
G0 F6000 X116.845 Y183.03
G1 F1200 X105.149 Y171.334 E55.62161
G0 F6000 X105.149 Y171.9
G1 F1200 X116.279 Y183.03 E56.14513
G0 F6000 X115.713 Y183.03
G1 F1200 X105.149 Y172.466 E56.64203
G0 F6000 X105.149 Y173.031
G1 F1200 X115.148 Y183.03 E57.11235
G0 F6000 X114.582 Y183.03
G1 F1200 X105.149 Y173.597 E57.55605
G0 F6000 X105.149 Y174.163
G1 F1200 X114.016 Y183.03 E57.97313
G0 F6000 X113.451 Y183.03
G1 F1200 X105.149 Y174.728 E58.36363
G0 F6000 X105.149 Y175.294
G1 F1200 X112.885 Y183.03 E58.72751
G0 F6000 X112.319 Y183.03
G1 F1200 X105.149 Y175.86 E59.06476
G0 F6000 X105.149 Y176.425
G1 F1200 X111.753 Y183.03 E59.37542
G0 F6000 X111.188 Y183.03
G1 F1200 X105.149 Y176.991 E59.65948
G0 F6000 X105.149 Y177.557
G1 F1200 X110.622 Y183.03 E59.91691
G0 F6000 X110.056 Y183.03
G1 F1200 X105.149 Y178.123 E60.14772
G0 F6000 X105.149 Y178.688
G1 F1200 X109.491 Y183.03 E60.35195
G0 F6000 X108.925 Y183.03
G1 F1200 X105.149 Y179.254 E60.52956
G0 F6000 X105.149 Y179.82
G1 F1200 X108.359 Y183.03 E60.68055
G0 F6000 X107.794 Y183.03
G1 F1200 X105.149 Y180.385 E60.80497
G0 F6000 X105.149 Y180.951
G1 F1200 X107.228 Y183.03 E60.90276
G0 F6000 X106.662 Y183.03
G1 F1200 X105.149 Y181.517 E60.97392
G0 F6000 X105.149 Y182.082
G1 F1200 X106.097 Y183.03 E61.01851
G0 F6000 X105.531 Y183.03
G1 F1200 X105.149 Y182.648 E61.03648
G0 F6000 X104.8 Y182.648
;MESH:NONMESH
G0 F300 X104.8 Y182.648 Z0.45
G0 F6000 X104.71 Y182.648
G0 X104.782 Y183.399
G0 X130.4 Y183.581
;TIME_ELAPSED:104.004134
;LAYER:1
M140 S55
M106 S127.5
;TYPE:WALL-INNER
;MESH:GPS shelf.STL
G1 F1350 X104.6 Y183.581 E62.10912
G1 X104.6 Y157.781 E63.18176
G1 X130.4 Y157.781 E64.2544
G1 X130.4 Y183.581 E65.32704
G0 F7500 X130.8 Y183.981
;TYPE:WALL-OUTER
G1 F1350 X104.2 Y183.981 E66.43294
G1 X104.2 Y157.381 E67.53884
G1 X130.8 Y157.381 E68.64474
G1 X130.8 Y183.981 E69.75064
G0 F7500 X130.53 Y183.711
G0 X130.29 Y183.191
G0 X130.01 Y183.191
;TYPE:SKIN
G1 F1350 X104.99 Y183.191 E70.79085
G1 X104.99 Y158.171 E71.83106
G1 X130.01 Y158.171 E72.87127
G1 X130.01 Y183.191 E73.91148
G0 F7500 X129.228 Y183.03
G1 F1350 X129.849 Y182.408 E73.94802
G0 F7500 X129.849 Y181.843
G1 F1350 X128.662 Y183.03 E74.01781
G0 F7500 X128.096 Y183.03
G1 F1350 X129.849 Y181.277 E74.12088
G0 F7500 X129.849 Y180.711
G1 F1350 X127.53 Y183.03 E74.25723
G0 F7500 X126.965 Y183.03
G1 F1350 X129.849 Y180.146 E74.4268
G0 F7500 X129.849 Y179.58
G1 F1350 X126.399 Y183.03 E74.62965
G0 F7500 X125.833 Y183.03
G1 F1350 X129.849 Y179.014 E74.86577
G0 F7500 X129.849 Y178.449
G1 F1350 X125.268 Y183.03 E75.13512
G0 F7500 X124.702 Y183.03
G1 F1350 X129.849 Y177.883 E75.43774
G0 F7500 X129.849 Y177.317
G1 F1350 X124.136 Y183.03 E75.77364
G0 F7500 X123.571 Y183.03
G1 F1350 X129.849 Y176.751 E76.14279
G0 F7500 X129.849 Y176.186
G1 F1350 X123.005 Y183.03 E76.5452
G0 F7500 X122.439 Y183.03
G1 F1350 X129.849 Y175.62 E76.98088
G0 F7500 X129.849 Y175.054
G1 F1350 X121.874 Y183.03 E77.4498
G0 F7500 X121.308 Y183.03
G1 F1350 X129.849 Y174.489 E77.95198
G0 F7500 X129.849 Y173.923
G1 F1350 X120.742 Y183.03 E78.48744
G0 F7500 X120.177 Y183.03
G1 F1350 X129.849 Y173.357 E79.05614
G0 F7500 X129.849 Y172.792
G1 F1350 X119.611 Y183.03 E79.6581
G0 F7500 X119.045 Y183.03
G1 F1350 X129.849 Y172.226 E80.29333
G0 F7500 X129.849 Y171.66
G1 F1350 X118.479 Y183.03 E80.96185
G0 F7500 X117.914 Y183.03
G1 F1350 X129.849 Y171.095 E81.66358
G0 F7500 X129.849 Y170.529
G1 F1350 X117.348 Y183.03 E82.39859
G0 F7500 X116.782 Y183.03
G1 F1350 X129.849 Y169.963 E83.16688
G0 F7500 X129.849 Y169.398
G1 F1350 X116.217 Y183.03 E83.96839
G0 F7500 X115.651 Y183.03
G1 F1350 X129.849 Y168.832 E84.80318
G0 F7500 X129.849 Y168.266
G1 F1350 X115.085 Y183.03 E85.67124
G0 F7500 X114.52 Y183.03
G1 F1350 X129.849 Y167.7 E86.57256
G0 F7500 X129.849 Y167.135
G1 F1350 X113.954 Y183.03 E87.50712
G0 F7500 X113.388 Y183.03
G1 F1350 X129.849 Y166.569 E88.47497
G0 F7500 X129.849 Y166.003
G1 F1350 X112.823 Y183.03 E89.47606
G0 F7500 X112.257 Y183.03
G1 F1350 X129.849 Y165.438 E90.5104
G0 F7500 X129.849 Y164.872
G1 F1350 X111.691 Y183.03 E91.57802
G0 F7500 X111.126 Y183.03
G1 F1350 X129.849 Y164.306 E92.67889
G0 F7500 X129.849 Y163.741
G1 F1350 X110.56 Y183.03 E93.81301
G0 F7500 X109.994 Y183.03
G1 F1350 X129.849 Y163.175 E94.98041
G0 F7500 X129.849 Y162.609
G1 F1350 X109.429 Y183.03 E96.18106
G0 F7500 X108.863 Y183.03
G1 F1350 X129.849 Y162.044 E97.41495
G0 F7500 X129.849 Y161.478
G1 F1350 X108.297 Y183.03 E98.68213
G0 F7500 X107.731 Y183.03
G1 F1350 X129.849 Y160.912 E99.98258
G0 F7500 X129.849 Y160.347
G1 F1350 X107.166 Y183.03 E101.31626
G0 F7500 X106.6 Y183.03
G1 F1350 X129.849 Y159.781 E102.68321
G0 F7500 X129.849 Y159.215
G1 F1350 X106.034 Y183.03 E104.08344
G0 F7500 X105.469 Y183.03
G1 F1350 X129.849 Y158.65 E105.51689
G0 F7500 X129.603 Y158.33
G1 F1350 X105.15 Y182.783 E106.95463
G0 F7500 X105.15 Y182.217
G1 F1350 X129.037 Y158.33 E108.3591
G0 F7500 X128.472 Y158.33
G1 F1350 X105.15 Y181.652 E109.73034
G0 F7500 X105.15 Y181.086
G1 F1350 X127.906 Y158.33 E111.06831
G0 F7500 X127.34 Y158.33
G1 F1350 X105.15 Y180.52 E112.37299
G0 F7500 X105.15 Y179.955
G1 F1350 X126.775 Y158.33 E113.64446
G0 F7500 X126.209 Y158.33
G1 F1350 X105.15 Y179.389 E114.88265
G0 F7500 X105.15 Y178.823
G1 F1350 X125.643 Y158.33 E116.08756
G0 F7500 X125.077 Y158.33
G1 F1350 X105.15 Y178.258 E117.25922
G0 F7500 X105.15 Y177.692
G1 F1350 X124.512 Y158.33 E118.39763
G0 F7500 X123.946 Y158.33
G1 F1350 X105.15 Y177.126 E119.50276
G0 F7500 X105.15 Y176.561
G1 F1350 X123.38 Y158.33 E120.57465
G0 F7500 X122.815 Y158.33
G1 F1350 X105.15 Y175.995 E121.61328
G0 F7500 X105.15 Y175.429
G1 F1350 X122.249 Y158.33 E122.61864
G0 F7500 X121.683 Y158.33
G1 F1350 X105.15 Y174.863 E123.59071
G0 F7500 X105.15 Y174.298
G1 F1350 X121.118 Y158.33 E124.52957
G0 F7500 X120.552 Y158.33
G1 F1350 X105.15 Y173.732 E125.43515
G0 F7500 X105.15 Y173.166
G1 F1350 X119.986 Y158.33 E126.30745
G0 F7500 X119.421 Y158.33
G1 F1350 X105.15 Y172.601 E127.14653
G0 F7500 X105.15 Y172.035
G1 F1350 X118.855 Y158.33 E127.95233
G0 F7500 X118.289 Y158.33
G1 F1350 X105.15 Y171.469 E128.72485
G0 F7500 X105.15 Y170.904
G1 F1350 X117.724 Y158.33 E129.46416
G0 F7500 X117.158 Y158.33
G1 F1350 X105.15 Y170.338 E130.17018
G0 F7500 X105.15 Y169.772
G1 F1350 X116.592 Y158.33 E130.84293
G0 F7500 X116.027 Y158.33
G1 F1350 X105.15 Y169.207 E131.48245
G0 F7500 X105.15 Y168.641
G1 F1350 X115.461 Y158.33 E132.0887
G0 F7500 X114.895 Y158.33
G1 F1350 X105.15 Y168.075 E132.66167
G0 F7500 X105.15 Y167.51
G1 F1350 X114.329 Y158.33 E133.20139
G0 F7500 X113.764 Y158.33
G1 F1350 X105.15 Y166.944 E133.70786
G0 F7500 X105.15 Y166.378
G1 F1350 X113.198 Y158.33 E134.18105
G0 F7500 X112.632 Y158.33
G1 F1350 X105.15 Y165.813 E134.62099
G0 F7500 X105.15 Y165.247
G1 F1350 X112.067 Y158.33 E135.02769
G0 F7500 X111.501 Y158.33
G1 F1350 X105.15 Y164.681 E135.4011
G0 F7500 X105.15 Y164.115
G1 F1350 X110.935 Y158.33 E135.74124
G0 F7500 X110.37 Y158.33
G1 F1350 X105.15 Y163.55 E136.04815
G0 F7500 X105.15 Y162.984
G1 F1350 X109.804 Y158.33 E136.32179
G0 F7500 X109.238 Y158.33
G1 F1350 X105.15 Y162.418 E136.56215
G0 F7500 X105.15 Y161.853
G1 F1350 X108.673 Y158.33 E136.76929
G0 F7500 X108.107 Y158.33
G1 F1350 X105.15 Y161.287 E136.94315
G0 F7500 X105.15 Y160.721
G1 F1350 X107.541 Y158.33 E137.08373
G0 F7500 X106.976 Y158.33
G1 F1350 X105.15 Y160.156 E137.19109
G0 F7500 X105.15 Y159.59
G1 F1350 X106.41 Y158.33 E137.26517
G0 F7500 X105.844 Y158.33
G1 F1350 X105.15 Y159.024 E137.30598
G0 F7500 X105.15 Y158.459
G1 F1350 X105.279 Y158.33 E137.31356
G0 F7500 X105.279 Y157.981
G1 F2700 E132.31356
;MESH:NONMESH
G0 F300 X105.279 Y157.981 Z0.7
G0 F7500 X105.279 Y157.891
G0 X130.218 Y157.963
G0 X130.4 Y183.581
;TIME_ELAPSED:193.677432
;LAYER:2
M106 S255
;TYPE:WALL-INNER
;MESH:GPS shelf.STL
G1 F2700 E137.31356
G1 F1500 X104.6 Y183.581 E138.3862
G1 X104.6 Y157.781 E139.45884
G1 X130.4 Y157.781 E140.53148
G1 X130.4 Y183.581 E141.60412
G0 F9000 X130.8 Y183.981
;TYPE:WALL-OUTER
G1 F1500 X104.2 Y183.981 E142.71002
G1 X104.2 Y157.381 E143.81592
G1 X130.8 Y157.381 E144.92182
G1 X130.8 Y183.981 E146.02772
G0 F9000 X130.53 Y183.711
G0 X130.29 Y183.191
G0 X130.01 Y183.191
;TYPE:SKIN
G1 F1500 X104.99 Y183.191 E147.06793
G1 X104.99 Y158.171 E148.10814
G1 X130.01 Y158.171 E149.14835
G1 X130.01 Y183.191 E150.18856
G0 F9000 X130.29 Y183.191
G0 X130.29 Y158.7
G0 X129.85 Y158.7
G1 F1500 X129.48 Y158.33 E150.21032
G0 F9000 X128.914 Y158.33
G1 F1500 X129.85 Y159.265 E150.26532
G0 F9000 X129.85 Y159.831
G1 F1500 X128.349 Y158.33 E150.35357
G0 F9000 X127.783 Y158.33
G1 F1500 X129.85 Y160.397 E150.4751
G0 F9000 X129.85 Y160.962
G1 F1500 X127.217 Y158.33 E150.62989
G0 F9000 X126.652 Y158.33
G1 F1500 X129.85 Y161.528 E150.81792
G0 F9000 X129.85 Y162.094
G1 F1500 X126.086 Y158.33 E151.03922
G0 F9000 X125.52 Y158.33
G1 F1500 X129.85 Y162.66 E151.29381
G0 F9000 X129.85 Y163.225
G1 F1500 X124.954 Y158.33 E151.58165
G0 F9000 X124.389 Y158.33
G1 F1500 X129.85 Y163.791 E151.90273
G0 F9000 X129.85 Y164.357
G1 F1500 X123.823 Y158.33 E152.2571
G0 F9000 X123.257 Y158.33
G1 F1500 X129.85 Y164.922 E152.64471
G0 F9000 X129.85 Y165.488
G1 F1500 X122.692 Y158.33 E153.06558
G0 F9000 X122.126 Y158.33
G1 F1500 X129.85 Y166.054 E153.51972
G0 F9000 X129.85 Y166.619
G1 F1500 X121.56 Y158.33 E154.00711
G0 F9000 X120.995 Y158.33
G1 F1500 X129.85 Y167.185 E154.52775
G0 F9000 X129.85 Y167.751
G1 F1500 X120.429 Y158.33 E155.08167
G0 F9000 X119.863 Y158.33
G1 F1500 X129.85 Y168.316 E155.66883
G0 F9000 X129.85 Y168.882
G1 F1500 X119.298 Y158.33 E156.28925
G0 F9000 X118.732 Y158.33
G1 F1500 X129.85 Y169.448 E156.94295
G0 F9000 X129.85 Y170.013
G1 F1500 X118.166 Y158.33 E157.62989
G0 F9000 X117.601 Y158.33
G1 F1500 X129.85 Y170.579 E158.35009
G0 F9000 X129.85 Y171.145
G1 F1500 X117.035 Y158.33 E159.10356
G0 F9000 X116.469 Y158.33
G1 F1500 X129.85 Y171.71 E159.89028
G0 F9000 X129.85 Y172.276
G1 F1500 X115.903 Y158.33 E160.71028
G0 F9000 X115.338 Y158.33
G1 F1500 X129.85 Y172.842 E161.56353
G0 F9000 X129.85 Y173.408
G1 F1500 X114.772 Y158.33 E162.45006
G0 F9000 X114.206 Y158.33
G1 F1500 X129.85 Y173.973 E163.36984
G0 F9000 X129.85 Y174.539
G1 F1500 X113.641 Y158.33 E164.32287
G0 F9000 X113.075 Y158.33
G1 F1500 X129.85 Y175.105 E165.30917
G0 F9000 X129.85 Y175.67
G1 F1500 X112.509 Y158.33 E166.32873
G0 F9000 X111.944 Y158.33
G1 F1500 X129.85 Y176.236 E167.38153
G0 F9000 X129.85 Y176.802
G1 F1500 X111.378 Y158.33 E168.46761
G0 F9000 X110.812 Y158.33
G1 F1500 X129.85 Y177.367 E169.58695
G0 F9000 X129.85 Y177.933
G1 F1500 X110.247 Y158.33 E170.73953
