;FLAVOR:Marlin
;TIME:8305
;Filament used: 6.26579m
;Layer height: 0.2
;MINX:2.333
;MINY:12.456
;MINZ:0.2
;MAXX:233.397
;MAXY:104.838
;MAXZ:3
;Generated with Cura_SteamEngine 4.12.1
M140 S50
M105
M190 S50
M104 S200
M105
M109 S200
M82 ;absolute extrusion mode
; Ender 3 Custom Start G-code
G92 E0 ; Reset Extruder
G28 ; Home all axes
G1 Z2.0 F3000 ; Move Z Axis up little to prevent scratching of Heat Bed
G1 X0.1 Y20 Z0.3 F5000.0 ; Move to start position
G1 X0.1 Y200.0 Z0.3 F1500.0 E15 ; Draw the first line
G1 X0.4 Y200.0 Z0.3 F5000.0 ; Move to side a little
G1 X0.4 Y20 Z0.3 F1500.0 E30 ; Draw the second line
G92 E0 ; Reset Extruder
G1 Z2.0 F3000 ; Move Z Axis up little to prevent scratching of Heat Bed
G1 X5 Y20 Z0.3 F5000.0 ; Move over to prevent blob squish
G92 E0
G92 E0
G1 F2700 E-5
;LAYER_COUNT:15
;LAYER:0
M107
G0 F6000 X19.691 Y26.033 Z0.2
;TYPE:SKIRT
G1 F2700 E0
G1 F1200 X20.576 Y25.39 E0.03638
G1 X20.894 Y25.167 E0.0493
G1 X21.848 Y24.524 E0.08757
G1 X22.167 Y24.317 E0.10021
G1 X23.1 Y23.734 E0.13681
G1 X23.423 Y23.54 E0.14934
G1 X24.402 Y22.974 E0.18695
G1 X24.75 Y22.781 E0.20019
G1 X25.771 Y22.239 E0.23863
G1 X26.109 Y22.067 E0.25125
G1 X27.071 Y21.598 E0.28684
G1 X27.428 Y21.432 E0.29994
G1 X28.498 Y20.957 E0.33887
G1 X28.834 Y20.815 E0.35101
G1 X29.847 Y20.405 E0.38735
G1 X30.201 Y20.268 E0.39998
G1 X31.258 Y19.882 E0.43741
G1 X31.639 Y19.751 E0.45081
G1 X32.731 Y19.397 E0.48899
G1 X33.101 Y19.284 E0.50186
G1 X34.151 Y18.984 E0.53818
G1 X34.507 Y18.889 E0.55043
G1 X35.628 Y18.609 E0.58886
G1 X35.997 Y18.523 E0.60146
G1 X37.065 Y18.295 E0.63778
G1 X37.463 Y18.218 E0.65127
G1 X38.604 Y18.018 E0.6898
G1 X38.973 Y17.96 E0.70222
G1 X40.048 Y17.809 E0.73833
G1 X40.427 Y17.762 E0.75103
G1 X41.568 Y17.642 E0.78919
G1 X41.946 Y17.609 E0.80181
G1 X43.068 Y17.53 E0.83922
G1 X43.458 Y17.51 E0.85221
G1 X44.548 Y17.472 E0.88848
G1 X44.931 Y17.465 E0.90122
G1 X46.102 Y17.465 E0.94017
G1 X46.485 Y17.472 E0.95291
G1 X47.577 Y17.51 E0.98925
G1 X47.962 Y17.53 E1.00208
G1 X49.076 Y17.608 E1.03922
G1 X49.457 Y17.641 E1.05194
G1 X50.628 Y17.764 E1.0911
G1 X51.008 Y17.811 E1.10383
G1 X52.048 Y17.957 E1.13876
G1 X52.43 Y18.017 E1.15163
G1 X53.592 Y18.222 E1.19087
G1 X53.829 Y18.267 E1.19889
G1 X56.539 Y18.806 E1.29079
G1 X59.047 Y19.231 E1.3754
G1 X61.526 Y19.579 E1.45866
G1 X64.018 Y19.856 E1.54205
G1 X66.511 Y20.063 E1.62526
G1 X69.065 Y20.203 E1.71033
G1 X71.553 Y20.268 E1.79311
G1 X74.077 Y20.262 E1.87706
G1 X76.6 Y20.186 E1.96101
G1 X79.115 Y20.038 E2.04481
G1 X81.61 Y19.82 E2.12811
G1 X84.122 Y19.529 E2.21222
G1 X86.593 Y19.173 E2.29525
G1 X89.084 Y18.74 E2.37934
G1 X91.555 Y18.24 E2.46319
G1 X94.006 Y17.67 E2.54689
G1 X96.435 Y17.033 E2.63041
G1 X98.853 Y16.325 E2.71421
G1 X101.245 Y15.549 E2.79785
G1 X103.316 Y14.82 E2.87088
G1 X103.573 Y14.734 E2.87989
G1 X104.614 Y14.396 E2.91629
G1 X104.971 Y14.286 E2.92872
G1 X106.049 Y13.976 E2.96602
G1 X106.439 Y13.872 E2.97945
G1 X107.563 Y13.593 E3.01797
G1 X107.917 Y13.511 E3.03005
G1 X108.957 Y13.289 E3.06542
G1 X109.343 Y13.214 E3.0785
G1 X110.483 Y13.013 E3.117
G1 X110.855 Y12.954 E3.12953
G1 X111.96 Y12.798 E3.16665
G1 X112.355 Y12.75 E3.17988
G1 X113.456 Y12.635 E3.2167
G1 X113.835 Y12.602 E3.22935
G1 X115.027 Y12.519 E3.2691
G1 X115.406 Y12.499 E3.28172
G1 X116.435 Y12.463 E3.31597
G1 X116.82 Y12.456 E3.32877
G1 X118.028 Y12.456 E3.36895
G1 X118.413 Y12.463 E3.38176
G1 X119.442 Y12.499 E3.416
G1 X119.821 Y12.519 E3.42863
G1 X121.013 Y12.602 E3.46837
G1 X121.397 Y12.635 E3.48119
G1 X122.493 Y12.75 E3.51784
G1 X122.877 Y12.797 E3.53071
G1 X123.986 Y12.953 E3.56796
G1 X124.362 Y13.013 E3.58062
G1 X125.52 Y13.217 E3.61973
G1 X125.896 Y13.29 E3.63247
G1 X126.89 Y13.501 E3.66627
G1 X127.27 Y13.588 E3.67923
G1 X128.444 Y13.881 E3.71948
G1 X128.81 Y13.979 E3.73208
G1 X129.871 Y14.283 E3.76879
G1 X130.253 Y14.401 E3.78209
G1 X131.292 Y14.74 E3.81844
G1 X131.642 Y14.86 E3.83074
G1 X133.785 Y15.64 E3.90659
G1 X136.202 Y16.482 E3.99172
G1 X138.581 Y17.236 E4.07473
G1 X141.009 Y17.931 E4.15873
G1 X143.453 Y18.555 E4.24262
G1 X145.971 Y19.125 E4.32849
G1 X148.372 Y19.594 E4.40986
G1 X150.866 Y20.01 E4.49395
G1 X153.345 Y20.352 E4.57718
G1 X155.868 Y20.628 E4.6616
G1 X158.364 Y20.83 E4.74489
G1 X160.88 Y20.962 E4.82869
G1 X163.404 Y21.022 E4.91266
G1 X165.926 Y21.012 E4.99654
G1 X168.415 Y20.931 E5.07937
G1 X170.946 Y20.776 E5.16371
G1 X173.461 Y20.552 E5.24769
G1 X175.953 Y20.258 E5.33115
G1 X178.434 Y19.894 E5.41455
G1 X180.972 Y19.448 E5.50026
G1 X181.605 Y19.322 E5.52173
G1 X181.838 Y19.278 E5.52961
G1 X183.272 Y19.025 E5.57804
G1 X183.655 Y18.965 E5.59094
G1 X184.774 Y18.808 E5.62852
G1 X185.146 Y18.762 E5.64099
G1 X186.225 Y18.648 E5.67707
G1 X186.615 Y18.614 E5.6901
G1 X187.775 Y18.533 E5.72877
G1 X188.158 Y18.513 E5.74153
G1 X189.249 Y18.475 E5.77784
G1 X189.632 Y18.468 E5.79058
G1 X190.792 Y18.468 E5.82916
G1 X191.174 Y18.475 E5.84187
G1 X192.268 Y18.513 E5.87827
G1 X192.653 Y18.533 E5.8911
G1 X193.812 Y18.614 E5.92974
G1 X194.203 Y18.648 E5.94279
G1 X195.28 Y18.762 E5.97881
G1 X195.648 Y18.807 E5.99115
G1 X196.769 Y18.964 E6.02879
G1 X197.164 Y19.027 E6.0421
G1 X198.275 Y19.224 E6.07963
G1 X198.628 Y19.293 E6.09159
G1 X199.712 Y19.522 E6.12844
G1 X200.106 Y19.612 E6.14188
G1 X201.226 Y19.892 E6.18028
G1 X201.583 Y19.988 E6.19257
G1 X202.632 Y20.288 E6.22886
G1 X203.008 Y20.403 E6.24194
G1 X204.1 Y20.758 E6.28013
G1 X204.461 Y20.882 E6.29283
G1 X205.519 Y21.267 E6.33027
G1 X205.872 Y21.403 E6.34286
G1 X206.891 Y21.814 E6.3794
G1 X207.256 Y21.969 E6.39259
G1 X208.319 Y22.443 E6.4313
G1 X208.66 Y22.602 E6.44382
G1 X209.632 Y23.076 E6.47978
G1 X209.971 Y23.248 E6.49243
G1 X210.982 Y23.785 E6.5305
G1 X211.332 Y23.979 E6.54381
G1 X212.31 Y24.545 E6.58139
G1 X212.625 Y24.735 E6.59363
G1 X213.559 Y25.318 E6.63025
G1 X213.884 Y25.529 E6.64314
G1 X214.845 Y26.177 E6.68169
G1 X215.166 Y26.401 E6.69471
G1 X216.028 Y27.028 E6.73016
G1 X216.322 Y27.25 E6.74241
G1 X217.272 Y27.991 E6.78249
G1 X217.581 Y28.241 E6.79571
G1 X218.367 Y28.901 E6.82984
G1 X218.653 Y29.15 E6.84245
G1 X219.535 Y29.944 E6.88193
G1 X219.818 Y30.208 E6.8948
G1 X220.617 Y30.98 E6.93175
G1 X220.885 Y31.248 E6.94436
G1 X221.655 Y32.045 E6.98122
G1 X221.918 Y32.327 E6.99404
G1 X222.714 Y33.211 E7.03361
G1 X222.966 Y33.5 E7.04636
G1 X223.624 Y34.284 E7.0804
G1 X223.87 Y34.588 E7.09341
G1 X224.613 Y35.54 E7.13357
G1 X224.839 Y35.841 E7.14609
G1 X225.464 Y36.701 E7.18145
G1 X225.683 Y37.014 E7.19416
G1 X226.331 Y37.974 E7.23268
G1 X226.542 Y38.298 E7.24554
G1 X227.127 Y39.234 E7.28225
G1 X227.322 Y39.558 E7.29483
G1 X227.888 Y40.537 E7.33244
G1 X228.08 Y40.883 E7.3456
G1 X228.617 Y41.894 E7.38368
G1 X228.789 Y42.233 E7.39632
G1 X229.263 Y43.205 E7.43229
G1 X229.426 Y43.554 E7.4451
G1 X229.899 Y44.617 E7.4838
G1 X230.047 Y44.966 E7.49641
G1 X230.459 Y45.985 E7.53297
G1 X230.596 Y46.34 E7.54562
G1 X230.981 Y47.396 E7.58301
G1 X231.109 Y47.769 E7.59612
G1 X231.464 Y48.863 E7.63438
G1 X231.577 Y49.233 E7.64724
G1 X231.877 Y50.282 E7.68353
G1 X231.973 Y50.639 E7.69583
G1 X232.253 Y51.759 E7.73423
G1 X232.343 Y52.149 E7.74754
G1 X232.572 Y53.231 E7.78432
G1 X232.642 Y53.592 E7.79655
G1 X232.839 Y54.705 E7.83415
G1 X232.9 Y55.094 E7.84724
G1 X233.057 Y56.213 E7.88483
G1 X233.103 Y56.585 E7.89729
G1 X233.217 Y57.664 E7.93338
G1 X233.251 Y58.053 E7.94637
G1 X233.332 Y59.212 E7.98501
G1 X233.352 Y59.597 E7.99783
G1 X233.39 Y60.691 E8.03424
G1 X233.397 Y61.073 E8.04695
G1 X233.397 Y62.232 E8.0855
G1 X233.39 Y62.615 E8.09824
G1 X233.352 Y63.707 E8.13458
G1 X233.332 Y64.09 E8.14734
G1 X233.251 Y65.25 E8.18601
G1 X233.218 Y65.634 E8.19883
G1 X233.107 Y66.69 E8.23415
G1 X233.061 Y67.065 E8.24671
G1 X232.901 Y68.208 E8.2851
G1 X232.839 Y68.597 E8.2982
G1 X232.646 Y69.689 E8.33508
G1 X232.575 Y70.057 E8.34755
G1 X232.333 Y71.198 E8.38634
G1 X232.243 Y71.586 E8.39959
G1 X231.976 Y72.653 E8.43617
G1 X231.881 Y73.009 E8.44843
G1 X231.578 Y74.068 E8.48507
G1 X231.466 Y74.434 E8.4978
G1 X231.111 Y75.529 E8.53608
G1 X230.985 Y75.895 E8.54896
G1 X230.603 Y76.946 E8.58615
G1 X230.463 Y77.311 E8.59915
G1 X230.047 Y78.34 E8.63607
G1 X229.899 Y78.69 E8.64871
G1 X229.429 Y79.746 E8.68715
G1 X229.269 Y80.088 E8.69971
G1 X228.786 Y81.08 E8.73641
G1 X228.608 Y81.429 E8.74944
G1 X228.08 Y82.422 E8.78684
G1 X227.893 Y82.76 E8.79969
G1 X227.346 Y83.707 E8.83607
G1 X227.151 Y84.032 E8.84867
G1 X226.529 Y85.028 E8.88773
G1 X226.319 Y85.351 E8.90054
G1 X225.702 Y86.266 E8.93725
G1 X225.483 Y86.579 E8.94995
G1 X224.844 Y87.459 E8.98612
G1 X224.61 Y87.769 E8.99904
G1 X223.884 Y88.698 E9.03826
G1 X223.637 Y89.004 E9.05134
G1 X222.94 Y89.833 E9.08736
G1 X222.694 Y90.115 E9.09981
G1 X221.907 Y90.989 E9.13892
G1 X221.645 Y91.27 E9.1517
G1 X220.907 Y92.034 E9.18703
G1 X220.638 Y92.303 E9.19969
G1 X219.81 Y93.103 E9.23798
G1 X219.533 Y93.362 E9.25059
G1 X218.679 Y94.132 E9.28884
G1 X218.377 Y94.394 E9.30213
G1 X217.526 Y95.107 E9.33906
G1 X217.236 Y95.342 E9.35148
G1 X216.38 Y96.011 E9.38761
G1 X216.076 Y96.24 E9.40027
G1 X215.126 Y96.931 E9.43934
G1 X214.801 Y97.159 E9.45254
G1 X213.925 Y97.749 E9.48767
G1 X213.614 Y97.95 E9.49999
G1 X212.591 Y98.59 E9.54012
G1 X212.254 Y98.793 E9.55321
G1 X211.318 Y99.333 E9.58915
G1 X210.988 Y99.516 E9.6017
G1 X210.02 Y100.031 E9.63817
G1 X209.684 Y100.202 E9.65071
G1 X208.655 Y100.705 E9.6888
G1 X208.289 Y100.876 E9.70224
G1 X207.251 Y101.337 E9.74002
G1 X206.909 Y101.482 E9.75237
G1 X205.838 Y101.915 E9.79079
G1 X205.473 Y102.055 E9.8038
G1 X204.466 Y102.421 E9.83943
G1 X204.111 Y102.543 E9.85192
G1 X203.032 Y102.894 E9.88966
G1 X202.66 Y103.008 E9.9026
G1 X201.589 Y103.315 E9.93965
G1 X201.219 Y103.414 E9.95239
G1 X200.1 Y103.693 E9.99075
G1 X199.722 Y103.78 E10.00365
G1 X198.638 Y104.01 E10.04051
G1 X198.272 Y104.082 E10.05291
G1 X197.159 Y104.279 E10.09051
G1 X196.77 Y104.34 E10.1036
G1 X195.651 Y104.497 E10.14119
G1 X195.279 Y104.543 E10.15365
G1 X194.2 Y104.657 E10.18974
G1 X193.807 Y104.692 E10.20286
G1 X192.656 Y104.772 E10.24124
G1 X192.276 Y104.791 E10.25389
G1 X191.129 Y104.831 E10.29207
G1 X190.746 Y104.838 E10.30481
G1 X189.678 Y104.838 E10.34033
G1 X189.294 Y104.831 E10.3531
G1 X188.149 Y104.791 E10.39121
G1 X187.772 Y104.772 E10.40376
G1 X186.619 Y104.692 E10.4422
G1 X186.222 Y104.657 E10.45546
G1 X185.145 Y104.543 E10.49148
G1 X184.777 Y104.498 E10.50381
G1 X183.656 Y104.341 E10.54146
G1 X183.266 Y104.279 E10.5546
G1 X182.175 Y104.086 E10.59145
G1 X181.809 Y104.015 E10.60385
G1 X180.668 Y103.773 E10.64264
G1 X180.277 Y103.682 E10.65599
G1 X179.207 Y103.414 E10.69268
G1 X178.854 Y103.32 E10.70483
G1 X177.774 Y103.011 E10.74219
G1 X177.397 Y102.895 E10.75531
G1 X176.318 Y102.544 E10.79305
G1 X175.961 Y102.422 E10.8056
G1 X174.011 Y101.713 E10.87461
G1 X173.879 Y101.673 E10.8792
G1 X172.579 Y101.201 E10.9252
G1 X170.156 Y100.398 E11.0101
G1 X167.742 Y99.672 E11.09394
G1 X165.329 Y99.021 E11.17706
G1 X162.895 Y98.438 E11.26031
G1 X160.388 Y97.911 E11.34552
G1 X157.942 Y97.471 E11.42818
G1 X155.442 Y97.092 E11.51228
G1 X152.957 Y96.786 E11.59555
G1 X150.415 Y96.547 E11.68047
G1 X147.932 Y96.384 E11.76323
G1 X145.448 Y96.292 E11.84591
G1 X142.886 Y96.268 E11.93113
G1 X140.393 Y96.317 E12.01406
G1 X137.85 Y96.437 E12.09873
G1 X135.349 Y96.628 E12.18216
G1 X132.874 Y96.887 E12.26493
G1 X130.357 Y97.222 E12.34938
G1 X127.88 Y97.624 E12.43285
G1 X126.493 Y97.891 E12.47982
G1 X124.366 Y98.266 E12.55166
G1 X123.989 Y98.326 E12.56436
G1 X122.897 Y98.48 E12.60104
G1 X122.509 Y98.528 E12.61404
G1 X121.346 Y98.65 E12.65293
G1 X120.953 Y98.684 E12.66605
G1 X119.863 Y98.759 E12.70239
G1 X119.498 Y98.778 E12.71455
G1 X118.4 Y98.817 E12.75109
G1 X118.01 Y98.824 E12.76406
G1 X116.838 Y98.824 E12.80305
G1 X116.448 Y98.817 E12.81602
G1 X115.35 Y98.778 E12.85256
G1 X114.986 Y98.759 E12.86468
G1 X113.895 Y98.684 E12.90106
G1 X113.504 Y98.65 E12.91411
G1 X112.338 Y98.528 E12.9531
G1 X111.946 Y98.48 E12.96624
G1 X110.855 Y98.326 E13.00289
G1 X110.475 Y98.266 E13.01568
G1 X109.362 Y98.069 E13.05328
G1 X109.133 Y98.026 E13.06102
G1 X106.4 Y97.482 E13.15371
G1 X103.932 Y97.065 E13.23696
G1 X101.406 Y96.709 E13.3218
G1 X98.949 Y96.436 E13.40403
G1 X96.433 Y96.226 E13.488
G1 X93.893 Y96.088 E13.5726
G1 X91.399 Y96.021 E13.65559
G1 X88.875 Y96.027 E13.73953
G1 X86.362 Y96.102 E13.82315
G1 X83.859 Y96.249 E13.90655
G1 X81.33 Y96.469 E13.99098
G1 X78.828 Y96.759 E14.07475
G1 X76.355 Y97.115 E14.15785
G1 X73.882 Y97.544 E14.24134
G1 X71.397 Y98.048 E14.32567
G1 X68.965 Y98.612 E14.4087
G1 X66.523 Y99.252 E14.49267
G1 X64.072 Y99.97 E14.57762
G1 X61.705 Y100.736 E14.66036
G1 X59.634 Y101.465 E14.73339
G1 X59.386 Y101.549 E14.7421
G1 X58.335 Y101.891 E14.77886
G1 X57.967 Y102.004 E14.79166
G1 X56.877 Y102.317 E14.82938
G1 X56.507 Y102.416 E14.84212
G1 X55.446 Y102.681 E14.87849
G1 X55.066 Y102.769 E14.89146
G1 X53.927 Y103.011 E14.93019
G1 X53.554 Y103.083 E14.94283
G1 X52.461 Y103.276 E14.97974
G1 X52.076 Y103.337 E14.99271
G1 X50.985 Y103.49 E15.02935
G1 X50.61 Y103.536 E15.04192
G1 X49.462 Y103.657 E15.08031
G1 X49.072 Y103.692 E15.09333
G1 X47.964 Y103.769 E15.13028
G1 X47.585 Y103.788 E15.1429
G1 X46.441 Y103.828 E15.18097
G1 X46.057 Y103.835 E15.19374
G1 X44.978 Y103.835 E15.22963
G1 X44.594 Y103.828 E15.24241
G1 X43.448 Y103.788 E15.28054
G1 X43.062 Y103.768 E15.2934
G1 X41.95 Y103.69 E15.33048
G1 X41.572 Y103.657 E15.3431
G1 X40.448 Y103.539 E15.38069
G1 X40.065 Y103.492 E15.39352
G1 X38.934 Y103.333 E15.43151
G1 X38.555 Y103.273 E15.44427
G1 X37.472 Y103.082 E15.48085
G1 X37.099 Y103.01 E15.49348
G1 X36.01 Y102.779 E15.53051
G1 X35.627 Y102.69 E15.54359
G1 X34.506 Y102.41 E15.58202
G1 X34.144 Y102.313 E15.59448
G1 X33.072 Y102.006 E15.63157
G1 X32.694 Y101.891 E15.64471
G1 X31.616 Y101.54 E15.68242
G1 X31.26 Y101.417 E15.69495
G1 X30.257 Y101.052 E15.73045
G1 X29.903 Y100.916 E15.74306
G1 X28.805 Y100.473 E15.78244
G1 X28.437 Y100.317 E15.79573
G1 X27.42 Y99.863 E15.83278
G1 X27.085 Y99.706 E15.84508
G1 X26.1 Y99.226 E15.88152
G1 X25.759 Y99.053 E15.89424
G1 X24.748 Y98.516 E15.93232
G1 X24.401 Y98.323 E15.94552
G1 X23.412 Y97.751 E15.98352
G1 X23.089 Y97.557 E15.99606
G1 X22.145 Y96.967 E16.03308
G1 X21.824 Y96.759 E16.0458
G1 X20.927 Y96.154 E16.08179
G1 X20.612 Y95.933 E16.09459
G1 X19.65 Y95.234 E16.13414
G1 X19.344 Y95.003 E16.14689
G1 X18.503 Y94.346 E16.18239
G1 X18.205 Y94.105 E16.19513
G1 X17.336 Y93.376 E16.23286
G1 X17.046 Y93.124 E16.24564
G1 X16.194 Y92.357 E16.28377
G1 X15.909 Y92.091 E16.29673
G1 X15.1 Y91.309 E16.33416
G1 X14.833 Y91.042 E16.34672
G1 X14.071 Y90.253 E16.3832
G1 X13.806 Y89.969 E16.39612
G1 X13.042 Y89.12 E16.4341
G1 X12.798 Y88.839 E16.44648
G1 X12.092 Y87.999 E16.48298
G1 X11.847 Y87.697 E16.49591
G1 X11.12 Y86.767 E16.53517
G1 X10.884 Y86.453 E16.54824
G1 X10.246 Y85.574 E16.58436
G1 X10.028 Y85.263 E16.597
G1 X9.413 Y84.351 E16.63358
G1 X9.203 Y84.028 E16.6464
G1 X8.579 Y83.029 E16.68557
G1 X8.379 Y82.696 E16.69849
G1 X7.833 Y81.749 E16.73485
G1 X7.655 Y81.427 E16.74709
G1 X7.126 Y80.434 E16.78451
G1 X6.946 Y80.081 E16.79769
G1 X6.463 Y79.09 E16.83435
G1 X6.302 Y78.746 E16.84699
G1 X5.834 Y77.695 E16.88525
G1 X5.681 Y77.334 E16.89829
G1 X5.262 Y76.295 E16.93555
G1 X5.128 Y75.945 E16.94802
G1 X4.754 Y74.918 E16.98437
G1 X4.627 Y74.548 E16.99738
G1 X4.265 Y73.432 E17.03641
G1 X4.153 Y73.067 E17.0491
G1 X3.85 Y72.009 E17.08571
G1 X3.751 Y71.636 E17.09854
G1 X3.477 Y70.535 E17.13628
G1 X3.393 Y70.174 E17.14861
G1 X3.162 Y69.091 E17.18544
G1 X3.086 Y68.7 E17.19869
G1 X2.883 Y67.545 E17.23769
G1 X2.824 Y67.174 E17.25019
G1 X2.679 Y66.144 E17.28478
G1 X2.631 Y65.751 E17.29795
G1 X2.508 Y64.571 E17.33741
G1 X2.476 Y64.206 E17.3496
G1 X2.398 Y63.101 E17.38644
G1 X2.378 Y62.709 E17.39949
G1 X2.34 Y61.619 E17.43577
G1 X2.333 Y61.236 E17.44851
G1 X2.333 Y60.063 E17.48752
G1 X2.34 Y59.68 E17.50027
G1 X2.378 Y58.589 E17.53657
G1 X2.398 Y58.199 E17.54956
G1 X2.477 Y57.078 E17.58694
G1 X2.51 Y56.699 E17.59959
G1 X2.63 Y55.559 E17.63772
G1 X2.677 Y55.182 E17.65036
G1 X2.828 Y54.106 E17.68649
G1 X2.887 Y53.73 E17.69915
G1 X3.088 Y52.587 E17.73775
G1 X3.163 Y52.201 E17.75083
G1 X3.39 Y51.135 E17.78708
