;FLAVOR:Marlin
;TIME:8770
;Filament used: 5.229m
;Layer height: 0.2
;MINX:16.756
;MINY:19.582
;MINZ:0.2
;MAXX:200.971
;MAXY:96.772
;MAXZ:14
;Generated with Cura_SteamEngine 4.12.1
M140 S50
M105
M190 S50
M104 S200
M105
M109 S200
M82 ;absolute extrusion mode
; Ender 3 Custom Start G-code
G92 E0 ; Reset Extruder
G28 ; Home all axes
G1 Z2.0 F3000 ; Move Z Axis up little to prevent scratching of Heat Bed
G1 X0.1 Y20 Z0.3 F5000.0 ; Move to start position
G1 X0.1 Y200.0 Z0.3 F1500.0 E15 ; Draw the first line
G1 X0.4 Y200.0 Z0.3 F5000.0 ; Move to side a little
G1 X0.4 Y20 Z0.3 F1500.0 E30 ; Draw the second line
G92 E0 ; Reset Extruder
G1 Z2.0 F3000 ; Move Z Axis up little to prevent scratching of Heat Bed
G1 X5 Y20 Z0.3 F5000.0 ; Move over to prevent blob squish
G92 E0
G92 E0
G1 F2700 E-5
;LAYER_COUNT:70
;LAYER:0
M107
G0 F6000 X22.497 Y30.478 Z0.2
;TYPE:SKIRT
G1 F2700 E0
G1 F1200 X23.271 Y29.947 E0.03122
G1 X23.71 Y29.686 E0.04821
G1 X23.893 Y29.583 E0.05519
G1 X24.133 Y29.452 E0.06428
G1 X24.395 Y29.313 E0.07415
G1 X25.241 Y28.909 E0.10533
G1 X25.93 Y28.643 E0.1299
G1 X26.382 Y28.488 E0.14579
G1 X26.609 Y28.414 E0.15373
G1 X27.512 Y28.161 E0.18492
G1 X28.183 Y28.026 E0.20769
G1 X28.514 Y27.97 E0.21885
G1 X29.34 Y27.862 E0.24656
G1 X29.644 Y27.834 E0.25671
G1 X30.471 Y27.79 E0.28426
G1 X31.619 Y27.772 E0.32244
G1 X90.952 Y27.772 E2.29587
G1 X92.14 Y27.791 E2.33539
G1 X93.09 Y27.848 E2.36704
G1 X94.371 Y27.981 E2.40987
G1 X96.948 Y28.212 E2.49593
G1 X99.446 Y28.365 E2.57917
G1 X101.966 Y28.448 E2.66303
G1 X104.489 Y28.458 E2.74695
G1 X107.014 Y28.399 E2.83095
G1 X109.498 Y28.269 E2.91368
G1 X112.046 Y28.064 E2.9987
G1 X114.534 Y27.792 E3.08195
G1 X117.029 Y27.449 E3.16571
G1 X119.491 Y27.038 E3.24873
G1 X121.995 Y26.548 E3.33359
G1 X124.39 Y26.007 E3.41526
G1 X126.886 Y25.371 E3.50093
G1 X129.304 Y24.68 E3.58457
G1 X131.643 Y23.939 E3.66618
G1 X132.287 Y23.711 E3.6889
G1 X132.647 Y23.6 E3.70143
G1 X133.782 Y23.214 E3.7413
G1 X134.61 Y22.967 E3.77004
G1 X134.708 Y22.942 E3.77341
G1 X135.626 Y22.749 E3.80461
G1 X136.271 Y22.662 E3.82625
G1 X136.536 Y22.634 E3.83512
G1 X136.896 Y22.602 E3.84714
G1 X137.277 Y22.574 E3.85984
G1 X139.915 Y22.345 E3.94791
G1 X142.379 Y22.06 E4.03041
G1 X144.916 Y21.693 E4.11567
G1 X147.341 Y21.273 E4.19753
G1 X149.799 Y20.775 E4.28094
G1 X153.189 Y19.971 E4.39682
G1 X153.513 Y19.899 E4.40786
G1 X154.402 Y19.739 E4.43791
G1 X154.766 Y19.689 E4.45013
G1 X155.903 Y19.593 E4.48808
G1 X156.025 Y19.589 E4.49214
G1 X156.574 Y19.585 E4.5104
G1 X156.924 Y19.591 E4.52204
G1 X158.14 Y19.679 E4.56259
G1 X158.855 Y19.772 E4.58657
G1 X160.862 Y20.048 E4.65395
G1 X163.342 Y20.318 E4.73693
G1 X165.88 Y20.521 E4.82161
G1 X168.38 Y20.652 E4.90487
G1 X170.9 Y20.711 E4.98871
G1 X173.424 Y20.699 E5.07266
G1 X175.948 Y20.616 E5.15666
G1 X178.43 Y20.464 E5.23936
G1 X180.916 Y20.24 E5.32238
G1 X184.539 Y19.792 E5.4438
G1 X184.947 Y19.733 E5.45751
G1 X185.269 Y19.691 E5.46831
G1 X185.602 Y19.653 E5.47946
G1 X186.849 Y19.582 E5.521
G1 X186.996 Y19.582 E5.52589
G1 X187.544 Y19.596 E5.54412
G1 X187.885 Y19.613 E5.55548
G1 X188.819 Y19.699 E5.58668
G1 X189.362 Y19.787 E5.60497
G1 X189.613 Y19.834 E5.61347
G1 X189.979 Y19.909 E5.62589
G1 X190.208 Y19.96 E5.6337
G1 X191.296 Y20.261 E5.67124
G1 X191.419 Y20.302 E5.67555
G1 X192.07 Y20.543 E5.69864
G1 X192.423 Y20.686 E5.71131
G1 X193.277 Y21.075 E5.74252
G1 X193.767 Y21.34 E5.76105
G1 X193.957 Y21.449 E5.76834
G1 X194.263 Y21.631 E5.78018
G1 X194.514 Y21.786 E5.78999
G1 X195.519 Y22.487 E5.83074
G1 X195.727 Y22.65 E5.83953
G1 X196.422 Y23.243 E5.86992
G1 X196.56 Y23.371 E5.87618
G1 X197.388 Y24.227 E5.91579
G1 X197.611 Y24.484 E5.92711
G1 X198.07 Y25.05 E5.95134
G1 X198.242 Y25.277 E5.96082
G1 X198.861 Y26.184 E5.99734
G1 X199.054 Y26.509 E6.00991
G1 X199.212 Y26.785 E6.02049
G1 X199.8 Y27.972 E6.06455
G1 X199.884 Y28.171 E6.07173
G1 X200.08 Y28.669 E6.08953
G1 X200.181 Y28.945 E6.09931
G1 X200.556 Y30.197 E6.14278
G1 X200.603 Y30.396 E6.14958
G1 X200.713 Y30.917 E6.16729
G1 X200.767 Y31.208 E6.17713
G1 X200.927 Y32.473 E6.21954
G1 X200.937 Y32.621 E6.22448
G1 X200.959 Y33.107 E6.24066
G1 X200.967 Y33.451 E6.2521
G1 X200.949 Y34.389 E6.2833
G1 X200.908 Y34.875 E6.29953
G1 X200.889 Y35.053 E6.30548
G1 X200.84 Y35.445 E6.31862
G1 X200.794 Y35.766 E6.32941
G1 X200.722 Y36.208 E6.3443
G1 X200.249 Y38.711 E6.42902
G1 X199.846 Y41.223 E6.51364
G1 X199.52 Y43.706 E6.59694
G1 X199.265 Y46.19 E6.67999
G1 X199.078 Y48.706 E6.7639
G1 X198.962 Y51.262 E6.849
G1 X198.919 Y53.754 E6.9319
G1 X198.945 Y56.24 E7.01459
G1 X199.046 Y58.807 E7.10003
G1 X199.214 Y61.303 E7.18324
G1 X199.453 Y63.782 E7.26607
G1 X199.765 Y66.298 E7.35039
G1 X200.146 Y68.776 E7.43378
G1 X200.727 Y71.957 E7.54133
G1 X200.82 Y72.549 E7.56126
G1 X200.865 Y72.9 E7.57303
G1 X200.908 Y73.298 E7.58635
G1 X200.925 Y73.484 E7.59256
G1 X200.971 Y74.421 E7.62376
G1 X200.962 Y74.941 E7.64106
G1 X200.951 Y75.206 E7.64988
G1 X200.932 Y75.534 E7.66081
G1 X200.915 Y75.772 E7.66875
G1 X200.808 Y76.704 E7.69995
G1 X200.717 Y77.208 E7.71698
G1 X200.676 Y77.407 E7.72374
G1 X200.58 Y77.83 E7.73817
G1 X200.506 Y78.129 E7.74841
G1 X200.242 Y79.029 E7.77961
G1 X200.044 Y79.563 E7.79855
G1 X199.955 Y79.786 E7.80654
G1 X199.833 Y80.082 E7.81718
G1 X199.726 Y80.329 E7.82614
G1 X199.316 Y81.172 E7.85732
G1 X199 Y81.721 E7.87838
G1 X198.856 Y81.955 E7.88752
G1 X198.712 Y82.183 E7.89649
G1 X198.597 Y82.36 E7.90351
G1 X198.053 Y83.124 E7.93471
G1 X197.614 Y83.653 E7.95757
G1 X197.408 Y83.886 E7.96791
G1 X197.133 Y84.186 E7.98145
G1 X196.973 Y84.354 E7.98917
G1 X196.297 Y85.005 E8.02038
G1 X195.915 Y85.328 E8.03702
G1 X195.744 Y85.466 E8.04433
G1 X195.469 Y85.681 E8.05594
G1 X195.256 Y85.842 E8.06482
G1 X194.484 Y86.375 E8.09602
G1 X194.014 Y86.655 E8.11422
G1 X193.765 Y86.795 E8.12372
G1 X193.459 Y86.961 E8.1353
G1 X193.271 Y87.059 E8.14235
G1 X192.549 Y87.403 E8.16895
G1 X191.799 Y87.697 E8.19574
G1 X191.582 Y87.773 E8.20339
G1 X191.325 Y87.859 E8.2124
G1 X191.071 Y87.941 E8.22128
G1 X190.167 Y88.191 E8.25248
G1 X189.537 Y88.317 E8.27384
G1 X189.296 Y88.358 E8.28198
G1 X189.025 Y88.401 E8.2911
G1 X188.776 Y88.437 E8.29947
G1 X187.843 Y88.531 E8.33066
G1 X187.165 Y88.55 E8.35322
G1 X186.866 Y88.549 E8.36316
G1 X186.562 Y88.544 E8.37328
G1 X186.336 Y88.537 E8.3808
G1 X185.401 Y88.468 E8.41198
G1 X184.85 Y88.389 E8.43049
G1 X184.66 Y88.357 E8.4369
G1 X184.32 Y88.294 E8.4484
G1 X183.142 Y88.057 E8.48837
G1 X182.003 Y87.811 E8.52712
G1 X179.561 Y87.355 E8.60975
G1 X177.071 Y86.964 E8.69358
G1 X174.565 Y86.643 E8.77761
G1 X172.039 Y86.39 E8.86205
G1 X169.559 Y86.214 E8.94474
G1 X167.038 Y86.106 E9.02867
G1 X164.39 Y86.068 E9.11675
G1 X148.565 Y86.069 E9.64309
G1 X145.956 Y86.106 E9.72987
G1 X143.434 Y86.213 E9.81383
G1 X140.955 Y86.389 E9.89649
G1 X138.429 Y86.64 E9.98092
G1 X135.947 Y86.958 E10.06415
G1 X133.454 Y87.349 E10.14808
G1 X130.95 Y87.815 E10.23279
G1 X129.663 Y88.09 E10.27656
G1 X128.688 Y88.286 E10.30964
G1 X128.37 Y88.345 E10.3204
G1 X128.118 Y88.388 E10.3289
G1 X127.194 Y88.506 E10.35988
G1 X126.535 Y88.561 E10.38188
G1 X124.939 Y88.674 E10.43509
G1 X122.476 Y88.918 E10.51741
G1 X119.951 Y89.241 E10.60208
G1 X117.504 Y89.625 E10.68446
G1 X114.995 Y90.091 E10.76934
G1 X112.53 Y90.622 E10.85321
G1 X110.131 Y91.208 E10.93534
G1 X107.652 Y91.892 E11.02088
G1 X105.276 Y92.618 E11.10351
G1 X102.875 Y93.428 E11.18779
G1 X100.528 Y94.294 E11.271
G1 X97.525 Y95.521 E11.37889
G1 X97.02 Y95.724 E11.39699
G1 X96.731 Y95.835 E11.40729
G1 X96.401 Y95.957 E11.41899
G1 X95.509 Y96.245 E11.45017
G1 X95.053 Y96.36 E11.46581
G1 X94.84 Y96.409 E11.47308
G1 X94.319 Y96.516 E11.49077
G1 X94.024 Y96.569 E11.50074
G1 X92.804 Y96.718 E11.54162
G1 X92.577 Y96.733 E11.54918
G1 X92.033 Y96.756 E11.56729
G1 X91.119 Y96.771 E11.5977
G1 X62.257 Y96.772 E12.55765
G1 X62.028 Y96.77 E12.56527
G1 X60.781 Y96.744 E12.60675
G1 X59.447 Y96.634 E12.65127
G1 X59.05 Y96.577 E12.66461
G1 X58.696 Y96.521 E12.67653
G1 X57.97 Y96.373 E12.70118
G1 X57.256 Y96.202 E12.7256
G1 X54.665 Y95.626 E12.81388
G1 X52.2 Y95.15 E12.89738
G1 X49.72 Y94.746 E12.98095
G1 X47.254 Y94.414 E13.06371
G1 X44.725 Y94.146 E13.14829
G1 X42.23 Y93.952 E13.23153
G1 X39.706 Y93.828 E13.31558
G1 X36.519 Y93.772 E13.4216
G1 X34.295 Y93.771 E13.49557
G1 X33.589 Y93.761 E13.51905
G1 X33.108 Y93.744 E13.53506
G1 X32.61 Y93.71 E13.55166
G1 X32.272 Y93.679 E13.56295
G1 X31.025 Y93.492 E13.60489
G1 X30.872 Y93.46 E13.61009
G1 X30.368 Y93.342 E13.6273
G1 X30.055 Y93.261 E13.63806
G1 X28.931 Y92.905 E13.67727
G1 X28.801 Y92.856 E13.68189
G1 X28.305 Y92.655 E13.69969
G1 X27.996 Y92.521 E13.7109
G1 X26.878 Y91.958 E13.75253
G1 X26.767 Y91.894 E13.75679
G1 X26.366 Y91.652 E13.77237
G1 X26.095 Y91.48 E13.78304
G1 X25.126 Y90.788 E13.82265
G1 X24.982 Y90.673 E13.82878
G1 X24.536 Y90.297 E13.84818
G1 X24.319 Y90.104 E13.85784
G1 X23.499 Y89.295 E13.89615
G1 X23.396 Y89.182 E13.90124
G1 X23.032 Y88.761 E13.91975
G1 X22.823 Y88.507 E13.93069
G1 X22.094 Y87.513 E13.97169
G1 X22.016 Y87.393 E13.97645
G1 X21.764 Y86.986 E13.99237
G1 X21.603 Y86.713 E14.00291
G1 X21.062 Y85.671 E14.04196
G1 X20.998 Y85.53 E14.04711
G1 X20.777 Y85.008 E14.06596
G1 X20.663 Y84.718 E14.07633
G1 X20.286 Y83.582 E14.11614
G1 X20.246 Y83.435 E14.1212
G1 X20.132 Y82.977 E14.1369
G1 X20.062 Y82.668 E14.14744
G1 X19.855 Y81.434 E14.18906
G1 X19.841 Y81.306 E14.19334
G1 X19.798 Y80.802 E14.21016
G1 X19.776 Y80.453 E14.22179
G1 X19.757 Y80.058 E14.23495
G1 X19.75 Y79.753 E14.24509
G1 X19.744 Y79.176 E14.26429
G1 X19.744 Y66.455 E14.68739
G1 X19.707 Y63.872 E14.77331
G1 X19.6 Y61.35 E14.85726
G1 X19.423 Y58.855 E14.94046
G1 X19.175 Y56.356 E15.02398
G1 X18.857 Y53.867 E15.10744
G1 X18.463 Y51.358 E15.19191
G1 X18.01 Y48.92 E15.27439
G1 X17.164 Y45.125 E15.40371
G1 X17.131 Y44.989 E15.40836
G1 X16.902 Y43.752 E15.45021
G1 X16.865 Y43.461 E15.45996
G1 X16.824 Y43.092 E15.47231
G1 X16.803 Y42.866 E15.47986
G1 X16.756 Y41.929 E15.51106
G1 X16.765 Y41.402 E15.52859
G1 X16.774 Y41.18 E15.53598
G1 X16.791 Y40.863 E15.54654
G1 X16.809 Y40.604 E15.55518
G1 X16.914 Y39.672 E15.58637
G1 X17.027 Y39.062 E15.60701
G1 X17.093 Y38.754 E15.61748
G1 X17.174 Y38.403 E15.62946
G1 X17.227 Y38.19 E15.63676
G1 X17.493 Y37.29 E15.66798
G1 X17.669 Y36.81 E15.68498
G1 X17.74 Y36.63 E15.69142
G1 X17.874 Y36.305 E15.70311
G1 X17.988 Y36.041 E15.71268
G1 X18.396 Y35.197 E15.74385
G1 X18.723 Y34.629 E15.76565
G1 X18.895 Y34.35 E15.77655
G1 X19.09 Y34.046 E15.78857
G1 X19.206 Y33.871 E15.79555
G1 X19.757 Y33.112 E15.82675
G1 X20.128 Y32.668 E15.84599
G1 X20.256 Y32.523 E15.85242
G1 X20.449 Y32.311 E15.86196
G1 X20.649 Y32.096 E15.87172
G1 X21.316 Y31.437 E15.90291
G1 X21.75 Y31.064 E15.92194
G1 X21.967 Y30.887 E15.93126
G1 X22.312 Y30.617 E15.94583
G1 X22.497 Y30.478 E15.95353
G0 F6000 X22.738 Y30.798
G1 F1200 X23.497 Y30.277 E15.98415
G1 X23.906 Y30.035 E15.99995
G1 X24.32 Y29.805 E16.0157
G1 X24.582 Y29.666 E16.02557
G1 X25.413 Y29.27 E16.05619
G1 X26.061 Y29.021 E16.07927
G1 X26.506 Y28.868 E16.09493
G1 X26.733 Y28.794 E16.10287
G1 X27.62 Y28.547 E16.13349
G1 X28.25 Y28.421 E16.15486
G1 X28.581 Y28.365 E16.16602
G1 X29.377 Y28.261 E16.19273
G1 X29.681 Y28.233 E16.20288
G1 X30.477 Y28.189 E16.22939
G1 X31.443 Y28.173 E16.26153
G1 X90.952 Y28.172 E18.24081
G1 X92.133 Y28.191 E18.28009
G1 X93.049 Y28.246 E18.31061
G1 X94.299 Y28.376 E18.35241
G1 X96.924 Y28.611 E18.44007
G1 X99.442 Y28.765 E18.52397
G1 X101.952 Y28.848 E18.6075
G1 X104.497 Y28.858 E18.69215
G1 X107.009 Y28.799 E18.77572
G1 X109.55 Y28.667 E18.86035
G1 X112.085 Y28.463 E18.94494
G1 X114.56 Y28.192 E19.02775
G1 X117.083 Y27.845 E19.11245
G1 X119.596 Y27.426 E19.19719
G1 X122.055 Y26.944 E19.28053
G1 X124.505 Y26.391 E19.36407
G1 X126.981 Y25.76 E19.44905
G1 X129.407 Y25.067 E19.53297
G1 X131.781 Y24.315 E19.6158
G1 X132.421 Y24.088 E19.63838
G1 X132.752 Y23.987 E19.64989
G1 X133.911 Y23.592 E19.69062
G1 X134.709 Y23.355 E19.71831
G1 X134.807 Y23.33 E19.72167
G1 X135.708 Y23.141 E19.75229
G1 X136.313 Y23.06 E19.77259
G1 X136.578 Y23.032 E19.78146
G1 X136.925 Y23.001 E19.79304
G1 X137.342 Y22.971 E19.80695
G1 X139.924 Y22.746 E19.89315
G1 X142.445 Y22.455 E19.97756
G1 X144.97 Y22.089 E20.06242
G1 X147.423 Y21.664 E20.14522
G1 X149.874 Y21.168 E20.22839
G1 X153.276 Y20.361 E20.34468
G1 X153.6 Y20.289 E20.35572
G1 X154.457 Y20.136 E20.38468
G1 X154.821 Y20.086 E20.3969
G1 X155.916 Y19.993 E20.43345
G1 X156.038 Y19.989 E20.43751
G1 X156.567 Y19.985 E20.4551
G1 X156.917 Y19.991 E20.46675
G1 X158.089 Y20.076 E20.50583
G1 X158.801 Y20.168 E20.52971
G1 X160.801 Y20.443 E20.59685
G1 X163.338 Y20.719 E20.68173
G1 X165.828 Y20.919 E20.76482
G1 X168.384 Y21.052 E20.84994
G1 X170.893 Y21.111 E20.93342
G1 X173.439 Y21.099 E21.0181
G1 X175.952 Y21.016 E21.10173
G1 X178.455 Y20.863 E21.18513
G1 X180.974 Y20.636 E21.26925
G1 X184.54 Y20.195 E21.38876
G1 X185.004 Y20.128 E21.40436
G1 X185.314 Y20.088 E21.41475
G1 X185.647 Y20.05 E21.4259
G1 X186.849 Y19.982 E21.46594
G1 X186.996 Y19.982 E21.47083
G1 X187.524 Y19.995 E21.4884
G1 X187.865 Y20.012 E21.49975
G1 X188.781 Y20.098 E21.53035
G1 X189.288 Y20.18 E21.54744
G1 X189.539 Y20.227 E21.55593
G1 X189.892 Y20.299 E21.56791
G1 X190.121 Y20.35 E21.57572
G1 X191.169 Y20.641 E21.61189
G1 X191.292 Y20.682 E21.6162
G1 X191.92 Y20.914 E21.63847
G1 X192.273 Y21.057 E21.65114
G1 X193.11 Y21.439 E21.68174
G1 X193.568 Y21.687 E21.69906
G1 X193.758 Y21.796 E21.70635
G1 X194.052 Y21.971 E21.71773
G1 X194.303 Y22.126 E21.72754
G1 X195.272 Y22.802 E21.76684
G1 X195.48 Y22.965 E21.77562
G1 X196.15 Y23.536 E21.8049
G1 X196.288 Y23.664 E21.81116
G1 X197.086 Y24.489 E21.84934
G1 X197.309 Y24.746 E21.86066
G1 X197.752 Y25.291 E21.88402
G1 X197.924 Y25.518 E21.89349
G1 X198.52 Y26.393 E21.9287
G1 X198.707 Y26.708 E21.94089
G1 X198.865 Y26.984 E21.95146
G1 X199.432 Y28.128 E21.99393
G1 X199.516 Y28.327 E22.00111
G1 X199.704 Y28.806 E22.01823
G1 X199.805 Y29.082 E22.028
G1 X200.167 Y30.289 E22.06992
G1 X200.214 Y30.488 E22.07672
G1 X200.32 Y30.99 E22.09378
G1 X200.374 Y31.281 E22.10363
G1 X200.528 Y32.5 E22.14449
G1 X200.538 Y32.648 E22.14943
G1 X200.559 Y33.117 E22.16504
G1 X200.567 Y33.461 E22.17648
G1 X200.51 Y34.832 E22.22212
G1 X200.491 Y35.01 E22.22808
G1 X200.444 Y35.389 E22.24078
G1 X200.398 Y35.71 E22.25157
G1 X200.328 Y36.14 E22.26606
G1 X199.851 Y38.664 E22.35149
G1 X199.453 Y41.144 E22.43503
G1 X199.125 Y43.646 E22.51896
G1 X198.864 Y46.192 E22.60408
G1 X198.678 Y48.696 E22.6876
G1 X198.562 Y51.236 E22.77217
G1 X198.519 Y53.752 E22.85586
G1 X198.545 Y56.26 E22.93928
G1 X198.645 Y58.814 E23.02429
G1 X198.815 Y61.335 E23.10833
G1 X199.056 Y63.834 E23.19183
G1 X199.371 Y66.372 E23.2769
G1 X199.75 Y68.837 E23.35985
G1 X200.081 Y70.655 E23.42131
G1 X200.334 Y72.03 E23.46781
G1 X200.423 Y72.6 E23.487
G1 X200.468 Y72.951 E23.49877
G1 X200.51 Y73.334 E23.51158
G1 X200.527 Y73.52 E23.51779
G1 X200.571 Y74.44 E23.54843
G1 X200.562 Y74.925 E23.56456
G1 X200.551 Y75.19 E23.57338
G1 X200.533 Y75.505 E23.58388
G1 X200.516 Y75.743 E23.59181
G1 X200.411 Y76.658 E23.62244
G1 X200.325 Y77.127 E23.6383
G1 X200.284 Y77.326 E23.64506
G1 X200.192 Y77.734 E23.65897
G1 X200.118 Y78.033 E23.66922
G1 X199.858 Y78.916 E23.69983
G1 X199.673 Y79.415 E23.71753
G1 X199.584 Y79.638 E23.72552
G1 X199.466 Y79.923 E23.73578
G1 X199.359 Y80.17 E23.74473
G1 X198.956 Y80.998 E23.77536
G1 X198.66 Y81.511 E23.79506
G1 X198.516 Y81.745 E23.8042
G1 X198.377 Y81.965 E23.81285
G1 X198.262 Y82.142 E23.81987
G1 X197.727 Y82.892 E23.85051
G1 X197.314 Y83.388 E23.87198
G1 X197.108 Y83.621 E23.88233
G1 X196.843 Y83.91 E23.89537
G1 X196.683 Y84.078 E23.90308
G1 X196.02 Y84.717 E23.93371
G1 X195.664 Y85.017 E23.94919
G1 X195.493 Y85.155 E23.9565
G1 X195.228 Y85.362 E23.96769
G1 X195.015 Y85.523 E23.97657
G1 X194.257 Y86.046 E24.0072
G1 X193.818 Y86.307 E24.02418
G1 X193.569 Y86.447 E24.03369
G1 X193.274 Y86.607 E24.04485
G1 X193.086 Y86.705 E24.0519
G1 X192.389 Y87.036 E24.07756
G1 X191.667 Y87.319 E24.10335
G1 X191.45 Y87.395 E24.111
G1 X191.203 Y87.478 E24.11967
G1 X190.949 Y87.56 E24.12855
G1 X190.061 Y87.805 E24.15918
