;FLAVOR:Marlin
;TIME:12276
;Filament used: 7.79678m
;Layer height: 0.2
;MINX:16.143
;MINY:24.146
;MINZ:0.2
;MAXX:215.65
;MAXY:97.146
;MAXZ:14
;Generated with Cura_SteamEngine 4.12.1
M140 S50
M105
M190 S50
M104 S200
M105
M109 S200
M82 ;absolute extrusion mode
; Ender 3 Custom Start G-code
G92 E0 ; Reset Extruder
G28 ; Home all axes
G1 Z2.0 F3000 ; Move Z Axis up little to prevent scratching of Heat Bed
G1 X0.1 Y20 Z0.3 F5000.0 ; Move to start position
G1 X0.1 Y200.0 Z0.3 F1500.0 E15 ; Draw the first line
G1 X0.4 Y200.0 Z0.3 F5000.0 ; Move to side a little
G1 X0.4 Y20 Z0.3 F1500.0 E30 ; Draw the second line
G92 E0 ; Reset Extruder
G1 Z2.0 F3000 ; Move Z Axis up little to prevent scratching of Heat Bed
G1 X5 Y20 Z0.3 F5000.0 ; Move over to prevent blob squish
G92 E0
G92 E0
G1 F2700 E-5
;LAYER_COUNT:70
;LAYER:0
M107
G0 F6000 X22.371 Y31.45 Z0.2
;TYPE:SKIRT
G1 F2700 E0
G1 F1200 X22.484 Y31.376 E0.00449
G1 X22.925 Y31.101 E0.02178
G1 X23.205 Y30.936 E0.03259
G1 X24.244 Y30.397 E0.07152
G1 X24.385 Y30.333 E0.07667
G1 X24.907 Y30.112 E0.09552
G1 X25.197 Y29.998 E0.10589
G1 X26.333 Y29.621 E0.1457
G1 X26.48 Y29.581 E0.15076
G1 X26.938 Y29.467 E0.16646
G1 X27.247 Y29.397 E0.177
G1 X28.481 Y29.19 E0.21862
G1 X28.609 Y29.176 E0.2229
G1 X29.113 Y29.133 E0.23972
G1 X29.462 Y29.111 E0.25135
G1 X29.857 Y29.092 E0.26451
G1 X30.162 Y29.085 E0.27465
G1 X30.739 Y29.079 E0.29385
G1 X88.592 Y29.08 E2.21804
G1 X89.298 Y29.09 E2.24153
G1 X89.616 Y29.099 E2.25211
G1 X89.755 Y29.105 E2.25674
G1 X90.307 Y29.143 E2.27514
G1 X90.638 Y29.174 E2.2862
G1 X90.936 Y29.206 E2.29616
G1 X91.73 Y29.302 E2.32277
G1 X94.31 Y29.579 E2.40907
G1 X96.82 Y29.777 E2.49281
G1 X99.338 Y29.904 E2.57667
G1 X101.832 Y29.959 E2.65964
G1 X104.357 Y29.943 E2.74362
G1 X106.906 Y29.856 E2.82845
G1 X109.369 Y29.7 E2.91054
G1 X111.904 Y29.469 E2.9952
G1 X114.426 Y29.166 E3.07968
G1 X116.887 Y28.8 E3.16244
G1 X119.365 Y28.36 E3.24615
G1 X121.824 Y27.85 E3.32967
G1 X124.264 Y27.274 E3.41306
G1 X126.715 Y26.62 E3.49743
G1 X129.135 Y25.9 E3.58141
G1 X131.142 Y25.247 E3.65161
G1 X132.296 Y24.857 E3.69212
G1 X133.313 Y24.567 E3.72729
G1 X133.514 Y24.52 E3.73416
G1 X134.008 Y24.416 E3.75095
G1 X134.293 Y24.363 E3.76059
G1 X135.497 Y24.208 E3.80097
G1 X135.99 Y24.175 E3.8174
G1 X136.449 Y24.159 E3.83268
G1 X137.415 Y24.146 E3.86481
G1 X168.15 Y24.146 E4.88706
G1 X168.376 Y24.148 E4.89458
G1 X169.642 Y24.174 E4.93669
G1 X170.993 Y24.286 E4.98178
G1 X171.345 Y24.337 E4.99361
G1 X171.736 Y24.4 E5.00678
G1 X171.846 Y24.42 E5.0105
G1 X172.391 Y24.534 E5.02902
G1 X173.386 Y24.768 E5.06302
G1 X175.923 Y25.326 E5.14942
G1 X178.42 Y25.801 E5.23396
G1 X180.877 Y26.198 E5.31674
G1 X183.378 Y26.529 E5.40064
G1 X185.899 Y26.792 E5.48495
G1 X188.394 Y26.979 E5.56817
G1 X190.882 Y27.095 E5.65101
G1 X193.945 Y27.146 E5.7529
G1 X198.112 Y27.147 E5.89149
G1 X198.818 Y27.157 E5.91498
G1 X199.299 Y27.174 E5.93098
G1 X199.788 Y27.207 E5.94728
G1 X200.129 Y27.238 E5.95867
G1 X201.403 Y27.43 E6.00153
G1 X201.55 Y27.461 E6.00652
G1 X202.043 Y27.577 E6.02337
G1 X202.359 Y27.659 E6.03423
G1 X203.476 Y28.013 E6.0732
G1 X203.606 Y28.062 E6.07782
G1 X204.099 Y28.261 E6.0955
G1 X204.406 Y28.394 E6.10663
G1 X205.518 Y28.953 E6.14802
G1 X205.631 Y29.018 E6.15236
G1 X206.054 Y29.274 E6.16881
G1 X206.321 Y29.444 E6.17933
G1 X207.292 Y30.139 E6.21905
G1 X207.438 Y30.256 E6.22527
G1 X207.811 Y30.569 E6.24147
G1 X208.022 Y30.754 E6.2508
G1 X208.884 Y31.598 E6.29093
G1 X208.992 Y31.716 E6.29625
G1 X209.364 Y32.143 E6.31508
G1 X209.576 Y32.4 E6.32616
G1 X210.292 Y33.374 E6.36637
G1 X210.366 Y33.487 E6.37086
G1 X210.641 Y33.928 E6.38815
G1 X210.806 Y34.208 E6.39896
G1 X211.351 Y35.258 E6.4383
G1 X211.413 Y35.395 E6.44331
G1 X211.614 Y35.869 E6.46043
G1 X211.73 Y36.161 E6.47088
G1 X212.132 Y37.373 E6.51335
G1 X212.169 Y37.511 E6.5181
G1 X212.269 Y37.916 E6.53198
G1 X212.341 Y38.232 E6.54276
G1 X212.552 Y39.489 E6.58515
G1 X212.566 Y39.618 E6.58947
G1 X212.606 Y40.086 E6.60509
G1 X212.629 Y40.437 E6.61679
G1 X212.65 Y40.863 E6.63097
G1 X212.657 Y41.158 E6.64079
G1 X212.663 Y41.717 E6.65938
G1 X212.663 Y58.4 E7.21426
G1 X212.7 Y61.008 E7.30101
G1 X212.807 Y63.529 E7.38494
G1 X212.984 Y66.024 E7.46813
G1 X213.232 Y68.524 E7.55169
G1 X213.551 Y71.017 E7.63528
G1 X213.942 Y73.51 E7.71921
G1 X214.405 Y76 E7.80345
G1 X214.935 Y78.461 E7.88718
G1 X215.015 Y78.789 E7.89841
G1 X215.3 Y80.02 E7.94043
G1 X215.449 Y80.789 E7.96649
G1 X215.475 Y80.954 E7.97204
G1 X215.535 Y81.39 E7.98668
G1 X215.576 Y81.741 E7.99843
G1 X215.65 Y83.097 E8.0436
G1 X215.649 Y83.235 E8.04819
G1 X215.636 Y83.7 E8.06366
G1 X215.619 Y84.043 E8.07509
G1 X215.532 Y84.976 E8.10625
G1 X215.445 Y85.52 E8.12458
G1 X215.399 Y85.766 E8.1329
G1 X215.322 Y86.14 E8.1456
G1 X215.268 Y86.382 E8.15385
G1 X214.913 Y87.623 E8.19678
G1 X214.858 Y87.78 E8.20231
G1 X214.679 Y88.257 E8.21926
G1 X214.554 Y88.567 E8.23037
G1 X214.006 Y89.725 E8.27298
G1 X213.929 Y89.866 E8.27833
G1 X213.656 Y90.338 E8.29646
G1 X213.487 Y90.614 E8.30723
G1 X212.964 Y91.392 E8.33841
G1 X212.625 Y91.829 E8.3568
G1 X212.46 Y92.031 E8.36548
G1 X212.222 Y92.312 E8.37773
G1 X212.055 Y92.503 E8.38616
G1 X211.182 Y93.394 E8.42765
G1 X211.092 Y93.476 E8.4317
G1 X210.689 Y93.826 E8.44946
G1 X210.396 Y94.068 E8.46209
G1 X209.648 Y94.634 E8.49329
G1 X209.097 Y94.991 E8.51513
G1 X208.687 Y95.236 E8.53102
G1 X208.443 Y95.376 E8.54037
G1 X207.302 Y95.946 E8.58279
G1 X207.169 Y96.003 E8.58761
G1 X206.671 Y96.202 E8.60544
G1 X206.343 Y96.324 E8.61708
G1 X205.116 Y96.7 E8.65977
G1 X204.948 Y96.741 E8.66552
G1 X204.413 Y96.858 E8.68373
G1 X204.142 Y96.91 E8.69291
G1 X202.95 Y97.072 E8.73292
G1 X202.639 Y97.097 E8.7433
G1 X201.94 Y97.13 E8.76657
G1 X200.911 Y97.146 E8.8008
G1 X137.218 Y97.145 E10.91924
G1 X136.567 Y97.136 E10.94089
G1 X136.25 Y97.127 E10.95144
G1 X135.969 Y97.115 E10.9608
G1 X135.504 Y97.086 E10.97629
G1 X134.274 Y96.923 E11.01756
G1 X133.917 Y96.855 E11.02965
G1 X133.574 Y96.784 E11.0413
G1 X133.422 Y96.75 E11.04648
G1 X132.548 Y96.516 E11.07657
G1 X131.369 Y96.147 E11.11766
G1 X130.899 Y95.993 E11.13411
G1 X128.472 Y95.272 E11.21832
G1 X126.066 Y94.632 E11.30113
G1 X123.563 Y94.039 E11.38668
G1 X121.142 Y93.542 E11.46888
G1 X118.638 Y93.098 E11.55347
G1 X116.194 Y92.736 E11.63564
G1 X113.654 Y92.433 E11.72072
G1 X111.16 Y92.206 E11.80401
G1 X108.644 Y92.05 E11.88786
G1 X106.13 Y91.965 E11.97152
G1 X103.6 Y91.951 E12.05567
G1 X101.112 Y92.007 E12.13844
G1 X98.558 Y92.137 E12.2235
G1 X96.111 Y92.332 E12.30514
G1 X92.294 Y92.769 E12.43293
G1 X91.439 Y92.885 E12.46163
G1 X91.06 Y92.93 E12.47432
G1 X90.203 Y93.016 E12.50297
G1 X89.487 Y93.064 E12.52683
G1 X89.103 Y93.074 E12.53961
G1 X88.602 Y93.079 E12.55627
G1 X30.694 Y93.078 E14.4823
G1 X29.989 Y93.068 E14.50575
G1 X29.511 Y93.051 E14.52166
G1 X29.022 Y93.018 E14.53796
G1 X28.779 Y92.996 E14.54608
G1 X27.433 Y92.79 E14.59137
G1 X26.872 Y92.668 E14.61046
G1 X25.965 Y92.43 E14.64165
G1 X25.348 Y92.219 E14.66334
G1 X25.22 Y92.171 E14.66789
G1 X24.724 Y91.971 E14.68567
G1 X24.425 Y91.842 E14.6965
G1 X23.301 Y91.279 E14.73832
G1 X23.174 Y91.206 E14.74319
G1 X22.697 Y90.915 E14.76177
G1 X22.517 Y90.799 E14.7689
G1 X21.548 Y90.097 E14.80869
G1 X21.088 Y89.724 E14.82839
G1 X20.385 Y89.103 E14.85959
G1 X19.877 Y88.579 E14.88386
G1 X19.787 Y88.48 E14.88831
G1 X19.424 Y88.061 E14.90675
G1 X19.213 Y87.804 E14.91781
G1 X18.518 Y86.859 E14.95683
G1 X18.455 Y86.763 E14.96065
G1 X18.191 Y86.34 E14.97723
G1 X18.016 Y86.045 E14.98864
G1 X17.411 Y84.87 E15.0326
G1 X17.344 Y84.718 E15.03812
G1 X17.184 Y84.335 E15.05193
G1 X17.073 Y84.055 E15.06194
G1 X16.69 Y82.908 E15.10216
G1 X16.65 Y82.762 E15.1072
G1 X16.534 Y82.297 E15.12314
G1 X16.465 Y81.994 E15.13347
G1 X16.255 Y80.75 E15.17544
G1 X16.239 Y80.604 E15.18032
G1 X16.196 Y80.096 E15.19728
G1 X16.162 Y79.524 E15.21634
G1 X16.156 Y79.378 E15.2212
G1 X16.148 Y79.039 E15.23247
G1 X16.143 Y78.537 E15.24917
G1 X16.144 Y43.63 E16.41018
G1 X16.154 Y42.923 E16.4337
G1 X16.165 Y42.564 E16.44565
G1 X16.171 Y42.436 E16.44991
G1 X16.204 Y41.952 E16.46604
G1 X16.235 Y41.612 E16.4774
G1 X16.429 Y40.328 E16.52059
G1 X16.464 Y40.163 E16.5262
G1 X16.579 Y39.678 E16.54278
G1 X16.657 Y39.378 E16.55309
G1 X17.01 Y38.266 E16.59189
G1 X17.059 Y38.136 E16.59651
G1 X17.258 Y37.643 E16.6142
G1 X17.391 Y37.336 E16.62532
G1 X17.95 Y36.224 E16.66672
G1 X18.015 Y36.111 E16.67105
G1 X18.271 Y35.688 E16.6875
G1 X18.441 Y35.421 E16.69803
G1 X19.136 Y34.45 E16.73774
G1 X19.253 Y34.304 E16.74397
G1 X19.595 Y33.898 E16.76162
G1 X19.793 Y33.674 E16.77157
G1 X20.661 Y32.797 E16.81261
G1 X20.775 Y32.694 E16.81772
G1 X21.161 Y32.361 E16.83467
G1 X21.409 Y32.157 E16.84535
G1 X22.371 Y31.45 E16.88506
G0 F6000 X22.59 Y31.784
G1 F1200 X22.703 Y31.71 E16.88955
G1 X23.128 Y31.446 E16.90619
G1 X23.408 Y31.281 E16.917
G1 X24.409 Y30.761 E16.95452
G1 X24.55 Y30.697 E16.95967
G1 X25.053 Y30.484 E16.97784
G1 X25.343 Y30.37 E16.9882
G1 X26.438 Y30.007 E17.02657
G1 X26.585 Y29.967 E17.03164
G1 X27.026 Y29.857 E17.04676
G1 X27.335 Y29.787 E17.05729
G1 X28.524 Y29.588 E17.09739
G1 X28.652 Y29.574 E17.10167
G1 X29.138 Y29.532 E17.1179
G1 X29.487 Y29.51 E17.12953
G1 X29.872 Y29.492 E17.14235
G1 X30.167 Y29.485 E17.15216
G1 X30.739 Y29.479 E17.17119
G1 X88.586 Y29.48 E19.09519
G1 X89.292 Y29.49 E19.11867
G1 X89.738 Y29.505 E19.13351
G1 X90.269 Y29.541 E19.15121
G1 X90.6 Y29.572 E19.16227
G1 X90.888 Y29.603 E19.17191
G1 X91.715 Y29.703 E19.19961
G1 X94.269 Y29.978 E19.28505
G1 X96.769 Y30.174 E19.36846
G1 X99.345 Y30.304 E19.45424
G1 X101.826 Y30.359 E19.53678
G1 X104.373 Y30.343 E19.6215
G1 X106.909 Y30.256 E19.70589
G1 X109.43 Y30.097 E19.78991
G1 X111.951 Y29.867 E19.87411
G1 X114.43 Y29.569 E19.95715
G1 X116.979 Y29.19 E20.04286
G1 X119.445 Y28.752 E20.12617
G1 X121.926 Y28.238 E20.21044
G1 X124.354 Y27.665 E20.29341
G1 X126.827 Y27.005 E20.37854
G1 X129.258 Y26.281 E20.46291
G1 X131.215 Y25.645 E20.53135
G1 X132.424 Y25.236 E20.5738
G1 X133.404 Y24.956 E20.6077
G1 X133.605 Y24.909 E20.61456
G1 X134.081 Y24.81 E20.63073
G1 X134.366 Y24.757 E20.64038
G1 X135.527 Y24.607 E20.67931
G1 X135.731 Y24.592 E20.68612
G1 X136.115 Y24.57 E20.69891
G1 X136.455 Y24.559 E20.71022
G1 X137.415 Y24.546 E20.74216
G1 X168.15 Y24.546 E21.76441
G1 X168.368 Y24.548 E21.77166
G1 X169.634 Y24.574 E21.81377
G1 X170.936 Y24.682 E21.85723
G1 X171.288 Y24.733 E21.86906
G1 X171.664 Y24.794 E21.88173
G1 X171.774 Y24.814 E21.88544
G1 X172.3 Y24.923 E21.90331
G1 X173.357 Y25.171 E21.93942
G1 X175.834 Y25.716 E22.02378
G1 X178.353 Y26.196 E22.10907
G1 X180.832 Y26.596 E22.19259
G1 X183.32 Y26.925 E22.27606
G1 X185.861 Y27.19 E22.36103
G1 X188.379 Y27.379 E22.44501
G1 X190.858 Y27.495 E22.52756
G1 X193.939 Y27.546 E22.63004
G1 X198.106 Y27.547 E22.76864
G1 X198.812 Y27.557 E22.79212
G1 X199.151 Y27.567 E22.8034
G1 X199.281 Y27.573 E22.80773
G1 X199.752 Y27.606 E22.82344
G1 X200.093 Y27.637 E22.83482
G1 X201.32 Y27.821 E22.87609
G1 X201.467 Y27.852 E22.88109
G1 X201.942 Y27.964 E22.89732
G1 X202.258 Y28.046 E22.90818
G1 X203.335 Y28.387 E22.94575
G1 X203.465 Y28.436 E22.95037
G1 X203.94 Y28.629 E22.96743
G1 X204.247 Y28.762 E22.97855
G1 X205.318 Y29.3 E23.01842
G1 X205.431 Y29.365 E23.02275
G1 X205.839 Y29.612 E23.03862
G1 X206.106 Y29.782 E23.04914
G1 X207.042 Y30.451 E23.08741
G1 X207.188 Y30.568 E23.09363
G1 X207.547 Y30.87 E23.10924
G1 X207.758 Y31.055 E23.11857
G1 X208.589 Y31.868 E23.15724
G1 X208.697 Y31.986 E23.16256
G1 X209.055 Y32.398 E23.18071
G1 X209.267 Y32.655 E23.19179
G1 X209.958 Y33.593 E23.23054
G1 X210.032 Y33.706 E23.23503
G1 X210.296 Y34.131 E23.25167
G1 X210.461 Y34.411 E23.26248
G1 X210.986 Y35.423 E23.3004
G1 X211.048 Y35.56 E23.3054
G1 X211.242 Y36.017 E23.32192
G1 X211.358 Y36.309 E23.33237
G1 X211.745 Y37.477 E23.37329
G1 X211.782 Y37.615 E23.37804
G1 X211.879 Y38.005 E23.39141
G1 X211.951 Y38.321 E23.40219
G1 X212.154 Y39.532 E23.44303
G1 X212.168 Y39.661 E23.44734
G1 X212.207 Y40.112 E23.4624
G1 X212.23 Y40.463 E23.4741
G1 X212.25 Y40.879 E23.48795
G1 X212.257 Y41.163 E23.4974
G1 X212.263 Y41.717 E23.51583
G1 X212.263 Y58.406 E24.07091
G1 X212.3 Y61.031 E24.15822
G1 X212.407 Y63.539 E24.24172
G1 X212.585 Y66.059 E24.32574
G1 X212.834 Y68.574 E24.4098
G1 X213.153 Y71.063 E24.49326
G1 X213.554 Y73.615 E24.57918
G1 X214.006 Y76.046 E24.66142
G1 X214.542 Y78.537 E24.74617
G1 X214.625 Y78.879 E24.75787
G1 X214.91 Y80.11 E24.7999
G1 X215.054 Y80.851 E24.82501
G1 X215.08 Y81.016 E24.83056
G1 X215.137 Y81.436 E24.84466
G1 X215.178 Y81.787 E24.85641
G1 X215.25 Y83.094 E24.89995
G1 X215.249 Y83.232 E24.90454
G1 X215.236 Y83.68 E24.91945
G1 X215.219 Y84.023 E24.93087
G1 X215.134 Y84.939 E24.96147
G1 X215.051 Y85.446 E24.97856
G1 X215.005 Y85.692 E24.98688
G1 X214.932 Y86.053 E24.99913
G1 X214.878 Y86.295 E25.00738
G1 X214.536 Y87.491 E25.04875
G1 X214.481 Y87.648 E25.05428
G1 X214.308 Y88.107 E25.0706
G1 X214.183 Y88.417 E25.08171
G1 X213.655 Y89.533 E25.12278
G1 X213.578 Y89.674 E25.12812
G1 X213.315 Y90.129 E25.1456
G1 X213.146 Y90.405 E25.15636
G1 X212.632 Y91.169 E25.18699
G1 X212.315 Y91.576 E25.20415
G1 X212.15 Y91.778 E25.21282
G1 X211.921 Y92.049 E25.22462
G1 X211.754 Y92.24 E25.23306
G1 X210.913 Y93.098 E25.27302
G1 X210.823 Y93.18 E25.27707
G1 X210.434 Y93.518 E25.29421
G1 X210.141 Y93.76 E25.30685
G1 X209.407 Y94.315 E25.33746
G1 X208.89 Y94.649 E25.35793
G1 X208.712 Y94.757 E25.36485
G1 X208.488 Y94.889 E25.3735
G1 X208.244 Y95.029 E25.38286
G1 X207.145 Y95.578 E25.42372
G1 X207.012 Y95.635 E25.42853
G1 X206.531 Y95.827 E25.44576
G1 X206.203 Y95.949 E25.4574
G1 X205.021 Y96.312 E25.49852
G1 X204.853 Y96.353 E25.50427
G1 X204.338 Y96.465 E25.5218
G1 X204.067 Y96.517 E25.53098
G1 X202.918 Y96.673 E25.56955
G1 X202.607 Y96.698 E25.57993
G1 X201.933 Y96.731 E25.60237
G1 X201.086 Y96.745 E25.63054
G1 X137.37 Y96.746 E27.74975
G1 X136.572 Y96.736 E27.77629
G1 X136.267 Y96.727 E27.78644
G1 X135.986 Y96.715 E27.79579
G1 X135.64 Y96.695 E27.80732
G1 X135.534 Y96.687 E27.81086
G1 X134.349 Y96.53 E27.85061
G1 X133.992 Y96.462 E27.8627
G1 X133.661 Y96.393 E27.87395
G1 X133.509 Y96.359 E27.87913
G1 X132.667 Y96.134 E27.90812
G1 X131.493 Y95.767 E27.94903
G1 X130.99 Y95.602 E27.96663
G1 X128.616 Y94.897 E28.049
G1 X126.121 Y94.233 E28.13487
G1 X123.669 Y93.652 E28.21869
G1 X121.214 Y93.148 E28.30204
G1 X118.73 Y92.708 E28.38595
G1 X116.194 Y92.332 E28.47122
G1 X113.706 Y92.036 E28.55455
G1 X111.185 Y91.806 E28.63875
G1 X108.682 Y91.65 E28.72216
G1 X106.147 Y91.565 E28.80652
G1 X103.593 Y91.551 E28.89147
G1 X101.084 Y91.608 E28.97494
G1 X98.575 Y91.735 E29.0585
G1 X96.061 Y91.935 E29.14238
G1 X92.244 Y92.373 E29.27016
G1 X91.385 Y92.489 E29.29899
G1 X91.02 Y92.532 E29.31122
G1 X90.163 Y92.618 E29.33987
G1 X89.473 Y92.665 E29.36287
G1 X89.099 Y92.674 E29.37531
G1 X88.602 Y92.679 E29.39184
G1 X30.7 Y92.678 E31.31767
G1 X29.995 Y92.668 E31.34112
G1 X29.66 Y92.658 E31.35227
G1 X29.529 Y92.652 E31.35663
G1 X29.058 Y92.62 E31.37233
G1 X28.815 Y92.598 E31.38045
G1 X27.518 Y92.399 E31.42409
G1 X26.957 Y92.277 E31.44318
G1 X26.067 Y92.042 E31.4738
G1 X25.488 Y91.844 E31.49415
G1 X25.36 Y91.796 E31.4987
G1 X24.883 Y91.604 E31.5158
G1 X24.584 Y91.475 E31.52663
G1 X23.501 Y90.932 E31.56693
G1 X23.374 Y90.859 E31.5718
G1 X22.914 Y90.579 E31.58971
G1 X22.734 Y90.463 E31.59683
G1 X21.8 Y89.786 E31.6352
G1 X21.34 Y89.413 E31.6549
G1 X20.651 Y88.803 E31.68551
G1 X20.173 Y88.31 E31.70834
G1 X20.083 Y88.211 E31.71279
G1 X19.733 Y87.807 E31.73057
G1 X19.522 Y87.55 E31.74163
G1 X18.853 Y86.64 E31.7792
G1 X18.79 Y86.544 E31.78302
G1 X18.535 Y86.136 E31.79902
G1 X18.36 Y85.841 E31.81043
G1 X17.777 Y84.708 E31.85281
G1 X17.71 Y84.556 E31.85833
G1 X17.556 Y84.187 E31.87163
G1 X17.445 Y83.907 E31.88165
G1 X17.076 Y82.802 E31.9204
G1 X17.036 Y82.656 E31.92543
G1 X16.924 Y82.209 E31.94076
G1 X16.855 Y81.906 E31.95109
G1 X16.653 Y80.707 E31.99154
G1 X16.637 Y80.561 E31.99642
G1 X16.595 Y80.071 E32.01278
G1 X16.574 Y79.737 E32.02391
G1 X16.556 Y79.361 E32.03643
G1 X16.548 Y79.035 E32.04728
G1 X16.543 Y78.537 E32.06384
G1 X16.544 Y43.636 E33.22465
G1 X16.554 Y42.929 E33.24817
