;FLAVOR:Marlin
;TIME:12247
;Filament used: 9.61792m
;Layer height: 0.2
;MINX:9.661
;MINY:18.709
;MINZ:0.2
;MAXX:215.15
;MAXY:154.424
;MAXZ:3
;Generated with Cura_SteamEngine 4.12.1
M140 S60
M105
M190 S60
M104 S200
M105
M109 S200
M82 ;absolute extrusion mode
; Ender 3 Custom Start G-code
G92 E0 ; Reset Extruder
G28 ; Home all axes
G1 Z2.0 F3000 ; Move Z Axis up little to prevent scratching of Heat Bed
G1 X0.1 Y20 Z0.3 F5000.0 ; Move to start position
G1 X0.1 Y200.0 Z0.3 F1500.0 E15 ; Draw the first line
G1 X0.4 Y200.0 Z0.3 F5000.0 ; Move to side a little
G1 X0.4 Y20 Z0.3 F1500.0 E30 ; Draw the second line
G92 E0 ; Reset Extruder
G1 Z2.0 F3000 ; Move Z Axis up little to prevent scratching of Heat Bed
G1 X5 Y20 Z0.3 F5000.0 ; Move over to prevent blob squish
G92 E0
G92 E0
G1 F2700 E-5
;LAYER_COUNT:15
;LAYER:0
M107
;MESH:Avionics-Bulkhead.STL(1)
G0 F6000 X41.565 Y58.514 Z0.2
;TYPE:WALL-INNER
G1 F2700 E0
G1 F1200 X41.933 Y58.254 E0.01499
G1 X42.254 Y57.934 E0.03006
G1 X42.513 Y57.564 E0.04508
G1 X42.674 Y57.234 E0.0573
G1 X42.786 Y56.888 E0.06939
G1 X42.855 Y56.444 E0.08434
G1 X42.848 Y55.995 E0.09927
G1 X42.786 Y55.631 E0.11155
G1 X42.638 Y55.205 E0.12655
G1 X42.464 Y54.879 E0.13884
G1 X42.196 Y54.524 E0.15364
G1 X41.929 Y54.268 E0.16594
G1 X41.637 Y54.055 E0.17796
G1 X41.315 Y53.884 E0.19009
G1 X40.977 Y53.762 E0.20204
G1 X40.623 Y53.687 E0.21408
G1 X40.255 Y53.661 E0.22635
G1 X39.809 Y53.701 E0.24124
G1 X39.375 Y53.817 E0.25618
G1 X39.038 Y53.966 E0.26844
G1 X38.728 Y54.159 E0.28058
G1 X38.454 Y54.393 E0.29257
G1 X38.21 Y54.664 E0.30469
G1 X38.008 Y54.963 E0.3167
G1 X37.848 Y55.29 E0.3288
G1 X37.736 Y55.638 E0.34096
G1 X37.667 Y56.081 E0.35588
G1 X37.674 Y56.529 E0.37078
G1 X37.736 Y56.894 E0.38309
G1 X37.883 Y57.318 E0.39802
G1 X38.103 Y57.717 E0.41317
G1 X38.331 Y58.007 E0.42544
G1 X38.658 Y58.31 E0.44027
G1 X38.962 Y58.515 E0.45246
G1 X39.29 Y58.676 E0.46462
G1 X39.631 Y58.786 E0.47653
G1 X39.99 Y58.849 E0.48866
G1 X40.441 Y58.859 E0.50366
G1 X40.806 Y58.807 E0.51592
G1 X41.156 Y58.704 E0.52806
G1 X41.565 Y58.514 E0.54306
G0 F6000 X41.364 Y58.166
;TYPE:WALL-OUTER
G1 F1200 X41.675 Y57.947 E0.55571
G1 X41.946 Y57.676 E0.56846
G1 X42.167 Y57.36 E0.58128
G1 X42.302 Y57.084 E0.5915
G1 X42.396 Y56.795 E0.60161
G1 X42.455 Y56.416 E0.61437
G1 X42.449 Y56.032 E0.62714
G1 X42.397 Y55.731 E0.6373
G1 X42.27 Y55.366 E0.65015
G1 X42.126 Y55.095 E0.66036
G1 X41.896 Y54.79 E0.67306
G1 X41.672 Y54.575 E0.68339
G1 X41.425 Y54.395 E0.69356
G1 X41.153 Y54.251 E0.70379
G1 X40.867 Y54.148 E0.7139
G1 X40.567 Y54.084 E0.72411
G1 X40.259 Y54.062 E0.73438
G1 X39.879 Y54.096 E0.74707
G1 X39.508 Y54.195 E0.75984
G1 X39.226 Y54.32 E0.7701
G1 X38.965 Y54.483 E0.78033
G1 X38.734 Y54.68 E0.79043
G1 X38.526 Y54.911 E0.80077
G1 X38.355 Y55.164 E0.81092
G1 X38.22 Y55.44 E0.82114
G1 X38.126 Y55.731 E0.83131
G1 X38.067 Y56.109 E0.84404
G1 X38.073 Y56.492 E0.85678
G1 X38.125 Y56.794 E0.86697
G1 X38.25 Y57.155 E0.87968
G1 X38.438 Y57.495 E0.8926
G1 X38.626 Y57.735 E0.90274
G1 X38.907 Y57.996 E0.9155
G1 X39.163 Y58.168 E0.92575
G1 X39.44 Y58.304 E0.93602
G1 X39.728 Y58.397 E0.94608
G1 X40.029 Y58.45 E0.95625
G1 X40.417 Y58.458 E0.96916
G1 X40.721 Y58.415 E0.97937
G1 X41.014 Y58.329 E0.98952
G1 X41.364 Y58.166 E1.00237
G0 F6000 X41.584 Y58.546
G1 F2700 E-3.99763
G0 F6000 X41.223 Y58.883
G0 X40.705 Y57.519
G0 X52.389 Y85.291
G0 X51.814 Y83.935
G0 X52.549 Y83.851
;TYPE:WALL-INNER
G1 F2700 E1.00237
G1 F1200 X51.571 Y84.265 E1.03769
G1 X50.593 Y84.64 E1.07253
G1 X49.597 Y84.983 E1.10756
G1 X48.582 Y85.294 E1.14287
G1 X47.577 Y85.562 E1.17747
G1 X46.538 Y85.802 E1.21293
G1 X45.5 Y86.003 E1.2481
G1 X44.466 Y86.168 E1.28292
G1 X43.422 Y86.297 E1.31791
G1 X42.365 Y86.389 E1.3532
G1 X41.318 Y86.444 E1.38807
G1 X40.261 Y86.462 E1.42323
G1 X39.204 Y86.444 E1.45839
G1 X38.151 Y86.388 E1.49347
G1 X37.115 Y86.298 E1.52805
G1 X36.05 Y86.167 E1.56374
G1 X35.02 Y86.004 E1.59843
G1 X33.984 Y85.802 E1.63353
G1 X32.945 Y85.562 E1.669
G1 X31.94 Y85.293 E1.7036
G1 X30.925 Y84.983 E1.7389
G1 X29.929 Y84.64 E1.77394
G1 X28.951 Y84.265 E1.80878
G1 X27.974 Y83.851 E1.84407
G1 X27.026 Y83.408 E1.87887
G1 X26.092 Y82.932 E1.91374
G1 X25.152 Y82.411 E1.94948
G1 X24.254 Y81.871 E1.98434
G1 X23.377 Y81.301 E2.01912
G1 X22.502 Y80.688 E2.05466
G1 X21.677 Y80.066 E2.08902
G1 X20.841 Y79.39 E2.12478
G1 X20.045 Y78.698 E2.15986
G1 X19.29 Y77.993 E2.19422
G1 X18.529 Y77.233 E2.22999
G1 X17.815 Y76.468 E2.2648
G1 X17.129 Y75.677 E2.29962
G1 X16.465 Y74.858 E2.33469
G1 X15.823 Y74.005 E2.3702
G1 X15.219 Y73.142 E2.40523
G1 X14.652 Y72.269 E2.43985
G1 X14.105 Y71.359 E2.47517
G1 X13.591 Y70.431 E2.51045
G1 X13.119 Y69.504 E2.54505
G1 X12.668 Y68.537 E2.58054
G1 X12.259 Y67.572 E2.6154
G1 X11.878 Y66.581 E2.65071
G1 X11.54 Y65.598 E2.68529
G1 X11.227 Y64.577 E2.7208
G1 X10.959 Y63.572 E2.7554
G1 X10.719 Y62.531 E2.79093
G1 X10.52 Y61.504 E2.82572
G1 X10.354 Y60.456 E2.86102
G1 X10.225 Y59.409 E2.8961
G1 X10.134 Y58.366 E2.93092
G1 X10.08 Y57.318 E2.96583
G1 X10.061 Y56.273 E3.00059
G1 X10.08 Y55.204 E3.03615
G1 X10.134 Y54.159 E3.07095
G1 X10.226 Y53.116 E3.10578
G1 X10.354 Y52.069 E3.14086
G1 X10.519 Y51.022 E3.17611
G1 X10.719 Y49.994 E3.21095
G1 X10.959 Y48.953 E3.24648
G1 X11.228 Y47.948 E3.28108
G1 X11.54 Y46.927 E3.31659
G1 X11.878 Y45.944 E3.35116
G1 X12.259 Y44.953 E3.38648
G1 X12.668 Y43.988 E3.42134
G1 X13.119 Y43.021 E3.45683
G1 X13.591 Y42.094 E3.49142
G1 X14.105 Y41.165 E3.52674
G1 X14.652 Y40.256 E3.56202
G1 X15.219 Y39.383 E3.59664
G1 X15.827 Y38.514 E3.63192
G1 X16.456 Y37.678 E3.66672
G1 X17.129 Y36.848 E3.70226
G1 X17.815 Y36.057 E3.73708
G1 X18.529 Y35.292 E3.77189
G1 X19.29 Y34.532 E3.80766
G1 X20.045 Y33.827 E3.84201
G1 X20.841 Y33.135 E3.8771
G1 X21.677 Y32.459 E3.91285
G1 X22.502 Y31.837 E3.94722
G1 X23.377 Y31.223 E3.98277
G1 X24.254 Y30.654 E4.01754
G1 X25.152 Y30.114 E4.05239
G1 X26.092 Y29.593 E4.08814
G1 X27.026 Y29.117 E4.12301
G1 X27.975 Y28.674 E4.15784
G1 X28.951 Y28.26 E4.1931
G1 X29.929 Y27.885 E4.22794
G1 X30.925 Y27.542 E4.26298
G1 X31.94 Y27.232 E4.29827
G1 X32.945 Y26.962 E4.33289
G1 X33.984 Y26.722 E4.36835
G1 X35.02 Y26.521 E4.40345
G1 X36.05 Y26.358 E4.43814
G1 X37.115 Y26.226 E4.47383
G1 X38.15 Y26.136 E4.50838
G1 X39.203 Y26.081 E4.54346
G1 X40.261 Y26.062 E4.57865
G1 X41.319 Y26.081 E4.61384
G1 X42.373 Y26.136 E4.64895
G1 X43.407 Y26.227 E4.68347
G1 X44.472 Y26.358 E4.71916
G1 X45.502 Y26.52 E4.75384
G1 X46.538 Y26.722 E4.78895
G1 X47.577 Y26.962 E4.82441
G1 X48.582 Y27.232 E4.85903
G1 X49.597 Y27.542 E4.89432
G1 X50.593 Y27.885 E4.92936
G1 X51.571 Y28.26 E4.9642
G1 X52.548 Y28.674 E4.99949
G1 X53.49 Y29.114 E5.03407
G1 X54.43 Y29.593 E5.06916
G1 X55.37 Y30.114 E5.10491
G1 X56.256 Y30.647 E5.1393
G1 X57.151 Y31.228 E5.17479
G1 X58.021 Y31.837 E5.21011
G1 X58.845 Y32.459 E5.24445
G1 X59.681 Y33.135 E5.2802
G1 X60.466 Y33.817 E5.31479
G1 X61.232 Y34.532 E5.34964
G1 X61.993 Y35.292 E5.38541
G1 X62.697 Y36.046 E5.41972
G1 X63.389 Y36.843 E5.45483
G1 X64.052 Y37.661 E5.48985
G1 X64.695 Y38.515 E5.52541
G1 X65.299 Y39.377 E5.56041
G1 X65.87 Y40.256 E5.59528
G1 X66.41 Y41.153 E5.6301
G1 X66.928 Y42.088 E5.66565
G1 X67.403 Y43.021 E5.70047
G1 X67.851 Y43.982 E5.73574
G1 X68.258 Y44.941 E5.77039
G1 X68.639 Y45.93 E5.80564
G1 X68.98 Y46.92 E5.84047
G1 X69.293 Y47.942 E5.87602
G1 X69.561 Y48.946 E5.91058
G1 X69.8 Y49.98 E5.94588
G1 X70.002 Y51.021 E5.98115
G1 X70.165 Y52.049 E6.01576
G1 X70.297 Y53.116 E6.05152
G1 X70.387 Y54.145 E6.08588
G1 X70.442 Y55.198 E6.12095
G1 X70.461 Y56.251 E6.15598
G1 X70.442 Y57.318 E6.19147
G1 X70.388 Y58.366 E6.22638
G1 X70.296 Y59.409 E6.2612
G1 X70.168 Y60.456 E6.29628
G1 X70.003 Y61.503 E6.33154
G1 X69.803 Y62.531 E6.36637
G1 X69.563 Y63.572 E6.4019
G1 X69.294 Y64.577 E6.4365
G1 X68.982 Y65.598 E6.47201
G1 X68.644 Y66.581 E6.50659
G1 X68.263 Y67.572 E6.5419
G1 X67.854 Y68.537 E6.57676
G1 X67.403 Y69.504 E6.61225
G1 X66.931 Y70.431 E6.64685
G1 X66.417 Y71.359 E6.68213
G1 X65.87 Y72.269 E6.71744
G1 X65.303 Y73.142 E6.75207
G1 X64.699 Y74.005 E6.7871
G1 X64.057 Y74.858 E6.82261
G1 X63.393 Y75.677 E6.85768
G1 X62.707 Y76.468 E6.8925
G1 X61.993 Y77.233 E6.92731
G1 X61.232 Y77.993 E6.96308
G1 X60.477 Y78.698 E6.99744
G1 X59.681 Y79.39 E7.03252
G1 X58.845 Y80.066 E7.06827
G1 X58.02 Y80.688 E7.10264
G1 X57.145 Y81.302 E7.13819
G1 X56.268 Y81.871 E7.17296
G1 X55.37 Y82.411 E7.20781
G1 X54.43 Y82.932 E7.24356
G1 X53.496 Y83.408 E7.27843
G1 X52.549 Y83.851 E7.3132
G0 F6000 X52.705 Y84.219
;TYPE:WALL-OUTER
G1 F1200 X51.727 Y84.633 E7.34852
G1 X50.723 Y85.018 E7.38429
G1 X49.714 Y85.366 E7.41979
G1 X48.699 Y85.676 E7.45509
G1 X47.667 Y85.952 E7.49062
G1 X46.62 Y86.194 E7.52636
G1 X45.578 Y86.396 E7.56166
G1 X44.521 Y86.564 E7.59726
G1 X43.456 Y86.696 E7.63295
G1 X42.399 Y86.787 E7.66824
G1 X41.325 Y86.844 E7.70401
G1 X40.261 Y86.862 E7.7394
G1 X39.197 Y86.844 E7.7748
G1 X38.124 Y86.787 E7.81053
G1 X37.066 Y86.695 E7.84586
G1 X36.001 Y86.564 E7.88154
G1 X34.944 Y86.397 E7.91714
G1 X33.902 Y86.194 E7.95245
G1 X32.855 Y85.952 E7.98819
G1 X31.823 Y85.676 E8.02372
G1 X30.808 Y85.366 E8.05902
G1 X29.799 Y85.018 E8.09452
G1 X28.795 Y84.633 E8.13028
G1 X27.818 Y84.219 E8.16557
G1 X26.844 Y83.764 E8.20133
G1 X25.898 Y83.282 E8.23664
G1 X24.958 Y82.761 E8.27239
G1 X24.048 Y82.214 E8.3077
G1 X23.147 Y81.629 E8.34343
G1 X22.272 Y81.016 E8.37896
G1 X21.425 Y80.377 E8.41425
G1 X20.589 Y79.701 E8.45001
G1 X19.783 Y79 E8.48554
G1 X19.007 Y78.276 E8.52084
G1 X18.246 Y77.516 E8.55661
G1 X17.523 Y76.741 E8.59186
G1 X16.818 Y75.929 E8.62763
G1 X16.145 Y75.099 E8.66317
G1 X15.503 Y74.246 E8.69868
G1 X14.891 Y73.371 E8.73419
G1 X14.309 Y72.475 E8.76973
G1 X13.762 Y71.565 E8.80504
G1 X13.241 Y70.625 E8.84079
G1 X12.756 Y69.673 E8.87632
G1 X12.305 Y68.706 E8.91181
G1 X11.891 Y67.728 E8.94714
G1 X11.505 Y66.725 E8.98288
G1 X11.157 Y65.715 E9.01841
G1 X10.845 Y64.694 E9.05392
G1 X10.569 Y63.662 E9.08945
G1 X10.329 Y62.621 E9.12498
G1 X10.127 Y61.58 E9.16025
G1 X9.959 Y60.518 E9.19601
G1 X9.828 Y59.458 E9.23154
G1 X9.736 Y58.401 E9.26683
G1 X9.68 Y57.327 E9.3026
G1 X9.661 Y56.266 E9.33789
G1 X9.68 Y55.197 E9.37345
G1 X9.736 Y54.124 E9.40919
G1 X9.829 Y53.067 E9.44448
G1 X9.959 Y52.007 E9.48
G1 X10.126 Y50.945 E9.51576
G1 X10.329 Y49.904 E9.55103
G1 X10.569 Y48.863 E9.58656
G1 X10.845 Y47.831 E9.6221
G1 X11.157 Y46.81 E9.6576
G1 X11.505 Y45.8 E9.69313
G1 X11.891 Y44.797 E9.72888
G1 X12.305 Y43.819 E9.7642
G1 X12.756 Y42.852 E9.79969
G1 X13.241 Y41.9 E9.83523
G1 X13.762 Y40.959 E9.871
G1 X14.309 Y40.05 E9.90629
G1 X14.891 Y39.154 E9.94182
G1 X15.507 Y38.274 E9.97755
G1 X16.145 Y37.426 E10.01285
G1 X16.818 Y36.596 E10.04839
G1 X17.523 Y35.784 E10.08415
G1 X18.246 Y35.009 E10.11941
G1 X19.007 Y34.249 E10.15518
G1 X19.783 Y33.525 E10.19048
G1 X20.589 Y32.824 E10.226
G1 X21.425 Y32.148 E10.26176
G1 X22.272 Y31.509 E10.29705
G1 X23.147 Y30.896 E10.33259
G1 X24.048 Y30.311 E10.36832
G1 X24.958 Y29.764 E10.40363
G1 X25.898 Y29.243 E10.43937
G1 X26.844 Y28.761 E10.47469
G1 X27.819 Y28.306 E10.51047
G1 X28.795 Y27.892 E10.54573
G1 X29.799 Y27.507 E10.5815
G1 X30.808 Y27.159 E10.617
G1 X31.823 Y26.849 E10.6523
G1 X32.855 Y26.572 E10.68784
G1 X33.902 Y26.33 E10.72358
G1 X34.944 Y26.128 E10.75888
G1 X36.001 Y25.961 E10.79447
G1 X37.066 Y25.829 E10.83017
G1 X38.123 Y25.737 E10.86545
G1 X39.196 Y25.681 E10.90119
G1 X40.261 Y25.662 E10.93662
G1 X41.326 Y25.681 E10.97205
G1 X42.4 Y25.737 E11.00782
G1 X43.456 Y25.83 E11.04307
G1 X44.521 Y25.961 E11.07876
G1 X45.578 Y26.127 E11.11435
G1 X46.62 Y26.33 E11.14966
G1 X47.667 Y26.572 E11.1854
G1 X48.699 Y26.849 E11.22094
G1 X49.714 Y27.159 E11.25624
G1 X50.723 Y27.507 E11.29174
G1 X51.727 Y27.892 E11.3275
G1 X52.704 Y28.306 E11.36279
G1 X53.672 Y28.758 E11.39833
G1 X54.624 Y29.243 E11.43386
G1 X55.564 Y29.764 E11.46961
G1 X56.474 Y30.311 E11.50492
G1 X57.369 Y30.892 E11.54041
G1 X58.25 Y31.509 E11.57619
G1 X59.097 Y32.148 E11.61148
G1 X59.933 Y32.824 E11.64723
G1 X60.739 Y33.525 E11.68276
G1 X61.515 Y34.249 E11.71806
G1 X62.276 Y35.009 E11.75383
G1 X62.999 Y35.784 E11.78908
G1 X63.7 Y36.591 E11.82464
G1 X64.372 Y37.42 E11.86013
G1 X65.015 Y38.274 E11.89569
G1 X65.627 Y39.148 E11.93117
G1 X66.213 Y40.05 E11.96695
G1 X66.76 Y40.959 E12.00224
G1 X67.278 Y41.894 E12.03779
G1 X67.766 Y42.852 E12.07355
G1 X68.214 Y43.813 E12.10881
G1 X68.631 Y44.797 E12.14436
G1 X69.017 Y45.8 E12.1801
G1 X69.363 Y46.803 E12.21539
G1 X69.675 Y47.825 E12.25093
G1 X69.951 Y48.856 E12.28643
G1 X70.193 Y49.904 E12.3222
G1 X70.395 Y50.945 E12.35747
G1 X70.562 Y52 E12.393
G1 X70.694 Y53.067 E12.42876
G1 X70.786 Y54.124 E12.46405
G1 X70.842 Y55.191 E12.49959
G1 X70.861 Y56.258 E12.53508
G1 X70.842 Y57.327 E12.57064
G1 X70.786 Y58.401 E12.60641
G1 X70.693 Y59.458 E12.6417
G1 X70.563 Y60.518 E12.67722
G1 X70.396 Y61.58 E12.71298
G1 X70.193 Y62.621 E12.74825
G1 X69.953 Y63.662 E12.78379
G1 X69.677 Y64.694 E12.81932
G1 X69.365 Y65.715 E12.85483
G1 X69.017 Y66.725 E12.89036
G1 X68.631 Y67.728 E12.9261
G1 X68.217 Y68.706 E12.96143
G1 X67.766 Y69.673 E12.99691
G1 X67.281 Y70.625 E13.03245
G1 X66.76 Y71.565 E13.0682
G1 X66.213 Y72.475 E13.10351
G1 X65.631 Y73.371 E13.13905
G1 X65.019 Y74.246 E13.17456
G1 X64.377 Y75.099 E13.21007
G1 X63.704 Y75.929 E13.24561
G1 X62.999 Y76.741 E13.28138
G1 X62.276 Y77.516 E13.31663
G1 X61.515 Y78.276 E13.3524
G1 X60.739 Y79 E13.3877
G1 X59.933 Y79.701 E13.42323
G1 X59.097 Y80.377 E13.45898
G1 X58.25 Y81.016 E13.49427
G1 X57.375 Y81.629 E13.52981
G1 X56.474 Y82.214 E13.56554
G1 X55.564 Y82.761 E13.60085
G1 X54.624 Y83.282 E13.6366
G1 X53.678 Y83.764 E13.67191
G1 X52.705 Y84.219 E13.70764
G0 F6000 X52.527 Y83.818
G0 X52.385 Y83.498
;TYPE:SKIN
G1 F1200 X51.425 Y83.903 E13.74229
G1 X50.459 Y84.273 E13.7767
G1 X49.482 Y84.61 E13.81107
G1 X48.481 Y84.917 E13.84589
G1 X47.483 Y85.183 E13.88025
G1 X46.457 Y85.42 E13.91527
G1 X45.458 Y85.614 E13.94912
G1 X44.392 Y85.784 E13.98502
G1 X43.382 Y85.91 E14.01887
G1 X42.345 Y85.999 E14.05349
G1 X41.298 Y86.054 E14.08836
G1 X40.261 Y86.072 E14.12286
G1 X39.225 Y86.054 E14.15732
G1 X38.172 Y85.998 E14.19239
G1 X37.195 Y85.914 E14.22501
G1 X36.103 Y85.779 E14.2616
G1 X35.049 Y85.614 E14.29709
G1 X34.072 Y85.422 E14.3302
G1 X33.039 Y85.183 E14.36547
G1 X32.041 Y84.916 E14.39983
G1 X31.052 Y84.614 E14.43422
G1 X30.063 Y84.274 E14.46901
G1 X29.097 Y83.903 E14.50343
G1 X28.138 Y83.498 E14.53805
G1 X27.192 Y83.055 E14.57279
G1 X26.281 Y82.591 E14.6068
G1 X25.347 Y82.073 E14.64232
G1 X24.461 Y81.54 E14.67671
G1 X23.592 Y80.975 E14.71118
G1 X22.726 Y80.368 E14.74636
G1 X21.917 Y79.758 E14.78006
G1 X21.086 Y79.086 E14.8156
G1 X20.306 Y78.408 E14.84998
G1 X19.561 Y77.713 E14.88386
G1 X18.809 Y76.961 E14.91924
G1 X18.105 Y76.207 E14.95355
G1 X17.428 Y75.426 E14.98792
G1 X16.768 Y74.612 E15.02278
G1 X16.143 Y73.781 E15.05736
G1 X15.538 Y72.918 E15.09242
G1 X14.983 Y72.062 E15.12635
G1 X14.443 Y71.164 E15.1612
G1 X13.932 Y70.242 E15.19626
G1 X13.466 Y69.327 E15.23041
G1 X13.021 Y68.372 E15.26546
G1 X12.621 Y67.426 E15.29962
G1 X12.245 Y66.447 E15.3345
G1 X11.909 Y65.471 E15.36883
G1 X11.6 Y64.462 E15.40393
G1 X11.336 Y63.471 E15.43804
G1 X11.101 Y62.45 E15.47288
G1 X10.904 Y61.437 E15.50721
G1 X10.738 Y60.39 E15.54247
G1 X10.611 Y59.362 E15.57692
G1 X10.524 Y58.346 E15.61083
G1 X10.47 Y57.298 E15.64574
G1 X10.451 Y56.28 E15.6796
G1 X10.47 Y55.224 E15.71473
G1 X10.524 Y54.179 E15.74953
G1 X10.61 Y53.192 E15.78248
G1 X10.74 Y52.13 E15.81807
G1 X10.91 Y51.05 E15.85443
G1 X11.099 Y50.082 E15.88724
G1 X11.336 Y49.054 E15.92233
G1 X11.601 Y48.062 E15.95648
G1 X11.909 Y47.054 E15.99153
G1 X12.244 Y46.078 E16.02585
G1 X12.621 Y45.099 E16.06075
G1 X13.021 Y44.153 E16.09491
G1 X13.466 Y43.198 E16.12995
G1 X13.932 Y42.283 E16.1641
G1 X14.443 Y41.36 E16.19919
G1 X14.982 Y40.463 E16.234
G1 X15.539 Y39.607 E16.26797
G1 X16.147 Y38.738 E16.30324
G1 X16.759 Y37.924 E16.33711
G1 X17.428 Y37.099 E16.37244
G1 X18.105 Y36.318 E16.40682
G1 X18.808 Y35.564 E16.4411
G1 X19.561 Y34.813 E16.47648
G1 X20.306 Y34.117 E16.51039
G1 X21.086 Y33.439 E16.54476
G1 X21.917 Y32.767 E16.58031
G1 X22.726 Y32.157 E16.614
