;FLAVOR:Marlin
;TIME:2783
;Filament used: 2.09307m
;Layer height: 0.2
;MINX:74.316
;MINY:18.041
;MINZ:0.2
;MAXX:160.684
;MAXY:104.411
;MAXZ:3
;Generated with Cura_SteamEngine 4.12.1
M140 S50
M105
M190 S50
M104 S200
M105
M109 S200
M82 ;absolute extrusion mode
; Ender 3 Custom Start G-code
G92 E0 ; Reset Extruder
G28 ; Home all axes
G1 Z2.0 F3000 ; Move Z Axis up little to prevent scratching of Heat Bed
G1 X0.1 Y20 Z0.3 F5000.0 ; Move to start position
G1 X0.1 Y200.0 Z0.3 F1500.0 E15 ; Draw the first line
G1 X0.4 Y200.0 Z0.3 F5000.0 ; Move to side a little
G1 X0.4 Y20 Z0.3 F1500.0 E30 ; Draw the second line
G92 E0 ; Reset Extruder
G1 Z2.0 F3000 ; Move Z Axis up little to prevent scratching of Heat Bed
G1 X5 Y20 Z0.3 F5000.0 ; Move over to prevent blob squish
G92 E0
G92 E0
G1 F2700 E-5
;LAYER_COUNT:15
;LAYER:0
M107
G0 F6000 X79.107 Y41.446 Z0.2
;TYPE:SKIRT
G1 F2700 E0
G1 F1200 X79.636 Y40.452 E0.03745
G1 X79.825 Y40.111 E0.05042
G1 X80.377 Y39.157 E0.08708
G1 X80.566 Y38.843 E0.09927
G1 X81.185 Y37.851 E0.13816
G1 X81.394 Y37.528 E0.15095
G1 X82.007 Y36.618 E0.18745
G1 X82.234 Y36.294 E0.2006
G1 X82.874 Y35.414 E0.2368
G1 X83.1 Y35.114 E0.24929
G1 X83.82 Y34.192 E0.2882
G1 X84.064 Y33.891 E0.30108
G1 X84.805 Y33.008 E0.33942
G1 X85.054 Y32.722 E0.35204
G1 X85.763 Y31.934 E0.38729
G1 X86.032 Y31.645 E0.40042
G1 X86.821 Y30.829 E0.43818
G1 X87.084 Y30.566 E0.45055
G1 X87.891 Y29.786 E0.48788
G1 X88.175 Y29.521 E0.5008
G1 X89.029 Y28.752 E0.53902
G1 X89.322 Y28.497 E0.55194
G1 X90.189 Y27.77 E0.58957
G1 X90.482 Y27.533 E0.6021
G1 X91.325 Y26.874 E0.63769
G1 X91.638 Y26.638 E0.65073
G1 X92.605 Y25.936 E0.69048
G1 X92.917 Y25.718 E0.70313
G1 X93.783 Y25.134 E0.73788
G1 X94.099 Y24.929 E0.7504
G1 X95.122 Y24.289 E0.79054
G1 X95.458 Y24.087 E0.80358
G1 X96.385 Y23.552 E0.83918
G1 X96.715 Y23.368 E0.85174
G1 X97.694 Y22.847 E0.88863
G1 X98.033 Y22.675 E0.90127
G1 X99.085 Y22.161 E0.94021
G1 X99.46 Y21.986 E0.95398
G1 X100.458 Y21.544 E0.99028
G1 X100.785 Y21.406 E1.00209
G1 X101.872 Y20.966 E1.04109
G1 X102.237 Y20.825 E1.0541
G1 X103.237 Y20.461 E1.0895
G1 X103.601 Y20.336 E1.1023
G1 X104.688 Y19.983 E1.14031
G1 X105.05 Y19.872 E1.15291
G1 X106.14 Y19.559 E1.19062
G1 X106.515 Y19.459 E1.20353
G1 X107.598 Y19.189 E1.24066
G1 X107.971 Y19.103 E1.25339
G1 X109.076 Y18.868 E1.29096
G1 X109.455 Y18.794 E1.30381
G1 X110.539 Y18.603 E1.34042
G1 X110.917 Y18.543 E1.35315
G1 X112.048 Y18.384 E1.39113
G1 X112.429 Y18.337 E1.4039
G1 X113.552 Y18.219 E1.44146
G1 X113.934 Y18.186 E1.45421
G1 X115.048 Y18.108 E1.49135
G1 X115.432 Y18.088 E1.50414
G1 X116.576 Y18.048 E1.54221
G1 X116.96 Y18.041 E1.55499
G1 X118.039 Y18.041 E1.59088
G1 X118.423 Y18.048 E1.60365
G1 X119.569 Y18.088 E1.64179
G1 X119.955 Y18.108 E1.65465
G1 X121.067 Y18.186 E1.69172
G1 X121.445 Y18.219 E1.70434
G1 X122.569 Y18.337 E1.74193
G1 X122.952 Y18.384 E1.75477
G1 X124.083 Y18.543 E1.79275
G1 X124.462 Y18.603 E1.80552
G1 X125.545 Y18.794 E1.84209
G1 X125.919 Y18.867 E1.85477
G1 X127.026 Y19.102 E1.89241
G1 X127.405 Y19.189 E1.90534
G1 X128.487 Y19.459 E1.94243
G1 X128.86 Y19.559 E1.95527
G1 X129.95 Y19.872 E1.99299
G1 X130.317 Y19.985 E2.00576
G1 X131.405 Y20.339 E2.04382
G1 X131.755 Y20.459 E2.05613
G1 X132.755 Y20.822 E2.09151
G1 X133.125 Y20.964 E2.10469
G1 X134.211 Y21.403 E2.14365
G1 X134.555 Y21.549 E2.15608
G1 X135.552 Y21.992 E2.19237
G1 X135.91 Y22.159 E2.2055
G1 X136.963 Y22.673 E2.24448
G1 X137.306 Y22.847 E2.25727
G1 X138.285 Y23.368 E2.29416
G1 X138.615 Y23.552 E2.30672
G1 X139.542 Y24.087 E2.34232
G1 X139.878 Y24.289 E2.35536
G1 X140.901 Y24.929 E2.3955
G1 X141.215 Y25.132 E2.40793
G1 X142.08 Y25.715 E2.44263
G1 X142.396 Y25.937 E2.45547
G1 X143.364 Y26.64 E2.49526
G1 X143.673 Y26.873 E2.50813
G1 X144.515 Y27.531 E2.54367
G1 X144.811 Y27.77 E2.55633
G1 X145.679 Y28.498 E2.59401
G1 X145.97 Y28.751 E2.60683
G1 X146.823 Y29.519 E2.64501
G1 X147.108 Y29.785 E2.65798
G1 X147.916 Y30.566 E2.69535
G1 X148.179 Y30.829 E2.70772
G1 X148.967 Y31.644 E2.74543
G1 X149.236 Y31.932 E2.75854
G1 X149.946 Y32.721 E2.79384
G1 X150.196 Y33.009 E2.80652
G1 X150.936 Y33.891 E2.84482
G1 X151.178 Y34.189 E2.85758
G1 X151.899 Y35.112 E2.89654
G1 X152.127 Y35.416 E2.90918
G1 X152.766 Y36.295 E2.94532
G1 X152.991 Y36.615 E2.95833
G1 X153.605 Y37.526 E2.99487
G1 X153.813 Y37.847 E3.00759
G1 X154.432 Y38.838 E3.04646
G1 X154.628 Y39.165 E3.05914
G1 X155.18 Y40.121 E3.09585
G1 X155.362 Y40.449 E3.10833
G1 X155.891 Y41.442 E3.14575
G1 X156.069 Y41.791 E3.15878
G1 X156.552 Y42.781 E3.19542
G1 X156.716 Y43.133 E3.20833
G1 X157.184 Y44.185 E3.24663
G1 X157.332 Y44.533 E3.25921
G1 X157.75 Y45.567 E3.2963
G1 X157.889 Y45.928 E3.30917
G1 X158.273 Y46.983 E3.34651
G1 X158.399 Y47.349 E3.35939
G1 X158.746 Y48.418 E3.39677
G1 X158.856 Y48.778 E3.40929
G1 X159.163 Y49.847 E3.44628
G1 X159.267 Y50.235 E3.45964
G1 X159.548 Y51.368 E3.49846
G1 X159.629 Y51.721 E3.51051
G1 X159.85 Y52.757 E3.54574
G1 X159.924 Y53.137 E3.55862
G1 X160.128 Y54.291 E3.5976
G1 X160.189 Y54.675 E3.61053
G1 X160.345 Y55.785 E3.64781
G1 X160.392 Y56.167 E3.66061
G1 X160.505 Y57.243 E3.6966
G1 X160.539 Y57.63 E3.70952
G1 X160.621 Y58.811 E3.74889
G1 X160.64 Y59.187 E3.76141
G1 X160.677 Y60.242 E3.79653
G1 X160.684 Y60.628 E3.80937
G1 X160.684 Y61.823 E3.84911
G1 X160.677 Y62.207 E3.86189
G1 X160.64 Y63.266 E3.89713
G1 X160.62 Y63.646 E3.90979
G1 X160.538 Y64.824 E3.94906
G1 X160.505 Y65.209 E3.96191
G1 X160.392 Y66.285 E3.9979
G1 X160.345 Y66.666 E4.01067
G1 X160.189 Y67.777 E4.04798
G1 X160.128 Y68.163 E4.06098
G1 X159.924 Y69.316 E4.09992
G1 X159.853 Y69.679 E4.11223
G1 X159.638 Y70.694 E4.14673
G1 X159.551 Y71.074 E4.1597
G1 X159.263 Y72.23 E4.19932
G1 X159.164 Y72.601 E4.21209
G1 X158.858 Y73.669 E4.24905
G1 X158.743 Y74.043 E4.26206
G1 X158.401 Y75.094 E4.29882
G1 X158.279 Y75.448 E4.31127
G1 X157.886 Y76.529 E4.34953
G1 X157.747 Y76.893 E4.36249
G1 X157.338 Y77.905 E4.39879
G1 X157.189 Y78.254 E4.41142
G1 X156.713 Y79.324 E4.45037
G1 X156.55 Y79.674 E4.46321
G1 X156.076 Y80.646 E4.49918
G1 X155.902 Y80.987 E4.51191
G1 X155.37 Y81.988 E4.54961
G1 X155.181 Y82.33 E4.56261
G1 X154.61 Y83.318 E4.60056
G1 X154.417 Y83.64 E4.61305
G1 X153.832 Y84.577 E4.64979
G1 X153.621 Y84.901 E4.66265
G1 X152.975 Y85.859 E4.70108
G1 X152.751 Y86.18 E4.7141
G1 X152.124 Y87.042 E4.74955
G1 X151.901 Y87.337 E4.76185
G1 X151.177 Y88.265 E4.801
G1 X150.93 Y88.571 E4.81408
G1 X150.204 Y89.436 E4.85164
G1 X149.956 Y89.721 E4.8642
G1 X149.257 Y90.498 E4.89897
G1 X148.987 Y90.787 E4.91212
G1 X148.143 Y91.66 E4.95251
G1 X147.876 Y91.927 E4.96507
G1 X147.118 Y92.659 E5.00011
G1 X146.843 Y92.915 E5.01261
G1 X145.968 Y93.704 E5.0518
G1 X145.67 Y93.964 E5.06495
G1 X144.834 Y94.665 E5.10124
G1 X144.539 Y94.903 E5.11384
G1 X143.633 Y95.611 E5.15209
G1 X143.326 Y95.843 E5.16489
G1 X142.441 Y96.486 E5.20127
G1 X142.128 Y96.705 E5.21398
G1 X141.181 Y97.344 E5.25197
G1 X140.854 Y97.556 E5.26494
G1 X139.914 Y98.143 E5.3018
G1 X139.595 Y98.336 E5.3142
G1 X138.592 Y98.916 E5.35273
G1 X138.251 Y99.105 E5.3657
G1 X137.279 Y99.622 E5.40232
G1 X136.928 Y99.8 E5.41541
G1 X135.938 Y100.282 E5.45203
G1 X135.583 Y100.447 E5.46505
G1 X134.537 Y100.911 E5.50311
G1 X134.212 Y101.049 E5.51485
G1 X133.179 Y101.468 E5.55193
G1 X132.808 Y101.611 E5.56515
G1 X131.748 Y101.997 E5.60267
G1 X131.377 Y102.125 E5.61573
G1 X130.273 Y102.483 E5.65433
G1 X129.918 Y102.591 E5.66667
G1 X128.881 Y102.889 E5.70256
G1 X128.497 Y102.992 E5.71578
G1 X127.395 Y103.266 E5.75355
G1 X127.029 Y103.35 E5.76604
G1 X125.924 Y103.585 E5.80361
G1 X125.545 Y103.659 E5.81646
G1 X124.461 Y103.85 E5.85307
G1 X124.083 Y103.91 E5.8658
G1 X122.952 Y104.069 E5.90378
G1 X122.571 Y104.116 E5.91655
G1 X121.448 Y104.234 E5.95411
G1 X121.071 Y104.267 E5.96669
G1 X119.949 Y104.346 E6.00411
G1 X119.559 Y104.366 E6.01709
G1 X118.469 Y104.404 E6.05337
G1 X118.086 Y104.411 E6.06611
G1 X116.915 Y104.411 E6.10506
G1 X116.532 Y104.404 E6.1178
G1 X115.44 Y104.366 E6.15414
G1 X115.049 Y104.346 E6.16716
G1 X113.929 Y104.267 E6.20451
G1 X113.555 Y104.234 E6.21699
G1 X112.431 Y104.116 E6.25458
G1 X112.048 Y104.069 E6.26742
G1 X110.917 Y103.91 E6.3054
G1 X110.538 Y103.85 E6.31817
G1 X109.455 Y103.659 E6.35474
G1 X109.081 Y103.586 E6.36742
G1 X107.974 Y103.351 E6.40506
G1 X107.602 Y103.265 E6.41776
G1 X106.501 Y102.991 E6.45549
G1 X106.119 Y102.889 E6.46864
G1 X105.082 Y102.591 E6.50453
G1 X104.721 Y102.481 E6.51708
G1 X103.616 Y102.122 E6.55573
G1 X103.257 Y101.998 E6.56836
G1 X102.198 Y101.613 E6.60584
G1 X101.833 Y101.473 E6.61884
G1 X100.799 Y101.055 E6.65593
G1 X100.446 Y100.905 E6.66869
G1 X99.4 Y100.439 E6.70678
G1 X99.065 Y100.283 E6.71907
G1 X98.076 Y99.802 E6.75565
G1 X97.721 Y99.622 E6.76888
G1 X96.749 Y99.105 E6.8055
G1 X96.408 Y98.916 E6.81847
G1 X95.405 Y98.336 E6.857
G1 X95.086 Y98.143 E6.86941
G1 X94.146 Y97.556 E6.90627
G1 X93.821 Y97.346 E6.91914
G1 X92.875 Y96.708 E6.95709
G1 X92.557 Y96.485 E6.97
G1 X91.67 Y95.84 E7.00648
G1 X91.368 Y95.612 E7.01907
G1 X90.464 Y94.906 E7.05722
G1 X90.165 Y94.664 E7.07001
G1 X89.327 Y93.961 E7.10639
G1 X89.032 Y93.704 E7.1194
G1 X88.159 Y92.917 E7.1585
G1 X87.882 Y92.659 E7.17109
G1 X87.122 Y91.925 E7.20623
G1 X86.855 Y91.658 E7.21879
G1 X86.013 Y90.787 E7.25908
G1 X85.745 Y90.5 E7.27214
G1 X85.044 Y89.721 E7.307
G1 X84.794 Y89.433 E7.31968
G1 X84.07 Y88.57 E7.35715
G1 X83.826 Y88.269 E7.37004
G1 X83.1 Y87.339 E7.40928
G1 X82.873 Y87.037 E7.42184
G1 X82.248 Y86.177 E7.4572
G1 X82.029 Y85.864 E7.46991
G1 X81.381 Y84.904 E7.50843
G1 X81.168 Y84.577 E7.52141
G1 X80.584 Y83.642 E7.55808
G1 X80.385 Y83.311 E7.57092
G1 X79.814 Y82.321 E7.60893
G1 X79.632 Y81.991 E7.62147
G1 X79.1 Y80.991 E7.65914
G1 X78.924 Y80.646 E7.67202
G1 X78.45 Y79.674 E7.70799
G1 X78.287 Y79.324 E7.72083
G1 X77.811 Y78.254 E7.75979
G1 X77.662 Y77.905 E7.77241
G1 X77.253 Y76.893 E7.80871
G1 X77.115 Y76.532 E7.82156
G1 X76.722 Y75.452 E7.85979
G1 X76.597 Y75.089 E7.87256
G1 X76.255 Y74.036 E7.90938
G1 X76.145 Y73.677 E7.92187
G1 X75.838 Y72.609 E7.95883
G1 X75.733 Y72.216 E7.97236
G1 X75.447 Y71.062 E8.0119
G1 X75.365 Y70.706 E8.02406
G1 X75.149 Y69.691 E8.05857
G1 X75.076 Y69.314 E8.07134
G1 X74.872 Y68.159 E8.11035
G1 X74.811 Y67.778 E8.12319
G1 X74.655 Y66.669 E8.16043
G1 X74.608 Y66.284 E8.17334
G1 X74.495 Y65.206 E8.20939
G1 X74.462 Y64.824 E8.22214
G1 X74.38 Y63.647 E8.26138
G1 X74.36 Y63.266 E8.27407
G1 X74.323 Y62.208 E8.30928
G1 X74.316 Y61.824 E8.32205
G1 X74.316 Y60.629 E8.3618
G1 X74.323 Y60.244 E8.37461
G1 X74.36 Y59.188 E8.40975
G1 X74.379 Y58.81 E8.42234
G1 X74.461 Y57.63 E8.46168
G1 X74.495 Y57.244 E8.47457
G1 X74.608 Y56.168 E8.51055
G1 X74.655 Y55.787 E8.52332
G1 X74.811 Y54.676 E8.56064
G1 X74.872 Y54.29 E8.57364
G1 X75.076 Y53.137 E8.61258
G1 X75.148 Y52.768 E8.62508
G1 X75.368 Y51.732 E8.66031
G1 X75.455 Y51.356 E8.67315
G1 X75.738 Y50.221 E8.71205
G1 X75.836 Y49.852 E8.72475
G1 X76.142 Y48.784 E8.7617
G1 X76.255 Y48.415 E8.77454
G1 X76.602 Y47.347 E8.81189
G1 X76.727 Y46.984 E8.82466
G1 X77.111 Y45.929 E8.862
G1 X77.247 Y45.575 E8.87461
G1 X77.665 Y44.539 E8.91177
G1 X77.819 Y44.177 E8.92485
G1 X78.287 Y43.127 E8.96309
G1 X78.446 Y42.786 E8.9756
G1 X78.929 Y41.795 E9.01227
G1 X79.107 Y41.446 E9.0253
G0 F6000 X79.46 Y41.634
G1 F1200 X79.989 Y40.64 E9.06275
G1 X80.171 Y40.311 E9.07525
G1 X80.723 Y39.357 E9.11191
G1 X80.905 Y39.055 E9.12364
G1 X81.524 Y38.063 E9.16253
G1 X81.726 Y37.752 E9.17487
G1 X82.339 Y36.842 E9.21136
G1 X82.557 Y36.529 E9.22405
G1 X83.197 Y35.649 E9.26024
G1 X83.416 Y35.36 E9.2723
G1 X84.136 Y34.438 E9.31121
G1 X84.37 Y34.148 E9.3236
G1 X85.111 Y33.265 E9.36194
G1 X85.351 Y32.989 E9.3741
G1 X86.06 Y32.201 E9.40936
G1 X86.32 Y31.923 E9.42202
G1 X87.109 Y31.107 E9.45977
G1 X87.362 Y30.853 E9.4717
G1 X88.169 Y30.073 E9.50903
G1 X88.443 Y29.818 E9.52148
G1 X89.297 Y29.049 E9.5597
G1 X89.579 Y28.804 E9.57212
G1 X90.446 Y28.077 E9.60976
G1 X90.729 Y27.848 E9.62186
G1 X91.572 Y27.189 E9.65745
G1 X91.873 Y26.962 E9.66999
G1 X92.84 Y26.26 E9.70974
G1 X93.14 Y26.05 E9.72192
G1 X94.006 Y25.466 E9.75666
G1 X94.311 Y25.268 E9.76875
G1 X95.334 Y24.628 E9.80889
G1 X95.658 Y24.433 E9.82146
G1 X96.585 Y23.898 E9.85706
G1 X96.903 Y23.722 E9.86915
G1 X97.882 Y23.201 E9.90604
G1 X98.209 Y23.034 E9.91825
G1 X99.261 Y22.52 E9.95719
G1 X99.622 Y22.352 E9.97043
G1 X100.62 Y21.91 E10.00674
G1 X100.935 Y21.776 E10.01812
G1 X102.022 Y21.336 E10.05713
G1 X102.373 Y21.201 E10.06963
G1 X103.373 Y20.837 E10.10503
G1 X103.725 Y20.716 E10.11741
G1 X104.812 Y20.363 E10.15542
G1 X105.16 Y20.257 E10.16752
G1 X106.25 Y19.944 E10.20524
G1 X106.612 Y19.847 E10.21771
G1 X107.695 Y19.577 E10.25483
G1 X108.054 Y19.494 E10.26708
G1 X109.159 Y19.259 E10.30466
G1 X109.525 Y19.188 E10.31706
G1 X110.609 Y18.997 E10.35367
G1 X110.972 Y18.939 E10.36589
G1 X112.103 Y18.78 E10.40388
G1 X112.471 Y18.735 E10.41621
G1 X113.594 Y18.617 E10.45377
G1 X113.962 Y18.585 E10.46606
G1 X115.076 Y18.507 E10.5032
G1 X115.446 Y18.487 E10.51552
G1 X116.59 Y18.447 E10.55359
G1 X116.96 Y18.441 E10.5659
G1 X118.039 Y18.441 E10.60179
G1 X118.409 Y18.447 E10.6141
G1 X119.555 Y18.487 E10.65224
G1 X119.927 Y18.507 E10.66463
G1 X121.039 Y18.585 E10.7017
G1 X121.404 Y18.617 E10.71389
G1 X122.528 Y18.735 E10.75148
G1 X122.897 Y18.78 E10.76384
G1 X124.028 Y18.939 E10.80183
G1 X124.393 Y18.997 E10.81412
G1 X125.476 Y19.188 E10.8507
G1 X125.836 Y19.258 E10.8629
G1 X126.943 Y19.493 E10.90054
G1 X127.308 Y19.577 E10.913
G1 X128.39 Y19.847 E10.95009
G1 X128.75 Y19.944 E10.96249
G1 X129.84 Y20.257 E11.00021
G1 X130.194 Y20.365 E11.01252
G1 X131.282 Y20.719 E11.05057
G1 X131.619 Y20.835 E11.06242
G1 X132.619 Y21.198 E11.09781
G1 X132.975 Y21.335 E11.11049
G1 X134.061 Y21.774 E11.14945
G1 X134.392 Y21.914 E11.16141
G1 X135.389 Y22.357 E11.19769
G1 X135.735 Y22.518 E11.21039
G1 X136.788 Y23.032 E11.24936
G1 X137.118 Y23.201 E11.26169
G1 X138.097 Y23.722 E11.29858
G1 X138.415 Y23.898 E11.31067
G1 X139.342 Y24.433 E11.34626
G1 X139.666 Y24.628 E11.35884
G1 X140.689 Y25.268 E11.39898
G1 X140.991 Y25.464 E11.41095
G1 X141.856 Y26.047 E11.44565
G1 X142.161 Y26.26 E11.45802
G1 X143.129 Y26.963 E11.49781
G1 X143.427 Y27.188 E11.51023
G1 X144.269 Y27.846 E11.54577
G1 X144.554 Y28.076 E11.55795
G1 X145.422 Y28.804 E11.59563
G1 X145.703 Y29.048 E11.60801
G1 X146.556 Y29.816 E11.64619
G1 X146.83 Y30.072 E11.65866
G1 X147.638 Y30.853 E11.69603
G1 X147.891 Y31.107 E11.70796
G1 X148.679 Y31.922 E11.74566
G1 X148.938 Y32.2 E11.7583
G1 X149.648 Y32.989 E11.7936
G1 X149.889 Y33.266 E11.80581
G1 X150.629 Y34.148 E11.84411
G1 X150.862 Y34.436 E11.85643
G1 X151.583 Y35.359 E11.89538
G1 X151.804 Y35.651 E11.90756
G1 X152.443 Y36.53 E11.94371
G1 X152.659 Y36.839 E11.95625
G1 X153.273 Y37.75 E11.99279
G1 X153.473 Y38.058 E12.005
G1 X154.092 Y39.049 E12.04386
G1 X154.282 Y39.365 E12.05613
G1 X154.834 Y40.321 E12.09284
G1 X155.009 Y40.637 E12.10486
G1 X155.538 Y41.63 E12.14228
G1 X155.71 Y41.966 E12.15483
G1 X156.193 Y42.956 E12.19147
G1 X156.351 Y43.296 E12.20394
G1 X156.819 Y44.348 E12.24224
G1 X156.961 Y44.683 E12.25434
G1 X157.379 Y45.717 E12.29143
G1 X157.513 Y46.064 E12.30381
G1 X157.897 Y47.119 E12.34115
G1 X158.018 Y47.472 E12.35356
G1 X158.365 Y48.541 E12.39094
G1 X158.471 Y48.888 E12.40301
G1 X158.778 Y49.957 E12.44
G1 X158.878 Y50.331 E12.45288
G1 X159.159 Y51.464 E12.4917
G1 X159.238 Y51.805 E12.50334
G1 X159.459 Y52.841 E12.53858
G1 X159.53 Y53.207 E12.55098
G1 X159.734 Y54.361 E12.58995
G1 X159.793 Y54.731 E12.60242
G1 X159.949 Y55.841 E12.6397
G1 X159.994 Y56.209 E12.65203
G1 X160.107 Y57.285 E12.68801
G1 X160.14 Y57.658 E12.70047
G1 X160.222 Y58.839 E12.73984
G1 X160.24 Y59.201 E12.7519
G1 X160.277 Y60.256 E12.78701
G1 X160.284 Y60.628 E12.79938
G1 X160.284 Y61.823 E12.83913
G1 X160.278 Y62.193 E12.85144
G1 X160.241 Y63.252 E12.88668
G1 X160.221 Y63.618 E12.89887
G1 X160.139 Y64.796 E12.93815
G1 X160.107 Y65.167 E12.95053
G1 X159.994 Y66.243 E12.98652
G1 X159.949 Y66.61 E12.99882
G1 X159.793 Y67.721 E13.03613
G1 X159.734 Y68.094 E13.04869
G1 X159.53 Y69.247 E13.08764
G1 X159.462 Y69.597 E13.09949
G1 X159.247 Y70.612 E13.134
