;FLAVOR:Marlin
;TIME:17969
;Filament used: 14.6607m
;Layer height: 0.2
;MINX:7.494
;MINY:14.994
;MINZ:0.2
;MAXX:220.785
;MAXY:215.273
;MAXZ:4
;Generated with Cura_SteamEngine 4.12.1
M140 S50
M105
M190 S50
M104 S200
M105
M109 S200
M82 ;absolute extrusion mode
; Ender 3 Custom Start G-code
G92 E0 ; Reset Extruder
G28 ; Home all axes
G1 Z2.0 F3000 ; Move Z Axis up little to prevent scratching of Heat Bed
G1 X0.1 Y20 Z0.3 F5000.0 ; Move to start position
G1 X0.1 Y200.0 Z0.3 F1500.0 E15 ; Draw the first line
G1 X0.4 Y200.0 Z0.3 F5000.0 ; Move to side a little
G1 X0.4 Y20 Z0.3 F1500.0 E30 ; Draw the second line
G92 E0 ; Reset Extruder
G1 Z2.0 F3000 ; Move Z Axis up little to prevent scratching of Heat Bed
G1 X5 Y20 Z0.3 F5000.0 ; Move over to prevent blob squish
G92 E0
G92 E0
G1 F2700 E-5
;LAYER_COUNT:20
;LAYER:0
M107
G0 F6000 X25.404 Y28.826 Z0.2
;TYPE:SKIRT
G1 F2700 E0
G1 F1200 X25.705 Y28.564 E0.01327
G1 X26.68 Y27.747 E0.05558
G1 X26.973 Y27.51 E0.06812
G1 X27.988 Y26.717 E0.11096
G1 X28.299 Y26.482 E0.12392
G1 X29.258 Y25.786 E0.16333
G1 X29.565 Y25.572 E0.17578
G1 X30.679 Y24.82 E0.22048
G1 X31.008 Y24.606 E0.23354
G1 X32.046 Y23.958 E0.27424
G1 X32.364 Y23.767 E0.28657
G1 X33.481 Y23.121 E0.32949
G1 X33.826 Y22.93 E0.34261
G1 X34.906 Y22.356 E0.38329
G1 X35.245 Y22.183 E0.39594
G1 X36.395 Y21.622 E0.4385
G1 X36.747 Y21.458 E0.45142
G1 X37.88 Y20.954 E0.49266
G1 X38.228 Y20.806 E0.50524
G1 X39.43 Y20.32 E0.54836
G1 X39.79 Y20.182 E0.56119
G1 X40.96 Y19.756 E0.6026
G1 X41.326 Y19.63 E0.61547
G1 X42.518 Y19.243 E0.65716
G1 X42.888 Y19.13 E0.67002
G1 X44.111 Y18.78 E0.71233
G1 X44.47 Y18.683 E0.7247
G1 X45.686 Y18.379 E0.76639
G1 X46.069 Y18.291 E0.77946
G1 X47.312 Y18.027 E0.82173
G1 X47.685 Y17.954 E0.83437
G1 X48.937 Y17.733 E0.87665
G1 X49.321 Y17.673 E0.88958
G1 X50.526 Y17.504 E0.93005
G1 X50.9 Y17.458 E0.94258
G1 X52.199 Y17.321 E0.98603
G1 X52.586 Y17.287 E0.99895
G1 X53.83 Y17.2 E1.04043
G1 X54.216 Y17.18 E1.05328
G1 X55.484 Y17.136 E1.09548
G1 X55.865 Y17.129 E1.10816
G1 X57.112 Y17.129 E1.14963
G1 X57.493 Y17.136 E1.16231
G1 X58.763 Y17.18 E1.20457
G1 X59.151 Y17.2 E1.21749
G1 X60.393 Y17.287 E1.2589
G1 X60.777 Y17.321 E1.27173
G1 X62.077 Y17.458 E1.3152
G1 X62.452 Y17.504 E1.32777
G1 X63.657 Y17.673 E1.36824
G1 X64.041 Y17.733 E1.38117
G1 X65.299 Y17.955 E1.42365
G1 X65.672 Y18.028 E1.4363
G1 X66.915 Y18.292 E1.47856
G1 X67.294 Y18.379 E1.49149
G1 X68.488 Y18.677 E1.53243
G1 X68.856 Y18.776 E1.5451
G1 X70.101 Y19.133 E1.58818
G1 X70.465 Y19.244 E1.60083
G1 X71.651 Y19.629 E1.64231
G1 X72.016 Y19.755 E1.65515
G1 X73.184 Y20.18 E1.69649
G1 X73.545 Y20.319 E1.70936
G1 X74.73 Y20.798 E1.75187
G1 X75.077 Y20.945 E1.7644
G1 X76.087 Y21.394 E1.80116
G1 X78.442 Y22.402 E1.88637
G1 X80.837 Y23.348 E1.97201
G1 X83.169 Y24.195 E2.05453
G1 X85.547 Y24.983 E2.13785
G1 X87.991 Y25.716 E2.22272
G1 X90.405 Y26.367 E2.30588
G1 X92.871 Y26.958 E2.39022
G1 X95.329 Y27.471 E2.47374
G1 X97.799 Y27.917 E2.55722
G1 X100.268 Y28.29 E2.64027
G1 X102.789 Y28.598 E2.72474
G1 X105.31 Y28.834 E2.80895
G1 X107.771 Y28.996 E2.89099
G1 X110.318 Y29.089 E2.97576
G1 X112.846 Y29.111 E3.05984
G1 X115.364 Y29.062 E3.1436
G1 X117.861 Y28.942 E3.22675
G1 X120.367 Y28.751 E3.31034
G1 X122.878 Y28.487 E3.39432
G1 X125.369 Y28.154 E3.47791
G1 X127.867 Y27.749 E3.56208
G1 X130.327 Y27.277 E3.64539
G1 X132.752 Y26.741 E3.72799
G1 X135.234 Y26.118 E3.8131
G1 X137.648 Y25.439 E3.89651
G1 X140.069 Y24.684 E3.98086
G1 X142.44 Y23.869 E4.06425
G1 X144.779 Y22.992 E4.14733
G1 X147.147 Y22.026 E4.23239
G1 X149.451 Y21.009 E4.31616
G1 X151.371 Y20.1 E4.38681
G1 X152.628 Y19.487 E4.43332
G1 X152.975 Y19.325 E4.44606
G1 X154.109 Y18.82 E4.48735
G1 X154.465 Y18.669 E4.50021
G1 X155.666 Y18.184 E4.54329
G1 X156.022 Y18.048 E4.55597
G1 X157.192 Y17.622 E4.59738
G1 X157.558 Y17.496 E4.61025
G1 X158.756 Y17.107 E4.65215
G1 X159.117 Y16.996 E4.66471
G1 X160.329 Y16.648 E4.70665
G1 X160.712 Y16.546 E4.71983
G1 X161.911 Y16.248 E4.76092
G1 X162.273 Y16.164 E4.77328
G1 X163.588 Y15.884 E4.818
G1 X163.965 Y15.811 E4.83077
G1 X165.108 Y15.609 E4.86938
G1 X165.488 Y15.549 E4.88217
G1 X166.773 Y15.368 E4.92534
G1 X167.168 Y15.319 E4.93857
G1 X168.484 Y15.182 E4.98258
G1 X168.851 Y15.15 E4.99483
G1 X170.016 Y15.068 E5.03368
G1 X170.399 Y15.048 E5.04643
G1 X171.726 Y15.001 E5.0906
G1 X172.115 Y14.994 E5.10354
G1 X173.328 Y14.994 E5.14388
G1 X173.717 Y15.001 E5.15682
G1 X175.044 Y15.048 E5.20099
G1 X175.422 Y15.068 E5.21358
G1 X176.61 Y15.151 E5.25319
G1 X176.988 Y15.184 E5.26581
G1 X178.268 Y15.318 E5.30861
G1 X178.657 Y15.366 E5.32165
G1 X179.935 Y15.546 E5.36457
G1 X180.311 Y15.605 E5.37723
G1 X181.491 Y15.813 E5.41709
G1 X181.865 Y15.886 E5.42976
G1 X183.137 Y16.156 E5.47301
G1 X183.515 Y16.243 E5.48591
G1 X184.746 Y16.55 E5.52811
G1 X185.119 Y16.65 E5.54095
G1 X186.328 Y16.997 E5.58279
G1 X186.69 Y17.108 E5.59538
G1 X187.891 Y17.498 E5.63738
G1 X188.26 Y17.625 E5.65036
G1 X189.421 Y18.048 E5.69146
G1 X189.774 Y18.183 E5.70403
G1 X190.96 Y18.662 E5.74657
G1 X191.316 Y18.814 E5.75944
G1 X192.488 Y19.336 E5.80212
G1 X192.831 Y19.495 E5.81469
G1 X193.929 Y20.03 E5.85531
G1 X194.275 Y20.207 E5.86824
G1 X195.426 Y20.819 E5.9116
G1 X195.77 Y21.009 E5.92467
G1 X196.835 Y21.625 E5.96559
G1 X197.152 Y21.816 E5.9779
G1 X198.246 Y22.499 E6.02079
G1 X198.569 Y22.709 E6.03361
G1 X199.56 Y23.377 E6.07336
G1 X199.879 Y23.6 E6.0863
G1 X200.966 Y24.39 E6.131
G1 X201.271 Y24.619 E6.14368
G1 X202.217 Y25.358 E6.18361
G1 X202.513 Y25.598 E6.19628
G1 X203.516 Y26.439 E6.23982
G1 X203.81 Y26.694 E6.25276
G1 X204.706 Y27.501 E6.29287
G1 X204.986 Y27.763 E6.30562
G1 X205.95 Y28.694 E6.3502
G1 X206.22 Y28.964 E6.3629
G1 X207.041 Y29.814 E6.4022
G1 X207.301 Y30.093 E6.41489
G1 X208.174 Y31.062 E6.45827
G1 X208.432 Y31.359 E6.47135
G1 X209.235 Y32.317 E6.51293
G1 X209.471 Y32.608 E6.52539
G1 X210.256 Y33.612 E6.56778
G1 X210.492 Y33.925 E6.58082
G1 X211.236 Y34.95 E6.62294
G1 X211.453 Y35.261 E6.63555
G1 X212.141 Y36.281 E6.67648
G1 X212.35 Y36.602 E6.68922
G1 X213.025 Y37.682 E6.73158
G1 X213.222 Y38.01 E6.7443
G1 X213.866 Y39.125 E6.78713
G1 X214.053 Y39.461 E6.79992
G1 X214.628 Y40.542 E6.84064
G1 X214.801 Y40.882 E6.85333
G1 X215.362 Y42.031 E6.89586
G1 X215.527 Y42.385 E6.90885
G1 X216.032 Y43.52 E6.95017
G1 X216.182 Y43.873 E6.96292
G1 X216.667 Y45.074 E7.006
G1 X216.803 Y45.43 E7.01868
G1 X217.229 Y46.6 E7.06009
G1 X217.354 Y46.963 E7.07286
G1 X217.743 Y48.16 E7.11472
G1 X217.856 Y48.529 E7.12756
G1 X218.2 Y49.729 E7.16908
G1 X218.301 Y50.104 E7.18199
G1 X218.616 Y51.37 E7.22539
G1 X218.699 Y51.734 E7.2378
G1 X218.95 Y52.912 E7.27786
G1 X219.024 Y53.291 E7.29071
G1 X219.25 Y54.571 E7.33394
G1 X219.311 Y54.955 E7.34687
G1 X219.488 Y56.216 E7.38922
G1 X219.535 Y56.601 E7.40212
G1 X219.662 Y57.816 E7.44275
G1 X219.695 Y58.186 E7.45511
G1 X219.785 Y59.462 E7.49765
G1 X219.805 Y59.855 E7.51074
G1 X219.849 Y61.124 E7.55298
G1 X219.856 Y61.505 E7.56565
G1 X219.856 Y62.753 E7.60716
G1 X219.849 Y63.134 E7.61983
G1 X219.805 Y64.403 E7.66206
G1 X219.785 Y64.796 E7.67515
G1 X219.695 Y66.072 E7.7177
G1 X219.662 Y66.442 E7.73005
G1 X219.535 Y67.657 E7.77068
G1 X219.489 Y68.039 E7.78348
G1 X219.311 Y69.31 E7.82617
G1 X219.248 Y69.702 E7.83937
G1 X219.024 Y70.967 E7.8821
G1 X218.954 Y71.331 E7.89443
G1 X218.705 Y72.505 E7.93435
G1 X218.616 Y72.889 E7.94746
G1 X218.299 Y74.158 E7.99096
G1 X218.202 Y74.519 E8.00339
G1 X217.856 Y75.728 E8.04522
G1 X217.742 Y76.101 E8.05819
G1 X217.352 Y77.301 E8.10016
G1 X217.226 Y77.668 E8.11307
G1 X216.797 Y78.845 E8.15473
G1 X216.662 Y79.196 E8.16724
G1 X216.164 Y80.429 E8.21147
G1 X215.215 Y82.877 E8.29879
G1 X214.37 Y85.254 E8.3827
G1 X213.594 Y87.652 E8.46653
G1 X212.891 Y90.052 E8.54971
G1 X212.246 Y92.508 E8.63416
G1 X211.687 Y94.916 E8.71638
G1 X211.171 Y97.454 E8.80253
G1 X210.75 Y99.89 E8.88475
G1 X210.393 Y102.364 E8.96789
G1 X210.1 Y104.883 E9.05223
G1 X209.881 Y107.406 E9.13646
G1 X209.734 Y109.9 E9.21956
G1 X209.658 Y112.423 E9.30351
G1 X209.652 Y114.947 E9.38746
G1 X209.717 Y117.435 E9.47024
G1 X209.857 Y119.989 E9.55531
G1 X210.062 Y122.465 E9.63795
G1 X210.344 Y124.988 E9.72239
G1 X210.693 Y127.472 E9.80582
G1 X211.111 Y129.951 E9.88943
G1 X211.594 Y132.388 E9.97206
G1 X212.166 Y134.893 E10.05752
G1 X212.788 Y137.305 E10.14037
G1 X213.483 Y139.714 E10.22376
G1 X214.253 Y142.125 E10.30794
G1 X215.087 Y144.506 E10.39185
G1 X215.97 Y146.809 E10.47389
G1 X216.685 Y148.513 E10.53535
G1 X216.872 Y148.973 E10.55187
G1 X217.02 Y149.342 E10.56509
G1 X217.595 Y150.765 E10.61614
G1 X217.732 Y151.123 E10.62889
G1 X218.158 Y152.293 E10.6703
G1 X218.284 Y152.659 E10.68317
G1 X218.671 Y153.851 E10.72486
G1 X218.784 Y154.221 E10.73773
G1 X219.134 Y155.444 E10.78004
G1 X219.232 Y155.809 E10.79261
G1 X219.535 Y157.024 E10.83425
G1 X219.621 Y157.396 E10.84695
G1 X219.886 Y158.641 E10.88929
G1 X219.959 Y159.017 E10.90203
G1 X220.18 Y160.268 E10.94428
G1 X220.241 Y160.654 E10.95728
G1 X220.41 Y161.859 E10.99775
G1 X220.457 Y162.236 E11.01039
G1 X220.592 Y163.519 E11.05329
G1 X220.625 Y163.9 E11.06601
G1 X220.714 Y165.168 E11.10829
G1 X220.734 Y165.556 E11.12121
G1 X220.778 Y166.822 E11.16335
G1 X220.785 Y167.204 E11.17605
G1 X220.785 Y168.446 E11.21736
G1 X220.778 Y168.827 E11.23004
G1 X220.734 Y170.096 E11.27227
G1 X220.714 Y170.483 E11.28516
G1 X220.627 Y171.726 E11.3266
G1 X220.593 Y172.11 E11.33942
G1 X220.457 Y173.401 E11.3826
G1 X220.411 Y173.778 E11.39523
G1 X220.242 Y174.982 E11.43567
G1 X220.182 Y175.363 E11.4485
G1 X219.956 Y176.645 E11.4918
G1 X219.882 Y177.024 E11.50464
G1 X219.621 Y178.251 E11.54636
G1 X219.535 Y178.626 E11.55916
G1 X219.237 Y179.82 E11.60009
G1 X219.139 Y180.186 E11.61269
G1 X218.782 Y181.432 E11.6558
G1 X218.669 Y181.801 E11.66864
G1 X218.284 Y182.986 E11.71008
G1 X218.16 Y183.345 E11.72271
G1 X217.735 Y184.514 E11.76408
G1 X217.597 Y184.875 E11.77694
G1 X217.118 Y186.061 E11.81948
G1 X216.968 Y186.414 E11.83224
G1 X216.446 Y187.587 E11.87494
G1 X216.283 Y187.937 E11.88778
G1 X215.748 Y189.034 E11.92837
G1 X215.573 Y189.376 E11.94115
G1 X214.961 Y190.527 E11.98451
G1 X214.769 Y190.874 E11.9977
G1 X214.153 Y191.938 E12.03859
G1 X213.968 Y192.246 E12.05054
G1 X213.286 Y193.34 E12.09342
G1 X213.07 Y193.673 E12.10662
G1 X212.388 Y194.684 E12.14718
G1 X212.167 Y194.999 E12.15998
G1 X211.401 Y196.053 E12.20332
G1 X211.168 Y196.362 E12.21619
G1 X210.415 Y197.325 E12.25685
G1 X210.182 Y197.613 E12.26917
G1 X209.351 Y198.605 E12.31221
G1 X209.089 Y198.906 E12.32548
G1 X208.256 Y199.83 E12.36686
G1 X207.997 Y200.108 E12.3795
G1 X207.116 Y201.02 E12.42167
G1 X206.847 Y201.289 E12.43432
G1 X205.937 Y202.168 E12.47641
G1 X205.661 Y202.425 E12.48895
G1 X204.735 Y203.26 E12.53042
G1 X204.431 Y203.525 E12.54383
G1 X203.441 Y204.354 E12.58678
G1 X203.157 Y204.584 E12.59894
G1 X202.192 Y205.339 E12.63969
G1 X201.878 Y205.575 E12.65275
G1 X200.826 Y206.339 E12.696
G1 X200.518 Y206.555 E12.70851
G1 X199.505 Y207.239 E12.74916
G1 X199.172 Y207.455 E12.76236
G1 X198.079 Y208.137 E12.80521
G1 X197.764 Y208.327 E12.81745
G1 X196.699 Y208.943 E12.85837
G1 X196.355 Y209.133 E12.87144
G1 X195.204 Y209.745 E12.9148
G1 X194.862 Y209.92 E12.92757
G1 X193.765 Y210.455 E12.96817
G1 X193.411 Y210.62 E12.98116
G1 X192.239 Y211.141 E13.02382
G1 X191.895 Y211.287 E13.03625
G1 X190.708 Y211.767 E13.07883
G1 X190.345 Y211.906 E13.09176
G1 X189.177 Y212.331 E13.1331
G1 X188.812 Y212.457 E13.14594
G1 X187.626 Y212.842 E13.18742
G1 X187.262 Y212.953 E13.20007
G1 X186.017 Y213.31 E13.24315
G1 X185.647 Y213.409 E13.25589
G1 X184.452 Y213.707 E13.29685
G1 X184.079 Y213.793 E13.30959
G1 X182.857 Y214.053 E13.35114
G1 X182.479 Y214.127 E13.36395
G1 X181.192 Y214.354 E13.40742
G1 X180.811 Y214.414 E13.42024
G1 X179.608 Y214.583 E13.46065
G1 X179.23 Y214.63 E13.47332
G1 X177.938 Y214.766 E13.51653
G1 X177.553 Y214.799 E13.52938
G1 X176.309 Y214.886 E13.57086
G1 X175.923 Y214.906 E13.58371
G1 X174.655 Y214.95 E13.62591
G1 X174.274 Y214.957 E13.63859
G1 X173.034 Y214.957 E13.67983
G1 X172.653 Y214.95 E13.6925
G1 X171.385 Y214.906 E13.7347
G1 X170.995 Y214.886 E13.74769
G1 X169.729 Y214.797 E13.7899
G1 X169.351 Y214.764 E13.80252
G1 X168.066 Y214.629 E13.8455
G1 X167.687 Y214.582 E13.8582
G1 X166.482 Y214.413 E13.89867
G1 X166.096 Y214.352 E13.91167
G1 X164.845 Y214.131 E13.95392
G1 X164.477 Y214.06 E13.96639
G1 X163.232 Y213.796 E14.00872
G1 X162.844 Y213.706 E14.02196
G1 X161.629 Y213.402 E14.06362
G1 X161.272 Y213.306 E14.07592
G1 X160.049 Y212.956 E14.11823
G1 X159.679 Y212.843 E14.13109
G1 X158.487 Y212.456 E14.17278
G1 X158.121 Y212.33 E14.18565
G1 X156.951 Y211.904 E14.22706
G1 X156.595 Y211.768 E14.23974
G1 X155.394 Y211.283 E14.28282
G1 X155.037 Y211.131 E14.29572
G1 X153.536 Y210.461 E14.3504
G1 X153.295 Y210.349 E14.35923
G1 X153.024 Y210.233 E14.36904
G1 X152.017 Y209.764 E14.40599
G1 X149.723 Y208.771 E14.48913
G1 X147.341 Y207.818 E14.57446
G1 X145.013 Y206.967 E14.6569
G1 X142.629 Y206.168 E14.74053
G1 X140.227 Y205.438 E14.82402
G1 X137.788 Y204.771 E14.90812
G1 X135.317 Y204.17 E14.99271
G1 X132.855 Y203.644 E15.07644
G1 X130.406 Y203.195 E15.15925
G1 X127.917 Y202.81 E15.24302
G1 X125.426 Y202.495 E15.32653
G1 X122.933 Y202.253 E15.40984
G1 X120.394 Y202.077 E15.49449
G1 X117.886 Y201.976 E15.57797
G1 X115.394 Y201.945 E15.66086
G1 X112.831 Y201.987 E15.74612
G1 X110.347 Y202.097 E15.82882
G1 X107.829 Y202.28 E15.91279
G1 X105.309 Y202.535 E15.99703
G1 X102.855 Y202.854 E16.07934
G1 X100.338 Y203.253 E16.1641
G1 X97.869 Y203.717 E16.24766
G1 X95.394 Y204.255 E16.3319
G1 X92.985 Y204.849 E16.41442
G1 X90.55 Y205.525 E16.49847
G1 X88.14 Y206.268 E16.58235
G1 X85.763 Y207.074 E16.66584
G1 X83.37 Y207.962 E16.75073
G1 X81.056 Y208.897 E16.83374
G1 X78.758 Y209.902 E16.91716
G1 X77.675 Y210.411 E16.95696
G1 X77.029 Y210.705 E16.98057
G1 X75.663 Y211.312 E17.03029
G1 X75.322 Y211.457 E17.04261
G1 X74.079 Y211.96 E17.08721
G1 X73.729 Y212.095 E17.09969
G1 X72.495 Y212.546 E17.14338
G1 X72.112 Y212.678 E17.15686
G1 X70.866 Y213.082 E17.20042
G1 X70.504 Y213.192 E17.21301
G1 X69.182 Y213.571 E17.25875
G1 X68.815 Y213.67 E17.27139
G1 X67.593 Y213.975 E17.31328
G1 X67.216 Y214.062 E17.32615
G1 X65.894 Y214.343 E17.3711
G1 X65.509 Y214.417 E17.38414
G1 X64.193 Y214.648 E17.42858
G1 X63.828 Y214.706 E17.44087
G1 X62.545 Y214.887 E17.48397
G1 X62.154 Y214.935 E17.49707
G1 X60.837 Y215.073 E17.54112
G1 X60.459 Y215.106 E17.55374
G1 X59.131 Y215.199 E17.59801
G1 X58.75 Y215.219 E17.6107
G1 X57.414 Y215.266 E17.65517
G1 X57.027 Y215.273 E17.66804
G1 X55.732 Y215.273 E17.71111
G1 X55.346 Y215.266 E17.72395
G1 X54.008 Y215.219 E17.76848
G1 X53.624 Y215.199 E17.78127
G1 X52.298 Y215.106 E17.82548
G1 X51.923 Y215.073 E17.838
G1 X50.605 Y214.935 E17.88208
G1 X50.213 Y214.887 E17.89522
G1 X48.93 Y214.706 E17.93831
G1 X48.564 Y214.648 E17.95064
G1 X47.249 Y214.417 E17.99504
G1 X46.868 Y214.343 E18.00795
G1 X45.544 Y214.062 E18.05297
G1 X45.162 Y213.974 E18.06601
G1 X43.941 Y213.669 E18.10787
G1 X43.576 Y213.571 E18.12044
G1 X42.254 Y213.192 E18.16618
G1 X41.887 Y213.08 E18.17894
G1 X40.64 Y212.675 E18.22255
G1 X40.269 Y212.547 E18.2356
G1 X39.035 Y212.097 E18.27929
G1 X38.682 Y211.961 E18.29187
G1 X37.44 Y211.459 E18.33642
G1 X37.084 Y211.308 E18.34929
G1 X35.877 Y210.77 E18.39324
G1 X35.541 Y210.613 E18.40557
G1 X34.407 Y210.061 E18.44752
G1 X34.054 Y209.882 E18.46069
G1 X32.806 Y209.218 E18.5077
G1 X32.475 Y209.035 E18.52028
G1 X31.378 Y208.402 E18.56241
G1 X31.052 Y208.206 E18.57506
G1 X29.924 Y207.502 E18.61928
G1 X29.595 Y207.288 E18.63234
G1 X28.491 Y206.543 E18.67664
G1 X28.181 Y206.326 E18.68922
G1 X27.115 Y205.552 E18.73304
G1 X26.805 Y205.318 E18.74596
G1 X25.748 Y204.492 E18.79057
G1 X25.442 Y204.245 E18.80365
G1 X24.431 Y203.395 E18.84758
G1 X24.155 Y203.154 E18.85977
G1 X23.192 Y202.288 E18.90285
G1 X22.906 Y202.022 E18.91584
G1 X21.944 Y201.093 E18.96032
G1 X21.672 Y200.821 E18.97311
G1 X20.745 Y199.861 E19.0175
G1 X20.48 Y199.576 E19.03044
G1 X19.612 Y198.611 E19.07361
G1 X19.369 Y198.332 E19.08592
G1 X18.521 Y197.323 E19.12975
G1 X18.276 Y197.021 E19.14269
