;FLAVOR:Marlin
;TIME:17481
;Filament used: 13.9363m
;Layer height: 0.2
;MINX:6.35
;MINY:15.938
;MINZ:0.2
;MAXX:219.636
;MAXY:213.878
;MAXZ:4
;Generated with Cura_SteamEngine 4.12.1
M140 S50
M105
M190 S50
M104 S200
M105
M109 S200
M82 ;absolute extrusion mode
; Ender 3 Custom Start G-code
G92 E0 ; Reset Extruder
G28 ; Home all axes
G1 Z2.0 F3000 ; Move Z Axis up little to prevent scratching of Heat Bed
G1 X0.1 Y20 Z0.3 F5000.0 ; Move to start position
G1 X0.1 Y200.0 Z0.3 F1500.0 E15 ; Draw the first line
G1 X0.4 Y200.0 Z0.3 F5000.0 ; Move to side a little
G1 X0.4 Y20 Z0.3 F1500.0 E30 ; Draw the second line
G92 E0 ; Reset Extruder
G1 Z2.0 F3000 ; Move Z Axis up little to prevent scratching of Heat Bed
G1 X5 Y20 Z0.3 F5000.0 ; Move over to prevent blob squish
G92 E0
G92 E0
G1 F2700 E-5
;LAYER_COUNT:20
;LAYER:0
M107
G0 F6000 X24.299 Y27.975 Z0.2
;TYPE:SKIRT
G1 F2700 E0
G1 F1200 X24.605 Y27.727 E0.0131
G1 X25.67 Y26.895 E0.05805
G1 X25.976 Y26.664 E0.0708
G1 X27.015 Y25.909 E0.11352
G1 X27.331 Y25.688 E0.12635
G1 X28.464 Y24.924 E0.1718
G1 X28.786 Y24.715 E0.18456
G1 X29.905 Y24.016 E0.22845
G1 X30.237 Y23.816 E0.24134
G1 X31.338 Y23.181 E0.28361
G1 X31.665 Y23 E0.29604
G1 X32.888 Y22.349 E0.34212
G1 X33.237 Y22.171 E0.35515
G1 X34.398 Y21.605 E0.39811
G1 X34.747 Y21.443 E0.41091
G1 X35.945 Y20.91 E0.45452
G1 X36.294 Y20.761 E0.46714
G1 X37.546 Y20.255 E0.51206
G1 X37.9 Y20.119 E0.52467
G1 X39.126 Y19.672 E0.56807
G1 X39.499 Y19.544 E0.58119
G1 X40.747 Y19.139 E0.62483
G1 X41.108 Y19.029 E0.63738
G1 X42.429 Y18.65 E0.68309
G1 X42.805 Y18.549 E0.69604
G1 X44.026 Y18.245 E0.73789
G1 X44.396 Y18.16 E0.75052
G1 X45.736 Y17.875 E0.79608
G1 X46.113 Y17.801 E0.80886
G1 X47.377 Y17.578 E0.85155
G1 X47.755 Y17.518 E0.86428
G1 X49.091 Y17.33 E0.90915
G1 X49.479 Y17.283 E0.92215
G1 X50.779 Y17.147 E0.96563
G1 X51.154 Y17.114 E0.97815
G1 X52.48 Y17.021 E1.02236
G1 X52.864 Y17.001 E1.03515
G1 X54.201 Y16.954 E1.07964
G1 X54.587 Y16.947 E1.09248
G1 X55.91 Y16.947 E1.13649
G1 X56.296 Y16.954 E1.14933
G1 X57.578 Y16.999 E1.19199
G1 X57.962 Y17.019 E1.20478
G1 X59.316 Y17.114 E1.24993
G1 X59.692 Y17.147 E1.26248
G1 X60.99 Y17.283 E1.30589
G1 X61.375 Y17.33 E1.31879
G1 X62.713 Y17.518 E1.36373
G1 X63.096 Y17.579 E1.37663
G1 X64.358 Y17.802 E1.41925
G1 X64.725 Y17.873 E1.43169
G1 X66.065 Y18.157 E1.47724
G1 X66.454 Y18.247 E1.49052
G1 X67.677 Y18.553 E1.53246
G1 X68.033 Y18.648 E1.54471
G1 X69.354 Y19.026 E1.59041
G1 X69.728 Y19.141 E1.60342
G1 X70.974 Y19.546 E1.647
G1 X71.339 Y19.671 E1.65983
G1 X72.566 Y20.118 E1.70327
G1 X72.922 Y20.255 E1.71595
G1 X74.157 Y20.754 E1.76026
G1 X74.507 Y20.903 E1.77291
G1 X75.46 Y21.327 E1.8076
G1 X77.838 Y22.345 E1.89364
G1 X80.229 Y23.292 E1.97917
G1 X82.558 Y24.134 E2.06154
G1 X84.917 Y24.915 E2.14419
G1 X87.371 Y25.651 E2.2294
G1 X89.792 Y26.304 E2.3128
G1 X92.241 Y26.891 E2.39656
G1 X94.693 Y27.405 E2.47989
G1 X97.202 Y27.856 E2.56468
G1 X99.648 Y28.226 E2.64696
G1 X102.168 Y28.534 E2.7314
G1 X104.688 Y28.77 E2.81558
G1 X107.153 Y28.932 E2.89774
G1 X109.697 Y29.025 E2.98241
G1 X112.226 Y29.047 E3.06653
G1 X114.752 Y28.998 E3.15056
G1 X117.225 Y28.879 E3.23291
G1 X119.76 Y28.685 E3.31747
G1 X122.271 Y28.422 E3.40144
G1 X124.758 Y28.09 E3.48489
G1 X127.21 Y27.691 E3.56752
G1 X129.725 Y27.21 E3.65269
G1 X132.151 Y26.673 E3.73533
G1 X134.615 Y26.056 E3.81981
G1 X137.026 Y25.377 E3.90312
G1 X139.436 Y24.625 E3.98709
G1 X141.805 Y23.812 E4.07039
G1 X144.186 Y22.918 E4.15499
G1 X146.492 Y21.977 E4.23782
G1 X149.404 Y20.681 E4.34384
G1 X149.728 Y20.532 E4.3557
G1 X151.143 Y19.902 E4.40721
G1 X151.495 Y19.752 E4.41994
G1 X152.747 Y19.246 E4.46485
G1 X153.096 Y19.112 E4.47729
G1 X154.323 Y18.664 E4.52073
G1 X154.703 Y18.533 E4.5341
G1 X155.949 Y18.129 E4.57767
G1 X156.311 Y18.019 E4.59025
G1 X157.633 Y17.64 E4.63599
G1 X158 Y17.541 E4.64864
G1 X159.222 Y17.236 E4.69053
G1 X159.602 Y17.149 E4.70349
G1 X160.94 Y16.865 E4.74899
G1 X161.313 Y16.792 E4.76163
G1 X162.577 Y16.569 E4.80432
G1 X162.956 Y16.509 E4.81708
G1 X164.293 Y16.321 E4.86199
G1 X164.68 Y16.274 E4.87495
G1 X165.979 Y16.138 E4.91839
G1 X166.356 Y16.105 E4.93098
G1 X167.684 Y16.012 E4.97526
G1 X168.065 Y15.992 E4.98795
G1 X169.401 Y15.945 E5.03241
G1 X169.788 Y15.938 E5.04528
G1 X171.11 Y15.938 E5.08925
G1 X171.496 Y15.945 E5.10209
G1 X172.779 Y15.99 E5.14479
G1 X173.163 Y16.01 E5.15758
G1 X174.516 Y16.105 E5.20269
G1 X174.891 Y16.138 E5.21522
G1 X176.191 Y16.274 E5.25869
G1 X176.578 Y16.321 E5.27166
G1 X177.915 Y16.509 E5.31656
G1 X178.296 Y16.57 E5.3294
G1 X179.559 Y16.793 E5.37205
G1 X179.927 Y16.864 E5.38452
G1 X181.267 Y17.148 E5.43008
G1 X181.652 Y17.237 E5.44322
G1 X182.873 Y17.542 E5.48508
G1 X183.238 Y17.64 E5.49765
G1 X184.56 Y18.019 E5.54339
G1 X184.927 Y18.131 E5.55615
G1 X186.174 Y18.536 E5.59976
G1 X186.544 Y18.663 E5.61277
G1 X187.77 Y19.11 E5.65617
G1 X188.124 Y19.246 E5.66879
G1 X189.376 Y19.752 E5.7137
G1 X189.73 Y19.903 E5.7265
G1 X190.94 Y20.442 E5.77056
G1 X191.278 Y20.599 E5.78295
G1 X192.408 Y21.149 E5.82475
G1 X192.761 Y21.329 E5.83793
G1 X194.009 Y21.993 E5.88495
G1 X194.34 Y22.176 E5.89753
G1 X195.437 Y22.809 E5.93965
G1 X195.763 Y23.005 E5.95231
G1 X196.891 Y23.709 E5.99653
G1 X197.224 Y23.925 E6.00973
G1 X198.33 Y24.672 E6.05412
G1 X198.635 Y24.886 E6.06652
G1 X199.704 Y25.662 E6.11045
G1 X200.015 Y25.897 E6.12342
G1 X201.063 Y26.716 E6.16765
G1 X201.359 Y26.955 E6.18031
G1 X202.345 Y27.782 E6.22311
G1 X202.639 Y28.038 E6.23608
G1 X203.66 Y28.958 E6.28179
G1 X203.94 Y29.219 E6.29452
G1 X204.855 Y30.103 E6.33683
G1 X205.121 Y30.369 E6.34935
G1 X206.074 Y31.355 E6.39495
G1 X206.341 Y31.641 E6.40797
G1 X207.188 Y32.582 E6.45008
G1 X207.437 Y32.868 E6.46269
G1 X208.311 Y33.909 E6.5079
G1 X208.556 Y34.212 E6.52086
G1 X209.372 Y35.257 E6.56496
G1 X209.604 Y35.566 E6.57781
G1 X210.369 Y36.62 E6.62112
G1 X210.583 Y36.924 E6.63349
G1 X211.33 Y38.03 E6.67788
G1 X211.543 Y38.359 E6.69092
G1 X212.244 Y39.481 E6.73492
G1 X212.442 Y39.81 E6.74769
G1 X213.107 Y40.962 E6.79193
G1 X213.294 Y41.301 E6.80481
G1 X213.898 Y42.438 E6.84763
G1 X214.069 Y42.772 E6.86011
G1 X214.673 Y44.009 E6.9059
G1 X214.838 Y44.363 E6.91889
G1 X215.359 Y45.534 E6.96151
G1 X215.507 Y45.884 E6.97415
G1 X216.009 Y47.126 E7.01871
G1 X216.147 Y47.485 E7.0315
G1 X216.594 Y48.713 E7.07497
G1 X216.719 Y49.076 E7.08774
G1 X217.135 Y50.356 E7.1325
G1 X217.249 Y50.728 E7.14544
G1 X217.608 Y51.982 E7.18882
G1 X217.706 Y52.35 E7.20149
G1 X218.033 Y53.662 E7.24646
G1 X218.119 Y54.031 E7.25907
G1 X218.385 Y55.28 E7.30154
G1 X218.458 Y55.656 E7.31428
G1 X218.694 Y56.991 E7.35937
G1 X218.755 Y57.379 E7.37243
G1 X218.937 Y58.677 E7.41603
G1 X218.983 Y59.049 E7.42849
G1 X219.12 Y60.346 E7.47187
G1 X219.155 Y60.743 E7.48513
G1 X219.249 Y62.103 E7.53047
G1 X219.268 Y62.472 E7.54276
G1 X219.313 Y63.744 E7.58509
G1 X219.32 Y64.133 E7.59803
G1 X219.32 Y65.512 E7.6439
G1 X219.313 Y65.901 E7.65684
G1 X219.268 Y67.174 E7.6992
G1 X219.249 Y67.544 E7.71153
G1 X219.155 Y68.903 E7.75684
G1 X219.12 Y69.299 E7.77006
G1 X218.983 Y70.596 E7.81344
G1 X218.938 Y70.967 E7.82587
G1 X218.756 Y72.266 E7.86949
G1 X218.694 Y72.656 E7.88263
G1 X218.458 Y73.99 E7.92769
G1 X218.386 Y74.357 E7.94012
G1 X218.121 Y75.606 E7.98259
G1 X218.033 Y75.991 E7.99573
G1 X217.705 Y77.303 E8.04071
G1 X217.608 Y77.661 E8.05304
G1 X217.254 Y78.898 E8.09584
G1 X217.139 Y79.276 E8.10898
G1 X216.713 Y80.585 E8.15476
G1 X216.591 Y80.938 E8.16719
G1 X216.144 Y82.168 E8.21071
G1 X215.255 Y84.723 E8.30069
G1 X214.512 Y87.065 E8.38241
G1 X213.81 Y89.524 E8.46747
G1 X213.18 Y91.984 E8.55193
G1 X212.639 Y94.387 E8.63385
G1 X212.145 Y96.906 E8.71923
G1 X211.741 Y99.333 E8.80106
G1 X211.39 Y101.872 E8.88631
G1 X211.121 Y104.34 E8.96889
G1 X210.916 Y106.882 E9.05371
G1 X210.785 Y109.381 E9.13694
G1 X210.726 Y111.897 E9.22064
G1 X210.736 Y114.419 E9.30453
G1 X210.818 Y116.916 E9.38762
G1 X210.974 Y119.465 E9.47256
G1 X211.197 Y121.958 E9.55581
G1 X211.489 Y124.441 E9.63896
G1 X211.855 Y126.927 E9.72254
G1 X212.295 Y129.432 E9.80713
G1 X212.79 Y131.848 E9.88916
G1 X213.38 Y134.358 E9.97492
G1 X214.016 Y136.755 E10.0574
G1 X214.73 Y139.177 E10.14138
G1 X215.512 Y141.569 E10.22508
G1 X216.121 Y143.272 E10.28524
G1 X216.17 Y143.431 E10.29077
G1 X216.912 Y145.471 E10.36297
G1 X217.035 Y145.829 E10.37556
G1 X217.451 Y147.109 E10.42033
G1 X217.565 Y147.481 E10.43327
G1 X217.924 Y148.735 E10.47665
G1 X218.023 Y149.107 E10.48945
G1 X218.351 Y150.425 E10.53463
G1 X218.435 Y150.786 E10.54696
G1 X218.698 Y152.019 E10.58889
G1 X218.772 Y152.401 E10.60183
G1 X219.007 Y153.732 E10.64678
G1 X219.068 Y154.113 E10.65962
G1 X219.255 Y155.443 E10.70429
G1 X219.301 Y155.82 E10.71692
G1 X219.436 Y157.099 E10.7597
G1 X219.471 Y157.498 E10.77302
G1 X219.563 Y158.834 E10.81756
G1 X219.582 Y159.204 E10.82988
G1 X219.629 Y160.541 E10.87438
G1 X219.636 Y160.927 E10.88722
G1 X219.636 Y162.251 E10.93126
G1 X219.629 Y162.637 E10.9441
G1 X219.584 Y163.92 E10.98679
G1 X219.565 Y164.291 E10.99915
G1 X219.471 Y165.653 E11.04456
G1 X219.436 Y166.051 E11.05785
G1 X219.301 Y167.33 E11.10062
G1 X219.255 Y167.705 E11.11319
G1 X219.068 Y169.036 E11.15789
G1 X219.007 Y169.42 E11.17083
G1 X218.772 Y170.75 E11.21575
G1 X218.7 Y171.122 E11.22835
G1 X218.438 Y172.355 E11.27027
G1 X218.351 Y172.733 E11.28318
G1 X218.022 Y174.051 E11.32836
G1 X217.925 Y174.412 E11.34079
G1 X217.566 Y175.667 E11.38421
G1 X217.451 Y176.044 E11.39732
G1 X217.035 Y177.323 E11.44205
G1 X216.912 Y177.68 E11.45461
G1 X216.468 Y178.901 E11.49782
G1 X216.329 Y179.264 E11.51075
G1 X215.823 Y180.516 E11.55566
G1 X215.677 Y180.86 E11.56809
G1 X215.155 Y182.035 E11.61085
G1 X214.985 Y182.398 E11.62419
G1 X214.383 Y183.63 E11.66979
G1 X214.216 Y183.958 E11.68204
G1 X213.613 Y185.094 E11.72481
G1 X213.421 Y185.44 E11.73797
G1 X212.764 Y186.577 E11.78165
G1 X212.569 Y186.903 E11.79428
G1 X211.848 Y188.057 E11.83954
G1 X211.638 Y188.38 E11.85236
G1 X210.908 Y189.462 E11.89577
G1 X210.688 Y189.776 E11.90852
G1 X209.917 Y190.837 E11.95214
G1 X209.689 Y191.139 E11.96473
G1 X208.853 Y192.21 E12.00992
G1 X208.608 Y192.514 E12.0229
G1 X207.788 Y193.491 E12.06533
G1 X207.533 Y193.783 E12.07822
G1 X206.63 Y194.785 E12.12308
G1 X206.371 Y195.063 E12.13572
G1 X205.468 Y195.998 E12.17895
G1 X205.198 Y196.268 E12.19165
G1 X204.233 Y197.2 E12.23628
G1 X203.955 Y197.459 E12.24891
G1 X202.953 Y198.362 E12.29378
G1 X202.659 Y198.618 E12.30674
G1 X201.69 Y199.431 E12.34881
G1 X201.391 Y199.673 E12.36161
G1 X200.318 Y200.511 E12.40689
G1 X200.01 Y200.743 E12.41971
G1 X198.94 Y201.52 E12.4637
G1 X198.631 Y201.736 E12.47623
G1 X197.554 Y202.463 E12.51945
G1 X197.228 Y202.675 E12.53239
G1 X196.093 Y203.384 E12.5769
G1 X195.764 Y203.582 E12.58967
G1 X194.591 Y204.259 E12.63471
G1 X194.256 Y204.445 E12.64746
G1 X193.15 Y205.033 E12.68912
G1 X192.809 Y205.206 E12.70184
G1 X191.579 Y205.806 E12.74736
G1 X191.223 Y205.972 E12.76042
G1 X190.037 Y206.499 E12.80359
G1 X189.696 Y206.644 E12.81591
G1 X188.443 Y207.151 E12.86087
G1 X188.086 Y207.288 E12.87359
G1 X186.866 Y207.733 E12.91678
G1 X186.492 Y207.862 E12.92994
G1 X185.213 Y208.277 E12.97466
G1 X184.846 Y208.389 E12.98742
G1 X183.592 Y208.748 E13.03081
G1 X183.226 Y208.846 E13.04341
G1 X181.907 Y209.175 E13.08862
G1 X181.535 Y209.261 E13.10132
G1 X180.304 Y209.523 E13.14318
G1 X179.925 Y209.597 E13.15602
G1 X178.593 Y209.832 E13.20101
G1 X178.214 Y209.892 E13.21377
G1 X176.884 Y210.079 E13.25845
G1 X176.503 Y210.126 E13.27121
G1 X175.201 Y210.263 E13.31476
G1 X174.819 Y210.296 E13.32751
G1 X173.52 Y210.387 E13.37082
G1 X173.135 Y210.407 E13.38364
G1 X171.79 Y210.454 E13.42841
G1 X171.406 Y210.461 E13.44118
G1 X170.099 Y210.461 E13.48465
G1 X169.716 Y210.454 E13.49739
G1 X168.367 Y210.407 E13.54229
G1 X167.98 Y210.387 E13.55517
G1 X166.684 Y210.296 E13.59839
G1 X166.304 Y210.263 E13.61107
G1 X165.001 Y210.126 E13.65465
G1 X164.619 Y210.079 E13.66745
G1 X163.289 Y209.892 E13.71212
G1 X162.908 Y209.831 E13.72496
G1 X161.577 Y209.596 E13.76991
G1 X161.204 Y209.524 E13.78254
G1 X159.971 Y209.262 E13.82447
G1 X159.593 Y209.175 E13.83737
G1 X158.275 Y208.846 E13.88255
G1 X157.911 Y208.748 E13.89509
G1 X156.657 Y208.389 E13.93847
G1 X156.285 Y208.275 E13.95141
G1 X155.005 Y207.859 E13.99618
G1 X154.643 Y207.735 E14.00891
G1 X153.423 Y207.291 E14.05209
G1 X153.067 Y207.154 E14.06477
G1 X151.346 Y206.459 E14.12651
G1 X149.154 Y205.566 E14.20523
G1 X146.776 Y204.674 E14.2897
G1 X144.393 Y203.857 E14.37349
G1 X142.005 Y203.113 E14.45668
G1 X139.576 Y202.431 E14.5406
G1 X137.089 Y201.807 E14.62588
G1 X134.677 Y201.276 E14.70802
G1 X132.216 Y200.806 E14.79136
G1 X129.715 Y200.4 E14.87563
G1 X127.206 Y200.066 E14.95981
G1 X124.717 Y199.806 E15.04305
G1 X122.239 Y199.618 E15.1257
G1 X119.683 Y199.497 E15.21081
G1 X117.189 Y199.448 E15.29378
G1 X114.634 Y199.472 E15.37876
G1 X112.139 Y199.565 E15.4618
G1 X109.66 Y199.728 E15.54443
G1 X107.118 Y199.967 E15.62935
G1 X104.634 Y200.273 E15.7126
G1 X102.14 Y200.651 E15.79649
G1 X99.639 Y201.102 E15.88102
G1 X97.233 Y201.608 E15.96279
G1 X94.758 Y202.201 E16.04744
G1 X92.31 Y202.862 E16.13178
G1 X89.924 Y203.578 E16.21463
G1 X87.504 Y204.381 E16.29944
G1 X85.159 Y205.233 E16.38242
G1 X82.81 Y206.163 E16.46645
G1 X80.513 Y207.147 E16.54956
G1 X77.667 Y208.474 E16.65401
G1 X76.127 Y209.225 E16.71099
G1 X75.778 Y209.388 E16.72381
G1 X74.591 Y209.916 E16.76701
G1 X74.24 Y210.064 E16.77968
G1 X72.98 Y210.573 E16.82488
G1 X72.627 Y210.709 E16.83746
G1 X71.409 Y211.153 E16.88058
G1 X71.044 Y211.279 E16.89343
G1 X69.805 Y211.682 E16.93676
G1 X69.434 Y211.795 E16.94966
G1 X68.105 Y212.176 E16.99564
G1 X67.732 Y212.276 E17.00849
G1 X66.511 Y212.58 E17.05034
G1 X66.144 Y212.665 E17.06287
G1 X64.82 Y212.947 E17.10789
G1 X64.435 Y213.022 E17.12094
G1 X63.122 Y213.253 E17.16528
G1 X62.751 Y213.311 E17.17777
G1 X61.438 Y213.496 E17.22187
G1 X61.048 Y213.544 E17.23494
G1 X59.787 Y213.676 E17.27711
G1 X59.417 Y213.709 E17.28946
G1 X58.058 Y213.805 E17.33478
G1 X57.662 Y213.825 E17.34797
G1 X56.329 Y213.871 E17.39233
G1 X55.95 Y213.878 E17.40493
G1 X54.654 Y213.878 E17.44804
G1 X54.268 Y213.871 E17.46088
G1 X52.931 Y213.824 E17.50538
G1 X52.548 Y213.804 E17.51813
G1 X51.221 Y213.711 E17.56238
G1 X50.843 Y213.678 E17.575
G1 X49.527 Y213.54 E17.61901
G1 X49.139 Y213.492 E17.63201
G1 X47.855 Y213.311 E17.67514
G1 X47.485 Y213.253 E17.6876
G1 X46.171 Y213.022 E17.73197
G1 X45.792 Y212.948 E17.74481
G1 X44.468 Y212.667 E17.78983
G1 X44.082 Y212.578 E17.80301
G1 X42.859 Y212.272 E17.84494
G1 X42.503 Y212.177 E17.85719
G1 X41.182 Y211.799 E17.90289
G1 X40.808 Y211.684 E17.91591
G1 X39.562 Y211.279 E17.95948
G1 X39.196 Y211.153 E17.97236
G1 X37.961 Y210.703 E18.01608
G1 X37.608 Y210.568 E18.02865
G1 X36.365 Y210.066 E18.07323
G1 X36.006 Y209.913 E18.08621
G1 X34.801 Y209.376 E18.13009
G1 X34.461 Y209.218 E18.14256
G1 X33.326 Y208.665 E18.18455
G1 X32.977 Y208.487 E18.19758
G1 X31.729 Y207.823 E18.2446
G1 X31.398 Y207.64 E18.25718
G1 X30.301 Y207.007 E18.2993
G1 X29.974 Y206.81 E18.312
G1 X28.856 Y206.112 E18.35584
G1 X28.531 Y205.901 E18.36873
G1 X27.398 Y205.137 E18.41418
G1 X27.082 Y204.916 E18.427
G1 X26.043 Y204.161 E18.46972
G1 X25.737 Y203.93 E18.48247
G1 X24.672 Y203.098 E18.52742
G1 X24.366 Y202.85 E18.54052
G1 X23.356 Y202.001 E18.58441
G1 X23.078 Y201.76 E18.59664
G1 X22.114 Y200.893 E18.63977
G1 X21.829 Y200.627 E18.65273
G1 X20.868 Y199.699 E18.69717
G1 X20.596 Y199.427 E18.70996
G1 X19.668 Y198.466 E18.75439
G1 X19.402 Y198.181 E18.76736
G1 X18.535 Y197.217 E18.81048
G1 X18.294 Y196.94 E18.8227
G1 X17.444 Y195.929 E18.86663
G1 X17.195 Y195.621 E18.8798
G1 X16.364 Y194.557 E18.9247
G1 X16.134 Y194.252 E18.93741
G1 X15.379 Y193.213 E18.98013
G1 X15.158 Y192.897 E18.99295
G1 X14.39 Y191.758 E19.03864
G1 X14.18 Y191.435 E19.05146
G1 X13.498 Y190.343 E19.09428
G1 X13.302 Y190.017 E19.10693
G1 X12.639 Y188.869 E19.15102
G1 X12.45 Y188.528 E19.16399
G1 X11.818 Y187.338 E19.2088
G1 X11.647 Y187.001 E19.22137
G1 X11.086 Y185.851 E19.26393
G1 X10.922 Y185.499 E19.27685
G1 X10.353 Y184.22 E19.32341
G1 X10.203 Y183.868 E19.33613
G1 X9.733 Y182.704 E19.37788
