;FLAVOR:Marlin
;TIME:17546
;Filament used: 13.9374m
;Layer height: 0.2
;MINX:10.253
;MINY:15.929
;MINZ:0.2
;MAXX:222.319
;MAXY:216.832
;MAXZ:4
;Generated with Cura_SteamEngine 4.12.1
M140 S50
M105
M190 S50
M104 S200
M105
M109 S200
M82 ;absolute extrusion mode
; Ender 3 Custom Start G-code
G92 E0 ; Reset Extruder
G28 ; Home all axes
G1 Z2.0 F3000 ; Move Z Axis up little to prevent scratching of Heat Bed
G1 X0.1 Y20 Z0.3 F5000.0 ; Move to start position
G1 X0.1 Y200.0 Z0.3 F1500.0 E15 ; Draw the first line
G1 X0.4 Y200.0 Z0.3 F5000.0 ; Move to side a little
G1 X0.4 Y20 Z0.3 F1500.0 E30 ; Draw the second line
G92 E0 ; Reset Extruder
G1 Z2.0 F3000 ; Move Z Axis up little to prevent scratching of Heat Bed
G1 X5 Y20 Z0.3 F5000.0 ; Move over to prevent blob squish
G92 E0
G92 E0
G1 F2700 E-5
;LAYER_COUNT:20
;LAYER:0
M107
G0 F6000 X25.922 Y28.941 Z0.2
;TYPE:SKIRT
G1 F2700 E0
G1 F1200 X26.93 Y28.032 E0.04514
G1 X27.229 Y27.772 E0.05832
G1 X28.214 Y26.946 E0.10108
G1 X28.508 Y26.709 E0.11364
G1 X29.557 Y25.889 E0.15792
G1 X29.869 Y25.653 E0.17094
G1 X30.938 Y24.877 E0.21487
G1 X31.253 Y24.657 E0.22765
G1 X32.357 Y23.913 E0.27193
G1 X32.671 Y23.709 E0.28438
G1 X33.803 Y23.001 E0.32879
G1 X34.138 Y22.8 E0.34179
G1 X35.24 Y22.164 E0.3841
G1 X35.572 Y21.979 E0.39675
G1 X36.794 Y21.329 E0.44278
G1 X37.14 Y21.153 E0.45569
G1 X38.301 Y20.587 E0.49865
G1 X38.657 Y20.422 E0.5117
G1 X39.855 Y19.89 E0.5553
G1 X40.193 Y19.746 E0.56752
G1 X41.446 Y19.239 E0.61248
G1 X41.797 Y19.104 E0.62499
G1 X43.023 Y18.656 E0.6684
G1 X43.405 Y18.524 E0.68184
G1 X44.651 Y18.12 E0.72541
G1 X45.013 Y18.01 E0.73799
G1 X46.335 Y17.631 E0.78373
G1 X46.702 Y17.532 E0.79638
G1 X47.924 Y17.227 E0.83827
G1 X48.304 Y17.14 E0.85123
G1 X49.642 Y16.856 E0.89673
G1 X50.015 Y16.783 E0.90937
G1 X51.279 Y16.56 E0.95206
G1 X51.658 Y16.5 E0.96482
G1 X52.995 Y16.312 E1.00973
G1 X53.382 Y16.265 E1.02269
G1 X54.681 Y16.129 E1.06613
G1 X55.058 Y16.096 E1.07872
G1 X56.386 Y16.003 E1.123
G1 X56.767 Y15.983 E1.13569
G1 X58.103 Y15.936 E1.18015
G1 X58.49 Y15.929 E1.19302
G1 X59.812 Y15.929 E1.23699
G1 X60.198 Y15.936 E1.24983
G1 X61.481 Y15.981 E1.29253
G1 X61.865 Y16.001 E1.30532
G1 X63.218 Y16.096 E1.35043
G1 X63.593 Y16.129 E1.36296
G1 X64.893 Y16.265 E1.40643
G1 X65.28 Y16.312 E1.4194
G1 X66.617 Y16.5 E1.4643
G1 X66.998 Y16.561 E1.47714
G1 X68.261 Y16.784 E1.51979
G1 X68.629 Y16.855 E1.53226
G1 X69.969 Y17.139 E1.57782
G1 X70.354 Y17.228 E1.59096
G1 X71.575 Y17.533 E1.63282
G1 X71.94 Y17.631 E1.64539
G1 X73.262 Y18.01 E1.69113
G1 X73.629 Y18.122 E1.70389
G1 X74.876 Y18.527 E1.7475
G1 X75.246 Y18.654 E1.76051
G1 X76.472 Y19.101 E1.80391
G1 X76.824 Y19.237 E1.81646
G1 X78.079 Y19.744 E1.86148
G1 X78.434 Y19.894 E1.8743
G1 X80.228 Y20.693 E1.93962
G1 X82.585 Y21.703 E2.02491
G1 X84.892 Y22.616 E2.10743
G1 X87.306 Y23.492 E2.19284
G1 X89.653 Y24.27 E2.27508
G1 X92.095 Y25.003 E2.35988
G1 X94.516 Y25.657 E2.44329
G1 X96.97 Y26.246 E2.52723
G1 X99.423 Y26.758 E2.61058
G1 X101.923 Y27.21 E2.69507
G1 X104.379 Y27.581 E2.77769
G1 X106.89 Y27.89 E2.86183
G1 X109.413 Y28.126 E2.94612
G1 X111.906 Y28.29 E3.02921
G1 X114.393 Y28.382 E3.11199
G1 X116.955 Y28.406 E3.1972
G1 X119.476 Y28.357 E3.28107
G1 X121.959 Y28.238 E3.36375
G1 X124.487 Y28.045 E3.44807
G1 X126.954 Y27.787 E3.53057
G1 X129.496 Y27.448 E3.61587
G1 X131.953 Y27.05 E3.69866
G1 X134.445 Y26.573 E3.78304
G1 X136.86 Y26.039 E3.86531
G1 X139.342 Y25.418 E3.9504
G1 X141.752 Y24.74 E4.03367
G1 X144.189 Y23.98 E4.11858
G1 X146.535 Y23.176 E4.20106
G1 X148.887 Y22.293 E4.28462
G1 X151.289 Y21.315 E4.37088
G1 X152.673 Y20.713 E4.42108
G1 X153.142 Y20.504 E4.43816
G1 X153.502 Y20.351 E4.45117
G1 X154.736 Y19.853 E4.49542
G1 X155.091 Y19.717 E4.50807
G1 X156.341 Y19.262 E4.55231
G1 X156.707 Y19.136 E4.56519
G1 X157.921 Y18.742 E4.60764
G1 X158.284 Y18.631 E4.62026
G1 X159.588 Y18.257 E4.66538
G1 X159.965 Y18.157 E4.67836
G1 X161.271 Y17.832 E4.72312
G1 X161.632 Y17.748 E4.73545
G1 X162.865 Y17.485 E4.77738
G1 X163.249 Y17.41 E4.79039
G1 X164.581 Y17.175 E4.83538
G1 X164.959 Y17.115 E4.84811
G1 X166.288 Y16.928 E4.89275
G1 X166.668 Y16.882 E4.90548
G1 X167.949 Y16.747 E4.94832
G1 X168.344 Y16.712 E4.96151
G1 X169.705 Y16.618 E5.00688
G1 X170.077 Y16.599 E5.01927
G1 X171.36 Y16.554 E5.06197
G1 X171.746 Y16.547 E5.07481
G1 X173.069 Y16.547 E5.11882
G1 X173.455 Y16.554 E5.13166
G1 X174.793 Y16.601 E5.17619
G1 X175.163 Y16.62 E5.18851
G1 X176.498 Y16.712 E5.23302
G1 X176.897 Y16.747 E5.24634
G1 X178.176 Y16.882 E5.28911
G1 X178.551 Y16.928 E5.30168
G1 X179.882 Y17.115 E5.34638
G1 X180.266 Y17.176 E5.35932
G1 X181.596 Y17.411 E5.40424
G1 X181.968 Y17.483 E5.41684
G1 X183.201 Y17.745 E5.45876
G1 X183.583 Y17.833 E5.4718
G1 X184.891 Y18.16 E5.51665
G1 X185.248 Y18.256 E5.52894
G1 X186.552 Y18.629 E5.57405
G1 X186.928 Y18.744 E5.58713
G1 X188.14 Y19.138 E5.62952
G1 X188.499 Y19.262 E5.64215
G1 X189.75 Y19.717 E5.68642
G1 X190.11 Y19.855 E5.69925
G1 X191.36 Y20.36 E5.74409
G1 X191.714 Y20.51 E5.75688
G1 X192.9 Y21.038 E5.80005
G1 X193.249 Y21.201 E5.81287
G1 X194.479 Y21.801 E5.85838
G1 X194.82 Y21.974 E5.8711
G1 X195.926 Y22.562 E5.91276
G1 X196.269 Y22.753 E5.92582
G1 X197.45 Y23.436 E5.9712
G1 X197.765 Y23.625 E5.98341
G1 X198.871 Y24.315 E6.02677
G1 X199.198 Y24.527 E6.03973
G1 X200.303 Y25.272 E6.08406
G1 X200.618 Y25.493 E6.09686
G1 X201.692 Y26.273 E6.14101
G1 X201.998 Y26.503 E6.15374
G1 X203.043 Y27.319 E6.19784
G1 X203.345 Y27.564 E6.21077
G1 X204.323 Y28.385 E6.25324
G1 X204.609 Y28.633 E6.26583
G1 X205.658 Y29.577 E6.31277
G1 X205.944 Y29.844 E6.32578
G1 X206.838 Y30.708 E6.36713
G1 X207.106 Y30.976 E6.37974
G1 X208.039 Y31.942 E6.42441
G1 X208.303 Y32.225 E6.43728
G1 X209.194 Y33.215 E6.48158
G1 X209.443 Y33.501 E6.49419
G1 X210.296 Y34.517 E6.53831
G1 X210.54 Y34.819 E6.55123
G1 X211.357 Y35.865 E6.59537
G1 X211.591 Y36.176 E6.60832
G1 X212.355 Y37.229 E6.65159
G1 X212.566 Y37.53 E6.66381
G1 X213.314 Y38.637 E6.70825
G1 X213.529 Y38.968 E6.72138
G1 X214.23 Y40.09 E6.76538
G1 X214.428 Y40.419 E6.77815
G1 X215.105 Y41.592 E6.8232
G1 X215.291 Y41.927 E6.83594
G1 X215.879 Y43.033 E6.8776
G1 X216.052 Y43.374 E6.89032
G1 X216.652 Y44.604 E6.93584
G1 X216.818 Y44.96 E6.9489
G1 X217.345 Y46.146 E6.99207
G1 X217.487 Y46.479 E7.00411
G1 X217.989 Y47.717 E7.04854
G1 X218.13 Y48.085 E7.06165
G1 X218.58 Y49.32 E7.10537
G1 X218.708 Y49.691 E7.11842
G1 X219.123 Y50.97 E7.16314
G1 X219.235 Y51.335 E7.17584
G1 X219.594 Y52.588 E7.21919
G1 X219.692 Y52.958 E7.23192
G1 X220.021 Y54.278 E7.27717
G1 X220.107 Y54.648 E7.28981
G1 X220.369 Y55.879 E7.33167
G1 X220.443 Y56.258 E7.34451
G1 X220.678 Y57.59 E7.3895
G1 X220.738 Y57.968 E7.40223
G1 X220.925 Y59.297 E7.44686
G1 X220.971 Y59.677 E7.45959
G1 X221.106 Y60.958 E7.50244
G1 X221.141 Y61.355 E7.51569
G1 X221.233 Y62.69 E7.5602
G1 X221.252 Y63.06 E7.57252
G1 X221.299 Y64.398 E7.61705
G1 X221.306 Y64.784 E7.62989
G1 X221.306 Y66.106 E7.67386
G1 X221.299 Y66.491 E7.68667
G1 X221.254 Y67.775 E7.7294
G1 X221.235 Y68.148 E7.74182
G1 X221.141 Y69.509 E7.7872
G1 X221.106 Y69.904 E7.80039
G1 X220.971 Y71.185 E7.84323
G1 X220.926 Y71.558 E7.85573
G1 X220.741 Y72.879 E7.90009
G1 X220.68 Y73.264 E7.91306
G1 X220.447 Y74.585 E7.95767
G1 X220.374 Y74.96 E7.97038
G1 X220.108 Y76.212 E8.01295
G1 X220.021 Y76.59 E8.02585
G1 X219.692 Y77.908 E8.07103
G1 X219.594 Y78.272 E8.08357
G1 X219.235 Y79.526 E8.12695
G1 X219.122 Y79.895 E8.13979
G1 X218.707 Y81.173 E8.18448
G1 X218.581 Y81.539 E8.19736
G1 X218.059 Y82.973 E8.24811
G1 X217.896 Y83.402 E8.26338
G1 X216.982 Y85.882 E8.35128
G1 X216.18 Y88.268 E8.43501
G1 X215.453 Y90.652 E8.5179
G1 X214.786 Y93.079 E8.60162
G1 X214.182 Y95.55 E8.68622
G1 X213.649 Y98.032 E8.77066
G1 X213.203 Y100.452 E8.8525
G1 X212.809 Y102.975 E8.93744
G1 X212.492 Y105.466 E9.02095
G1 X212.247 Y107.961 E9.10434
G1 X212.071 Y110.46 E9.18766
G1 X211.966 Y113.004 E9.27235
G1 X211.932 Y115.501 E9.3554
G1 X211.97 Y118.017 E9.4391
G1 X212.08 Y120.547 E9.52332
G1 X212.258 Y123.039 E9.60642
G1 X212.51 Y125.558 E9.69062
G1 X212.833 Y128.062 E9.77459
G1 X213.225 Y130.551 E9.8584
G1 X213.684 Y133.011 E9.94163
G1 X214.218 Y135.479 E10.02562
G1 X214.804 Y137.867 E10.1074
G1 X215.49 Y140.346 E10.19295
G1 X216.233 Y142.767 E10.27718
G1 X217.034 Y145.135 E10.36032
G1 X217.916 Y147.521 E10.44493
G1 X218.413 Y148.78 E10.48995
G1 X219.013 Y150.264 E10.54319
G1 X219.152 Y150.625 E10.55605
G1 X219.584 Y151.812 E10.59807
G1 X219.707 Y152.17 E10.61066
G1 X220.133 Y153.479 E10.65644
G1 X220.248 Y153.853 E10.66946
G1 X220.609 Y155.113 E10.71305
G1 X220.708 Y155.485 E10.72585
G1 X221.026 Y156.762 E10.76962
G1 X221.11 Y157.125 E10.78202
G1 X221.391 Y158.442 E10.82681
G1 X221.467 Y158.831 E10.83999
G1 X221.689 Y160.093 E10.88261
G1 X221.749 Y160.473 E10.8954
G1 X221.939 Y161.829 E10.94094
G1 X221.984 Y162.202 E10.95344
G1 X222.115 Y163.445 E10.99501
G1 X222.149 Y163.825 E11.0077
G1 X222.248 Y165.23 E11.05455
G1 X222.268 Y165.624 E11.06767
G1 X222.312 Y166.899 E11.1101
G1 X222.319 Y167.278 E11.12271
G1 X222.319 Y168.594 E11.16648
G1 X222.312 Y168.98 E11.17932
G1 X222.265 Y170.318 E11.22385
G1 X222.245 Y170.702 E11.23664
G1 X222.152 Y172.028 E11.28085
G1 X222.119 Y172.403 E11.29337
G1 X221.981 Y173.721 E11.33745
G1 X221.934 Y174.106 E11.35035
G1 X221.755 Y175.38 E11.39314
G1 X221.696 Y175.757 E11.40583
G1 X221.463 Y177.081 E11.45054
G1 X221.389 Y177.458 E11.46332
G1 X221.108 Y178.782 E11.50834
G1 X221.02 Y179.164 E11.52137
G1 X220.715 Y180.385 E11.56323
G1 X220.617 Y180.75 E11.5758
G1 X220.238 Y182.072 E11.62154
G1 X220.126 Y182.439 E11.63431
G1 X219.721 Y183.686 E11.67791
G1 X219.594 Y184.056 E11.69093
G1 X219.147 Y185.282 E11.73433
G1 X219.011 Y185.635 E11.74691
G1 X218.514 Y186.865 E11.79103
G1 X218.361 Y187.224 E11.80401
G1 X217.812 Y188.455 E11.84884
G1 X217.657 Y188.787 E11.86103
G1 X217.097 Y189.938 E11.9036
G1 X216.918 Y190.291 E11.91677
G1 X216.266 Y191.517 E11.96295
G1 X216.082 Y191.85 E11.97561
G1 X215.449 Y192.947 E12.01773
G1 X215.25 Y193.277 E12.03055
G1 X214.551 Y194.396 E12.07443
G1 X214.342 Y194.718 E12.0872
G1 X213.578 Y195.851 E12.13265
G1 X213.357 Y196.167 E12.14547
G1 X212.602 Y197.206 E12.18819
G1 X212.371 Y197.512 E12.20094
G1 X211.539 Y198.577 E12.24589
G1 X211.291 Y198.883 E12.25899
G1 X210.442 Y199.893 E12.30288
G1 X210.201 Y200.171 E12.31512
G1 X209.334 Y201.135 E12.35824
G1 X209.068 Y201.42 E12.37121
G1 X208.14 Y202.381 E12.41564
G1 X207.868 Y202.653 E12.42843
G1 X206.907 Y203.581 E12.47287
G1 X206.622 Y203.847 E12.48583
G1 X205.658 Y204.714 E12.52895
G1 X205.38 Y204.955 E12.54119
G1 X204.37 Y205.804 E12.58508
G1 X204.064 Y206.052 E12.59818
G1 X202.999 Y206.884 E12.64313
G1 X202.693 Y207.115 E12.65588
G1 X201.654 Y207.87 E12.6986
G1 X201.338 Y208.091 E12.71142
G1 X200.199 Y208.859 E12.75711
G1 X199.876 Y209.069 E12.76993
G1 X198.784 Y209.751 E12.81275
G1 X198.455 Y209.948 E12.8255
G1 X197.294 Y210.618 E12.87009
G1 X196.963 Y210.802 E12.88268
G1 X195.826 Y211.407 E12.92552
G1 X195.482 Y211.583 E12.93837
G1 X194.254 Y212.182 E12.98381
G1 X193.904 Y212.345 E12.99666
G1 X192.684 Y212.888 E13.04107
G1 X192.334 Y213.036 E13.05371
G1 X191.174 Y213.505 E13.09533
G1 X190.813 Y213.644 E13.10819
G1 X189.505 Y214.12 E13.15449
G1 X189.137 Y214.246 E13.16742
G1 X187.941 Y214.634 E13.20924
G1 X187.582 Y214.744 E13.22173
G1 X186.241 Y215.129 E13.26814
G1 X185.864 Y215.23 E13.28112
G1 X184.643 Y215.534 E13.32297
G1 X184.276 Y215.619 E13.3355
G1 X182.952 Y215.901 E13.38052
G1 X182.569 Y215.975 E13.3935
G1 X181.269 Y216.204 E13.4374
G1 X180.889 Y216.264 E13.4502
G1 X179.599 Y216.445 E13.49352
G1 X179.228 Y216.491 E13.50596
G1 X177.876 Y216.634 E13.55117
G1 X177.479 Y216.669 E13.56443
G1 X176.18 Y216.759 E13.60774
G1 X175.806 Y216.778 E13.62019
G1 X174.468 Y216.825 E13.66472
G1 X174.082 Y216.832 E13.67756
G1 X172.786 Y216.832 E13.72067
G1 X172.4 Y216.825 E13.73351
G1 X171.062 Y216.778 E13.77804
G1 X170.688 Y216.759 E13.79049
G1 X169.388 Y216.669 E13.83384
G1 X168.989 Y216.634 E13.84716
G1 X167.639 Y216.491 E13.89231
G1 X167.272 Y216.446 E13.90461
G1 X165.98 Y216.265 E13.948
G1 X165.595 Y216.204 E13.96096
G1 X164.297 Y215.975 E14.0048
G1 X163.924 Y215.902 E14.01744
G1 X162.6 Y215.621 E14.06246
G1 X162.214 Y215.532 E14.07564
G1 X160.991 Y215.226 E14.11757
G1 X160.63 Y215.129 E14.13
G1 X159.308 Y214.75 E14.17574
G1 X158.945 Y214.639 E14.18837
G1 X157.718 Y214.241 E14.23127
G1 X157.351 Y214.115 E14.24418
G1 X156.051 Y213.642 E14.29019
G1 X155.688 Y213.503 E14.30312
G1 X154.558 Y213.046 E14.34366
G1 X154.212 Y212.899 E14.35616
G1 X152.276 Y212.038 E14.42663
G1 X149.861 Y211.005 E14.514
G1 X147.502 Y210.071 E14.59838
G1 X145.189 Y209.236 E14.68017
G1 X142.79 Y208.442 E14.76422
G1 X140.35 Y207.71 E14.84895
G1 X137.947 Y207.063 E14.93172
G1 X135.474 Y206.472 E15.01629
G1 X133.008 Y205.954 E15.1001
G1 X130.559 Y205.515 E15.18285
G1 X128.072 Y205.14 E15.2665
G1 X125.54 Y204.83 E15.35135
G1 X123.077 Y204.6 E15.43362
G1 X120.549 Y204.436 E15.51788
G1 X118.026 Y204.343 E15.60185
G1 X115.505 Y204.322 E15.6857
G1 X112.979 Y204.372 E15.76974
G1 X110.493 Y204.492 E15.85252
G1 X107.98 Y204.684 E15.93634
G1 X105.455 Y204.95 E16.02079
G1 X102.958 Y205.284 E16.10458
G1 X100.501 Y205.684 E16.18738
G1 X98.007 Y206.162 E16.27184
G1 X95.576 Y206.7 E16.35465
G1 X93.135 Y207.313 E16.43836
G1 X90.673 Y208.006 E16.52343
G1 X88.29 Y208.75 E16.60646
G1 X85.917 Y209.565 E16.68991
G1 X83.535 Y210.461 E16.77455
G1 X81.208 Y211.411 E16.85815
G1 X79.769 Y212.037 E16.91035
G1 X78.58 Y212.567 E16.95364
G1 X78.218 Y212.721 E16.96673
G1 X76.979 Y213.221 E17.01117
G1 X76.635 Y213.353 E17.02342
G1 X75.408 Y213.801 E17.06687
G1 X75.028 Y213.932 E17.08023
G1 X73.782 Y214.336 E17.1238
G1 X73.42 Y214.446 E17.13638
G1 X72.098 Y214.825 E17.18213
G1 X71.731 Y214.924 E17.19477
G1 X70.509 Y215.229 E17.23666
G1 X70.129 Y215.316 E17.24963
G1 X68.791 Y215.6 E17.29512
G1 X68.418 Y215.673 E17.30776
G1 X67.154 Y215.896 E17.35045
G1 X66.775 Y215.956 E17.36321
G1 X65.438 Y216.144 E17.40812
G1 X65.051 Y216.191 E17.42109
G1 X63.752 Y216.327 E17.46453
G1 X63.375 Y216.36 E17.47711
G1 X62.047 Y216.453 E17.52139
G1 X61.666 Y216.473 E17.53408
G1 X60.33 Y216.52 E17.57854
G1 X59.943 Y216.527 E17.59142
G1 X58.621 Y216.527 E17.63539
G1 X58.235 Y216.52 E17.64823
G1 X56.952 Y216.475 E17.69093
G1 X56.568 Y216.455 E17.70372
G1 X55.215 Y216.36 E17.74883
G1 X54.84 Y216.327 E17.76135
G1 X53.54 Y216.191 E17.80482
G1 X53.153 Y216.144 E17.81779
G1 X51.816 Y215.956 E17.8627
G1 X51.435 Y215.895 E17.87553
G1 X50.172 Y215.672 E17.91819
G1 X49.804 Y215.601 E17.93065
G1 X48.464 Y215.317 E17.97621
G1 X48.079 Y215.228 E17.98935
G1 X46.858 Y214.923 E18.03121
G1 X46.493 Y214.825 E18.04378
G1 X45.171 Y214.446 E18.08952
G1 X44.804 Y214.334 E18.10228
G1 X43.557 Y213.929 E18.14589
G1 X43.187 Y213.802 E18.1589
G1 X41.961 Y213.355 E18.20231
G1 X41.607 Y213.219 E18.21492
G1 X40.355 Y212.713 E18.25983
G1 X40.002 Y212.562 E18.2726
G1 X38.803 Y212.028 E18.31626
G1 X38.458 Y211.868 E18.32891
G1 X37.299 Y211.303 E18.37179
G1 X36.956 Y211.128 E18.3846
G1 X35.75 Y210.487 E18.43002
G1 X35.413 Y210.3 E18.44284
G1 X34.275 Y209.643 E18.48655
G1 X33.945 Y209.445 E18.49935
G1 X32.833 Y208.75 E18.54296
G1 X32.516 Y208.544 E18.55554
G1 X31.412 Y207.8 E18.59982
G1 X31.094 Y207.578 E18.61272
G1 X30.023 Y206.8 E18.65674
G1 X29.716 Y206.568 E18.66954
G1 X28.669 Y205.75 E18.71373
G1 X28.371 Y205.509 E18.72648
G1 X27.384 Y204.681 E18.76933
G1 X27.088 Y204.424 E18.78237
G1 X26.082 Y203.517 E18.82742
G1 X25.809 Y203.262 E18.83984
G1 X24.864 Y202.35 E18.88353
G1 X24.592 Y202.078 E18.89632
G1 X23.678 Y201.132 E18.94007
G1 X23.413 Y200.848 E18.95299
G1 X22.522 Y199.858 E18.99729
G1 X22.273 Y199.572 E19.0099
G1 X21.42 Y198.556 E19.05402
G1 X21.176 Y198.254 E19.06694
G1 X20.359 Y197.208 E19.11108
G1 X20.125 Y196.897 E19.12403
G1 X19.361 Y195.844 E19.1673
G1 X19.15 Y195.543 E19.17952
G1 X18.402 Y194.436 E19.22396
G1 X18.186 Y194.103 E19.23716
G1 X17.486 Y192.982 E19.28112
G1 X17.289 Y192.654 E19.29384
G1 X16.623 Y191.5 E19.33816
G1 X16.436 Y191.163 E19.35098
G1 X15.833 Y190.028 E19.39373
G1 X15.661 Y189.69 E19.40634
